!!!!SEGMENT: pl-wn--mus-iii-70-268--001_zelenski-wladyslaw--sonate-op-30-allegro-non-troppo.krn
!!!cenid: 18xx:3710
!!!COM: Żeleński, Władysław
!!!COM-rismID: pe41024455
!!!CDT: 1837/07/06-1921/01/23
!!!CNT: Polish
!!!OPR: Sonate op. 30
!!!OTL: Allegro non troppo
!!!OMV: 001
!!!PDT: 1879
!!!AGN:
!!!SMS-siglum: PL-Wn
!!!SMS-shelfmark: Mus.III.70.268
!!!SMS-shelfwork: M
!!!SMS-variant: Partytura PL-WN Mus.III.70.268:3-15
!!!SMS-altvar: Violon PL-WN Mus.III.70.268:1-12:a
!!!NIFC-rismSourceID:
!!!NIFC-rismChildID:
!!!NIFC-islandoraID: none
!!!URL-pdf-islandora:
!!!URL-scan: https://polona.pl/item/sonate-pour-piano-et-violon-op-30,NTgxNDg1Mw/2 @EN{Scan on Polona} @PL{Skany w portalu Polona}
!!!ONB-nifc: UWAGA: części Sonaty: 1. Allegro non troppo, 2. Allegretto, 3. Molto sostenuto
!!!AIN: 2 piano 1 violn
!!!key: F
**kern	**dynam	**fing	**kern	**dynam	**fing	**kern	**dynam
*part3	*part3	*part3	*part2	*part2	*part2	*part1	*part1
*staff3	*	*	*staff2	*	*	*staff1	*
*I"Piano.	*	*	*I"Piano.	*	*	*I"Violon.	*
*I'pf.	*	*	*I'pf.	*	*	*I'vln.	*
*Ipiano	*	*	*Ipiano	*	*	*Ivioln	*
*	*	*	*ICklav	*	*	*ICstr	*
*clefF4	*	*	*clefG2	*	*	*clefG2	*
*k[b-]	*	*	*k[b-]	*	*	*k[b-]	*
*F:	*	*	*F:	*	*	*F:	*
*M12/8	*	*	*M12/8	*	*	*M12/8	*
*	*	*	*	*	*	*MM104	*
*>[A,A,B]	*	*	*>[A,A,B]	*	*	*>[A,A,B]	*
=1	=1	=1	=1	=1	=1	=1	=1
*>A	*	*	*>A	*	*	*>A	*
*	*	*	*clefF4	*	*	*	*
*	*	*	*tremolo	*	*	*cue	*
!	!	!	!	!	!	!LO:TX:a:B:t=Allegro non troppo. ([quarter-dot]=104.)	!
(8qFFF/	.	.	.	.	.	.	.
([1.FF^>)	.	.	8C\L 8F 8A 8c	p	.	1.r	.
.	.	.	8C\ 8F 8A 8c	.	.	.	.
.	.	.	8C\ 8F 8A 8c	.	.	.	.
.	.	.	8C\ 8F 8A 8c	.	.	.	.
.	.	.	8C\ 8F 8A 8c	.	.	.	.
.	.	.	8C\J 8F 8A 8c	.	.	.	.
.	.	.	8C\L 8F 8A 8c	.	.	.	.
.	.	.	8C\ 8F 8A 8c	.	.	.	.
.	.	.	8C\ 8F 8A 8c	.	.	.	.
.	.	.	8C\ 8F 8A 8c	.	.	.	.
.	.	.	8C\ 8F 8A 8c	.	.	.	.
.	.	.	8C\J 8F 8A 8c	.	.	.	.
=2	=2	=2	=2	=2	=2	=2	=2
*	*	*	*	*	*	*cue	*
!	!	!	!	!	!	!LO:TX:b:i:t=espressivo	!
2.FF/]	.	.	8C\L 8F 8A 8c	.	.	[2.aa\	p
.	.	.	8C\ 8F 8A 8c	.	.	.	.
.	.	.	8C\ 8F 8A 8c	.	.	.	.
.	.	.	8C\ 8F 8A 8c	.	.	.	.
.	.	.	8C\ 8F 8A 8c	.	.	.	.
.	.	.	8C\J 8F 8A 8c	.	.	.	.
2.DD/)	.	.	8F\L 8A 8d	.	.	4aa\]	.
.	.	.	8F\ 8A 8d	.	.	.	.
.	.	.	8F\ 8A 8d	.	.	(8bn\	.
.	.	.	8F\ 8A 8d	.	.	8ff\L)	.
.	.	.	8F\ 8A 8d	.	.	8ee\	.
.	.	.	8F\J 8A 8d	.	.	8dd\J	.
=3	=3	=3	=3	=3	=3	=3	=3
[2.EE/	.	.	8E\L 8G#X 8d	.	.	(4.dd\	.
.	.	.	8E\ 8G# 8d	.	.	.	.
.	.	.	8E\ 8G# 8d	.	.	.	.
.	.	.	8E\ 8G# 8d	<	.	2.g#X/)	<
.	.	.	8E\ 8G# 8d	.	.	.	.
.	.	.	8E\J 8G# 8d	.	.	.	.
4.EE/]	.	.	8E\L 8G# 8d	.	.	.	.
.	.	.	8E\ 8G# 8d	.	.	.	.
.	.	.	8E\ 8G# 8d	.	.	.	.
(4.EE/	.	.	8E\ 8G# 8d	.	.	[4dd\	.
.	.	.	8E\ 8G# 8d	.	.	.	.
.	.	.	8E\J 8G# 8d	[[	.	8dd~\]	[[
=4	=4	=4	=4	=4	=4	=4	=4
2.EE-X/	.	.	8F\L 8A 8c	<	.	(4.dd\	.
.	.	.	8F\ 8A 8c	.	.	.	.
.	.	.	8F\ 8A 8c	.	.	.	.
.	.	.	8F\ 8A 8c	.	.	[4.cc\	.
.	.	.	8F\ 8A 8c	.	.	.	.
.	.	.	8F\J 8A 8c	.	.	.	.
2.DD/)	.	.	8F\L 8B- 8f	.	.	4cc\])	.
.	.	.	8F\ 8B- 8f	.	.	.	.
.	.	.	8F\ 8B- 8f	.	.	(8f/	.
.	.	.	8F\ 8B- 8f	.	.	8b-/L)	.
.	.	.	8F\ 8B- 8f	.	.	8d/	.
.	.	.	8F\J 8B- 8f	.	.	8f/J	.
=5	=5	=5	=5	=5	=5	=5	=5
([2.CC/	.	.	8A\L 8c 8f	.	.	([4.f/	.
.	.	.	8A\ 8c 8f	.	.	.	.
.	.	.	8A\J 8c 8f	.	.	.	.
.	.	.	8A-X\L 8Bn 8f	.	.	8f/L]	.
.	.	.	8A-\ 8B 8f	.	.	8e~/	.
.	.	.	8A-\J 8B 8f	.	.	8d~/J)	.
4.CC/]	.	.	8G\L 8c 8e	>	.	[4.c/	.
.	.	.	8G\ 8c 8e	.	.	.	.
.	.	.	8G\ 8c 8e	.	.	.	.
4.BBB-/	.	.	8G\ 8c 8e	.	.	4c/]	.
.	.	.	8G\ 8c 8e	.	.	.	.
.	.	.	8G\J 8c 8e	]]	.	8r	.
*	*	*	*Xtremolo	*	*	*	*
!!LO:LB:g=original
=6	=6	=6	=6	=6	=6	=6	=6
*	*	*	*^	*	*	*	*
!	!	!	!LO:TX:b:i:t=espress.	!	!	!	!	!
4.AAA/	.	.	(4.f/	8f\L	p	.	2.r	.
.	.	.	.	8F\	.	.	.	.
.	.	.	.	8A\J	.	.	.	.
4.AA/	.	.	4c#X/	8c#\L	.	.	.	.
.	.	.	.	8F\	.	.	.	.
.	.	.	8d/	8d\J	.	.	.	.
2.BB-/)	.	.	4.d/	8d\L	.	.	4.r	.
.	.	.	.	8E\	.	.	.	.
.	.	.	.	8G\J	.	.	.	.
!	!	!	!	!	!	!	!LO:TX:b:i:t=leggiero	!
.	.	.	4.cn/)	8c\L	.	.	(8cc'\L	.
.	.	.	.	8E\	.	.	8bn'\	.
.	.	.	.	8G\J	.	.	8cc'\J)	.
=7	=7	=7	=7	=7	=7	=7	=7	=7
(4.AA/	.	.	(4.f/	8f\L	.	.	4ccc\	.
.	.	.	.	8F\	.	.	.	.
.	.	.	.	8A\J	.	.	8r	.
4.AAA/	.	.	4c#X/	8c#\L	.	.	4.r	.
.	.	.	.	8F\	.	.	.	.
.	.	.	8d/	8d\J	.	.	.	.
4.BBB-/	.	.	4.d/	8d\L	.	.	4.r	.
.	.	.	.	8E\	.	.	.	.
.	.	.	.	8G\J	.	.	.	.
4.BB-/	.	.	4.cn/)	8c\L	.	.	(8cc\L	.
.	.	.	.	8E\	.	.	8dd\	.
.	.	.	.	8G\J	.	.	8cc\J)	.
=8	=8	=8	=8	=8	=8	=8	=8	=8
*	*	*	*clefG2	*clefG2	*	*	*	*
4AA/)	.	.	(4.cc/	8cc\L	.	.	4ccc\	.
.	.	.	.	8c\	.	.	.	.
8r	.	.	.	8f#X\J	.	.	8r	.
(<8GG/L	.	.	8b-/L	4.d\	<	.	4.r	.
8AA/	.	.	8fn/	.	.	.	.	.
8BB-/J	.	.	8g/J	.	.	.	.	.
4.AA/	.	.	4.ee-X/	4.f/	.	.	(4.c/	.
4.BB-/	.	.	4.dd/	4.g/	.	.	8d/L)	.
.	.	.	.	.	.	.	8e/	.
.	.	.	.	.	[[	.	8f/J	.
=9	=9	=9	=9	=9	=9	=9	=9	=9
4.BBn/	.	.	4.dd-X/	4.fn/	sfz	.	(4.A-X/	<
!	!	!	!LO:TX:b:i:t=un poco	!	!	!	!	!
4.C/	.	.	4.cc/	4.e/	.	.	4G/	.
.	.	.	.	.	.	.	8e/)	[[
4.D\	.	.	4bn/)	4.d\	.	.	(4.f/	>
.	.	.	(8f/	.	>	.	.	.
4E\)	.	.	8b-X/L	4c\	.	.	4g/	.
.	.	.	8a/	.	.	.	.	.
(8CC/	.	.	8g/J)	8B-\	]	.	8B-/)	]]
*	*	*	*v	*v	*	*	*	*
!!LO:LB:g=original
=10	=10	=10	=10	=10	=10	=10	=10
8FF/)	.	.	8A/ 8f	.	.	8A/	.
8r	.	.	8r	.	.	8r	.
!	!	!	!LO:TX:a:i:t=legg.	!	!	!	!
8r	.	.	8F'/	.	.	8r	.
!	!	!	!	!	!	!LO:TX:b:i:t=dolce	!
2.FFF/ 2.FF	.	.	8A'/L	.	.	2.aa\	.
.	.	.	8c#X'/	.	.	.	.
.	.	.	8F'/J	.	.	.	.
.	.	.	8B-'/L	.	.	.	.
.	.	.	8d'/	.	.	.	.
.	.	.	8f'/J	.	.	.	.
4.GGG/ 4.GG	.	.	8e'/L	.	.	(4.gg\	.
.	.	.	8d-X'/	.	.	.	.
.	.	.	8B-'/J	.	.	.	.
=11	=11	=11	=11	=11	=11	=11	=11
4.AAA/ 4.AA	.	.	8A'/L	.	.	4.ff\	.
.	.	.	8c'/	.	.	.	.
.	.	.	8f'/J	.	.	.	.
4.CC/ 4.C	.	.	8f#X'/L	.	.	4.ee-X\	.
.	.	.	8e-X'/	.	.	.	.
.	.	.	8A'/J	.	.	.	.
4.BBB-/ 4.BB-	.	.	8B-'/L	.	.	4.dd\)	.
.	.	.	8d'/	.	.	.	.
.	.	.	8g'/J	.	.	.	.
4.AAA/ 4.AA	.	.	8a'/L	.	.	(4.ccc\	.
.	.	.	8f#'/	.	.	.	.
.	.	.	8c'/J	.	.	.	.
=12	=12	=12	=12	=12	=12	=12	=12
8GGG/ 8GG	.	.	8d/ 8g 8b-	.	.	8bb-\)	.
8r	.	.	8r	.	.	8r	.
8r	.	.	8G'/	.	.	8r	.
2.GGG/ 2.GG	.	.	8B-'/L	.	.	(2.bb-\	.
.	.	.	8e-X'/	.	.	.	.
.	.	.	8G'/J	.	.	.	.
.	.	.	8B-'/L	.	.	.	.
.	.	.	8d'/	.	.	.	.
.	.	.	8g'/J	.	.	.	.
4.AAA/ 4.AA	.	.	8f#X'/L	.	.	4.aa\)	.
.	.	.	8e-'/	.	.	.	.
.	.	.	8c'/J	.	.	.	.
=13	=13	=13	=13	=13	=13	=13	=13
4.BBB-/ 4.BB-	.	.	8B-'/L	.	.	(4.gg\	<
.	.	.	8d'/	.	.	.	.
.	.	.	8g'/J	.	.	.	.
4.DD/ 4.D	.	.	8g#X'/L	<	.	4.ff\	.
.	.	.	8f'/	.	.	.	.
.	.	.	8Bn'/J	.	.	.	.
4.CC/ 4.C	.	.	8c'/L	.	.	4.ee\)	[
.	.	.	8e'/	.	.	.	.
.	.	.	8a'/J	.	.	.	.
4.BBBn/ 4.BBn	.	.	8bn'/L	.	.	(4.ddd\	.
.	.	.	8g#X'/	.	.	.	.
.	.	.	8d'/J	[[	.	.	.
!!LO:LB:g=original
=14	=14	=14	=14	=14	=14	=14	=14
*	*	*	*^	*	*	*	*
8AAA/ 8AA	.	.	8e'/L 8a 8cc	4.ryy	.	.	8ccc\)	.
8r	.	.	8e'/	.	p <	.	8r	.
8r	.	.	8a'/J	.	.	.	8r	.
8A\L	.	.	4ee/	8e\L	.	.	(2.ccc\	p <
8c\	.	.	.	8a\	.	.	.	.
8G\J	.	.	8ee-X/	8e-X\J	.	.	.	.
8F#X\L	.	.	4.dd/	8d\L	.	.	.	.
8c\	.	.	.	8a\	.	.	.	.
8A\J	.	.	.	8cc\J	.	.	.	.
8D\L	.	.	4.ccc/	8cc\L	.	.	4ddd\	.
8A\	.	.	.	8ff#X\	.	.	.	.
8F#\J	.	.	.	8aa\J	[	.	8aa\)	.
=15	=15	=15	=15	=15	=15	=15	=15	=15
8GG/	.	.	(4bb-/	8b-\L	.	.	((4.bb-\	.
8r	.	.	.	8dd\	.	.	.	.
8r	.	.	8aa/	8a\J	.	.	.	.
8C#X\L	.	.	8g\L) 8gg	4.ryy	<	.	4aa\)	<
8A\	.	.	8f'\ 8ff	.	.	.	.	.
8G\J	.	.	8e'\J 8ee	.	.	.	8ee'\)	.
8D\L	.	.	4.dd/	8d\L	.	.	((4.ff\	.
8A\	.	.	.	8f\	.	.	.	.
8F\J	.	.	.	8a\J	.	.	.	.
!	!	!	!LO:TX:b:i:t=poco a poco:dur=3qe:ext=s	!	!	!	!LO:TX:b:i:t=poco a poco:dur=3qe:ext=s	!
8GG#X\L	.	.	4.ddd/	8dd\L	.	.	4ee\)	.
8Bn\	.	.	.	8ee\	.	.	.	.
8E\J	.	.	.	8dd\J	.	.	8bn'\)	.
=16	=16	=16	=16	=16	=16	=16	=16	=16
(8AA\L	.	.	[<4.cc\ [4.ccc	4.ee\	.	.	[4.cc\	.
8A\	.	.	.	.	.	.	.	.
8E\J	.	.	.	.	.	.	.	.
4GG/) 4G	.	.	8cc\L] 8ccc]	4ee-X/	.	.	8cc\L]	.
.	.	.	8b-X\ 8bb-X	.	.	.	8b-X\	.
(8GG/	.	.	8a\J 8ee- 8aa	8ryy	.	.	8a\J	.
.	.	.	.	.	.	.	(8qdd/	.
8FF/L	.	.	[<4.dd\ [4.ddd	[>4.gg#X\	.	.	[4.ddd\)	.
8F/	.	.	.	.	.	.	.	.
8BBn/J	.	.	.	.	.	.	.	.
4EE/) 4C	.	.	8dd\L] 8ddd]	4gg#/]	.	.	8ddd\L]	.
.	.	.	8cc\ 8ccc	.	.	.	8ccc\	.
(8EE/	.	.	8bn\J 8gg# 8bbn	8ryy	.	.	8bbn\J	.
*	*	*	*v	*v	*	*	*	*
=17	=17	=17	=17	=17	=17	=17	=17
*	*	*	*8va	*	*	*	*
*	*	*	*^	*	*	*	*
8EE-X/L	.	.	[<4.ggn\ [4.gggn	[>4.bb-X\	.	.	([4.ggg\	f
8E-X/	.	.	.	.	.	.	.	.
8BB-X/J	.	.	.	.	.	.	.	.
4DD-X/) 4D-X	.	.	8gg\L] 8ggg]	4bb-/]	.	.	4ggg\]	.
.	.	.	8ff\ 8fff	.	.	.	.	.
(8DD-/	.	.	8een\J 8bb- 8eeen	2.ryy	.	.	8gg'\)	.
4CC/) 4C	.	.	4bb-\ 4eee 4bbb-	.	f	.	(16aa\LL	.
.	.	.	.	.	.	.	16bb-\)	.
.	.	.	.	.	.	.	(16ff#X\	.
.	.	.	.	.	.	.	16gg\)	.
*	*	*	*X8va	*	*	*	*	*
8r	.	.	8r	.	.	.	(16dd#X\	.
.	.	.	.	.	.	.	16ee\JJ	.
4C\ 4c	.	.	4g\ 4b- 4ee	.	.	.	16bn/LL	.
.	.	.	.	.	.	.	16cc/	.
.	.	.	.	.	.	.	16a/	.
.	.	.	.	.	.	.	16b-X/	.
8r	.	.	8r	8ryy	.	.	16f#X/	.
.	.	.	.	.	.	.	16g/JJ	.
*	*	*	*v	*v	*	*	*	*
!!LO:PB:g=original
=18	=18	=18	=18	=18	=18	=18	=18
!	!	!	!LO:TX:b:i:t=sonore	!	!	!	!
4.r	.	.	[2.a\ [2.aa	.	.	8fn/)	.
.	.	.	.	.	.	8r	.
.	.	.	.	.	.	8r	.
(4.FFF/ 4.FF	.	.	.	.	.	[4.A^/	.
4.DDD/ 4.DD	.	.	4a\] 4aa]	.	.	8A/L]	.
.	.	.	.	.	.	(16c#X/L	.
.	.	.	.	.	.	16d/	.
.	.	.	8Bn'/ 8bn	.	.	16e/	.
.	.	.	.	.	.	16f/JJ	.
4.DD/) 4.D	.	.	(8f/L 8ff	.	.	16g#X\LL	<
.	.	.	.	.	.	16a\	.
.	.	.	8e/) 8ee	.	.	16cc#X\	.
.	.	.	.	.	.	16dd\	.
.	.	.	8d'/J 8dd	.	.	16ee\	.
.	.	.	.	.	.	16ff\JJ	[[
=19	=19	=19	=19	=19	=19	=19	=19
4.r	.	.	4.d/ 4.dd	.	.	8gg#X\)	.
.	.	.	.	.	.	8r	.
.	.	.	.	.	.	8r	.
4.EE/ 4.E	.	.	2.G#X/ 2.g#X	.	.	(16G#X/LL	.
.	.	.	.	.	.	16Bn/	.
.	.	.	.	.	.	16d/	.
.	.	.	.	.	.	16g#X/	.
.	.	.	.	.	.	16bn/	.
.	.	.	.	.	.	16cc/JJ	.
2.EEE/ 2.EE	.	.	.	.	.	8dd\)	.
.	.	.	.	.	.	8r	.
.	.	.	.	.	.	8r	.
.	.	.	(4d/ 4dd	<	.	(4bn\	<
.	.	.	8d'/) 8dd	[[	.	8bbn\)	[[
=20	=20	=20	=20	=20	=20	=20	=20
4.r	.	.	(4.d/ 4.dd	>	.	(4.bbn\	>
(4.EEE-X/ 4.EE-X	.	.	[4.c/) [4.cc	]	.	4aa\)	]
.	.	.	.	.	.	8r	.
2.DDD/) 2.DD	.	.	4c/] 4cc]	.	.	4.r	.
.	.	.	8F'/ 8f	.	.	.	.
.	.	.	(8B-/L 8b-	.	.	(16A/LL	.
.	.	.	.	.	.	16B-X/	.
.	.	.	8d/)	.	.	16c#X/	.
.	.	.	.	.	.	16d/	.
.	.	.	8F'/J 8f	.	.	16e/	.
.	.	.	.	.	.	16f/JJ)	.
=21	=21	=21	=21	=21	=21	=21	=21
*	*	*	*^	*	*	*	*
4.r	.	.	([4.F^/ [4.f	1ryy	.	.	(4g#X/	.
.	.	.	.	.	.	.	8a/	.
(4.GGG#X/ 4.GG#X	.	.	8F/L] 8f]	.	.	.	[4bn\	.
.	.	.	8E/) 8e	.	.	.	.	.
.	.	.	8D'/J 8d	.	.	.	16b\LL]	.
.	.	.	.	.	.	.	32cc\L	.
.	.	.	.	.	.	.	32dd\JJJ)	.
!	!	!	!	!	!LO:DY:a	!	!	!
4.AAA/ 4.AA	.	.	[4.C/ [4.c	.	>	.	(4.cc\	.
.	.	.	.	8ryy	.	.	.	.
4.GGGn/ 4.GGn	.	.	4C/] 4c]	4B-\	.	.	4.b-X\	.
.	.	.	(8B-/ 8c	8ryy	.	.	.	.
!!LO:LB:g=original
=22	=22	=22	=22	=22	=22	=22	=22	=22
4FFF/) 4FF	.	.	(>8A/L) 8f	4.ryy	] p	.	4a/)	.
.	.	.	8F/	.	.	.	.	.
8r	.	.	8A/J	.	.	.	8r	.
(4.AAA/ 4.AA	.	.	4c#X/	8c#\L	.	.	4.r	.
.	.	.	.	8F\	.	.	.	.
.	.	.	8d/	8d\J	.	.	.	.
2.BBB-/ 2.BB-	.	.	4.d/	8d\L	.	.	4.r	.
.	.	.	.	8E\	.	.	.	.
.	.	.	.	8G\J	.	.	.	.
.	.	.	4.cn/	8c\L	.	.	(4cc\	p
.	.	.	.	8E\	.	.	.	.
.	.	.	.	8G\J)	.	.	8cc'\)	.
=23	=23	=23	=23	=23	=23	=23	=23	=23
!	!	!	!	!	!	!	!LO:TX:b:i:t=dolce	!
4AAA/) 4AA	.	.	4.f/	(>8f\L	.	.	[4.ccc\	.
.	.	.	.	8F\	.	.	.	.
8r	.	.	.	8A\J	.	.	.	.
(4.FFF/ 4.FF	.	.	4c#X/	8c#\L	.	.	8ccc\L]	.
.	.	.	.	8A\	.	.	8bb-\	.
.	.	.	8d/	8d\J	.	.	8aa\J	.
2.GGG/ 2.GG	.	.	4.f/	8f\L	.	.	(4aa\	.
.	.	.	.	8B-\	.	.	.	.
.	.	.	.	8c#\J	.	.	[8gg\	.
.	.	.	4.e/	8e\L	.	.	8gg\L])	.
.	.	.	.	8B-\	.	.	8ff\	.
.	.	.	.	8c#\J)	.	.	8ee\J	.
=24	=24	=24	=24	=24	=24	=24	=24	=24
4FFF/) 4FF	.	.	4.a/	(>8a\L	.	.	(8cc#X\L	.
.	.	.	.	8A\	.	.	8dd\	.
8r	.	.	.	8d\J	.	.	8b-\J)	.
(4.FF/ 4.F	.	.	4c#X/	8c#\L	.	.	8a/	.
.	.	.	.	8A\	.	.	8r	.
.	.	.	8d/	8d\J	.	.	8r	.
2.CC#X/ 2.C#X	.	.	4.f/	8f\L	.	.	4.r	.
.	.	.	.	8G\	.	.	.	.
.	.	.	.	8A\J	.	.	.	.
.	.	.	4.e/	8e\L	.	.	(4a/	.
.	.	.	.	8G\	.	.	.	.
.	.	.	.	8A\J)	.	.	8a'/)	.
=25	=25	=25	=25	=25	=25	=25	=25	=25
4DD/) 4D	.	.	4.a/	8a\L	.	.	[4.aa\	.
.	.	.	.	8F\	.	.	.	.
8r	.	.	.	8A\J	.	.	.	.
4.FF/ 4.F	.	.	4c#X/	8c#\L	.	.	8aa\L]	.
.	.	.	.	8A\	.	.	8gg\	.
.	.	.	8d/	8d\J	.	.	8ff\J	.
2.GGG#X/ 2.GG#X	.	.	4.cc/	8cc\L	<	.	(8ff\L	<
.	.	.	.	8cn\	.	.	8ee\)	.
.	.	.	.	8d\J	.	.	8dd\J	.
.	.	.	4.bn/	8b\L	.	.	(8dd\L	.
.	.	.	.	8Bn\	.	.	8cc\)	.
.	.	.	.	8d\J	[	.	8bn\J	[
*	*	*	*v	*v	*	*	*	*
!!LO:LB:g=original
=26	=26	=26	=26	=26	=26	=26	=26
(4.CC/ 4.C	.	.	[4.e/ [4.ee	f	.	8a\L	.
.	.	.	.	.	.	(16e\L	f
.	.	.	.	.	.	16cc\	.
.	.	.	.	.	.	16ee\	.
.	.	.	.	.	.	16aa\JJ	.
4GGG#X/ 4GG#X	.	.	8e/L] 8ee]	.	.	16ccc\LL	.
.	.	.	.	.	.	16eee\)	.
.	.	.	8a'/	.	.	(16ddd\	.
.	.	.	.	.	.	16ccc\	.
8AAA/ 8AA	.	.	8cc'/J	.	.	16bbn\	.
.	.	.	.	.	.	16aa\JJ	.
4.FF/ 4.F	.	.	8g#X/	.	.	16ddd\LL	.
.	.	.	.	.	.	16ccc\)	.
.	.	.	8r	.	.	(16bb\	.
.	.	.	.	.	.	16ccc\	.
.	.	.	8r	.	.	16bb\	.
.	.	.	.	.	.	16aa\JJ	.
[4.EE/) [4.E	.	.	4.r	.	.	16gg#X\LL	.
.	.	.	.	.	.	16ff\	.
.	.	.	.	.	.	16ee\	.
.	.	.	.	.	.	16dd\	.
.	.	.	.	.	.	16cc\	.
.	.	.	.	.	.	16bn\JJ	.
=27	=27	=27	=27	=27	=27	=27	=27
*	*	*	*^	*	*	*	*
*	*	*below	*	*	*	*	*	*
8EE/L] 8E]	.	.	(4.c/ 4.cc	2.ryy	.	.	4a/)	.
(16AAA/L	.	5	.	.	.	.	.	.
16EE/	.	2	.	.	.	.	.	.
16AA/	.	1	.	.	.	.	8r	.
16C/JJ)	.	2	.	.	.	.	.	.
16r	.	.	4G#X/ 4g#X	.	.	.	4e/ 4cc 4ee	.
(16E/LL	.	1	.	.	.	.	.	.
16D/	.	.	.	.	.	.	.	.
16C/	.	.	.	.	.	.	.	.
16BBn/	.	.	8A/) 8a	.	.	.	8r	.
16AA/JJ)	.	.	.	.	.	.	.	.
8r	.	.	(4.ggn/	16gg\LL	.	.	4.r	.
.	.	.	.	16gn\	.	.	.	.
8r	.	.	.	16a\	.	.	.	.
.	.	.	.	16cc\	.	.	.	.
8E-X'\ 8A 8c 8e-X	.	.	.	16a\	.	.	.	.
.	.	.	.	16g\JJ	.	.	.	.
8r	.	.	4.ff#X/)	16ff#\LL	.	.	4d/ 4cc 4ff#X	.
.	.	.	.	16f#X\	.	.	.	.
8r	.	.	.	16a\	.	.	.	.
.	.	.	.	16cc\	.	.	.	.
8D'\ 8A 8c 8d	.	.	.	16a\	.	.	8r	.
.	.	.	.	16f#\JJ	.	.	.	.
*	*	*	*v	*v	*	*	*	*
=28	=28	=28	=28	=28	=28	=28	=28
(4.BBBn/ 4.BBn	.	.	[4.dd\ [4.ddd	.	.	8G/L 8d 8bn 8gg	.
.	.	.	.	.	.	(16d/L	.
.	.	.	.	.	.	16b/	.
.	.	.	.	.	.	16dd/	.
.	.	.	.	.	.	16gg/JJ	.
4FFF#X/ 4FF#X	.	.	8dd\L] 8ddd]	.	.	16bbn\LL	.
.	.	.	.	.	.	16ddd\)	.
.	.	.	8g\	.	.	(16ccc\	.
.	.	.	.	.	.	16bb\	.
8GGG/ 8GG	.	.	8bn\J	.	.	16aa\	.
.	.	.	.	.	.	16gg\JJ	.
4.EE-X/ 4.E-X	.	.	8f#X/	.	.	16ccc\LL	.
.	.	.	.	.	.	16bb\)	.
.	.	.	8r	.	.	(16aa\	.
.	.	.	.	.	.	16bb\	.
.	.	.	8r	.	.	16aa\	.
.	.	.	.	.	.	16gg\JJ	.
[4.DD/) [4.D	.	.	4.r	.	.	16ff#X\LL	.
.	.	.	.	.	.	16ee\	.
.	.	.	.	.	.	16dd\	.
.	.	.	.	.	.	16cc\	.
.	.	.	.	.	.	16b\	.
.	.	.	.	.	.	16a\JJ	.
!!LO:LB:g=original
=29	=29	=29	=29	=29	=29	=29	=29
*	*	*	*^	*	*	*	*
8DD/L] 8D]	.	.	(4.bn\ 4.bbn	2.ryy	.	.	8g/)	.
(16GG/L	.	.	.	.	.	.	8r	.
16D/	.	.	.	.	.	.	.	.
16G/	.	.	.	.	.	.	8r	.
16Bn/JJ)	.	.	.	.	.	.	.	.
16r	.	.	4f#X\ 4ff#X	.	.	.	4G/ 4d 4dd 4bbn	.
(16d\LL	.	.	.	.	.	.	.	.
16c\	.	.	.	.	.	.	.	.
16B\	.	.	.	.	.	.	.	.
16A\	.	.	8g\) 8gg	.	.	.	8r	.
16G\JJ)	.	.	.	.	.	.	.	.
8r	.	.	4.eee-X/	(>16eee-\LL	.	.	4.r	.
.	.	.	.	16ee-X\	.	.	.	.
8r	.	.	.	16gg\	.	.	.	.
.	.	.	.	16aa\	.	.	.	.
8G'\ 8c 8e-X 8a	.	.	.	16gg\	.	.	.	.
.	.	.	.	16ff#\JJ)	.	.	.	.
8r	.	.	4.ff#/	(>16ff#\LL	.	.	(4.G/ 4.d 4.cc 4.aa	f
.	.	.	.	16f#\	.	.	.	.
8r	.	.	.	16cc\	.	.	.	.
.	.	.	.	16dd\	.	.	.	.
8G'\ 8A 8c 8d	.	.	.	16cc\	.	.	.	.
.	.	.	.	16f#\JJ)	.	.	.	.
*	*	*	*v	*v	*	*	*	*
=30	=30	=30	=30	=30	=30	=30	=30
*	*	*	*	*	*	*^	*
8GG/	.	.	16r	ff	.	8ffn\L) 8ddd	1ryy	ff
.	.	.	(16fff\LL	.	.	.	.	.
8r	.	.	16bbn\	.	.	8g\	.	.
.	.	.	16ddd\	.	.	.	.	.
8r	.	.	16bb\	.	.	(8ff\J 8ddd	.	.
.	.	.	16ff\JJ	.	.	.	.	.
4G:\ 4c: 4e-X: 4a:	sfz	.	16ccc^\LL	.	.	8.ee-X\L) 8.ccc	.	.
.	.	.	16aa\	.	.	.	.	.
.	.	.	16ff#X\	.	.	.	.	.
.	.	.	16aa\	.	.	16ddd\K	.	.
8r	.	.	16ff#\	.	.	(8ee-\J 8ccc	.	.
.	.	.	16cc\JJ)	.	.	.	.	.
4GG:\ 4D: 4Bn:	.	.	16r	.	.	8dd\L) 8bbn	.	.
.	.	.	(16ddd\LL	.	.	.	.	.
.	.	.	16ffn\	.	.	8g\	.	.
.	.	.	16bb\	.	.	.	.	.
8r	.	.	16ff\	.	.	8bb\J	8ryy	.
.	.	.	16dd\JJ	.	.	.	.	.
4G:\ 4c: 4e-: 4a:	sfz	.	16aa^\LL	.	.	8ff#X/	(>8ee-X\L	.
.	.	.	16ee-X\	.	.	.	.	.
.	.	.	16cc\	.	.	4ryy	8dd\	.
.	.	.	16ff#X\	.	.	.	.	.
8r	.	.	16cc\	.	.	.	8cc\J	.
.	.	.	16a\JJ)	.	.	.	.	.
*	*	*	*	*	*	*v	*v	*
!!LO:PB:g=original
=31	=31	=31	=31	=31	=31	=31	=31
8GG/	.	.	16r	.	.	8bn/L) 8gg	.
.	.	.	(16dd\LL	.	.	.	.
8r	.	.	16bn\	.	.	8G/	.
.	.	.	16ee-X\	.	.	.	.
(8F#X\L 8A	.	.	16cc\	.	.	(8e-X/J 8cc	.
.	.	.	16a\JJ	.	.	.	.
8G\J) 8Bn	.	.	16dd/LL	.	.	8d/L) 8b	.
.	.	.	16b/	.	.	.	.
8r	.	.	16g/	>	.	8G/	.
.	.	.	16cc/	.	.	.	.
(8A\L 8c	.	.	16a/	.	.	(8c/J 8a	>
.	.	.	16f#X/JJ	.	.	.	.
8B\J) 8d	.	.	16b/LL	.	.	8Bn/L) 8g	.
.	.	.	16g/	.	.	.	.
8r	.	.	16d/	.	.	8G/	.
.	.	.	16f#/	.	.	.	.
(8AA/L 8C	.	.	16e-X/	.	.	(8A/J 8f#X	.
.	.	.	16c/JJ	.	.	.	.
8BBn/J) 8D	.	.	16g/LL	]	.	8B/L) 8g	.
.	.	.	16d/	.	.	.	.
8r	.	.	16Bn/	.	.	8G/	]]
.	.	.	16c/	.	.	.	.
(8C/L 8E-X	.	.	16A/	.	.	(8c/J 8a	.
.	.	.	16F#X/JJ)	.	.	.	.
=32	=32	=32	=32	=32	=32	=32	=32
8GG/J)	.	.	8G/	.	.	8Bn/L) 8g	.
8r	.	.	8r	.	.	8G/	pp
8r	.	.	8r	.	.	(8c/J 8e-X	.
*	*	*	*clefF4	*	*	*	*
8GGG/L	.	.	(16GG/LL	p	.	8B/L) 8d	>
.	.	.	16D/	.	.	.	.
8.r	.	.	16BBn/	.	.	8G/	.
.	.	.	16C/	.	.	.	.
.	.	.	16AA-X/	.	.	(8c/J 8e-	.
(16FFF#X/Jk	.	.	16FF#X/JJ	.	.	.	.
8GGG/L)	.	.	16GG/LL	>	.	8B/L) 8d	.
.	.	.	16D/	.	.	.	.
8.r	.	.	16BB/	.	.	8G/	.
.	.	.	16C/	.	.	.	.
.	.	.	16AA-/	.	.	(8c/J 8e-	]
(16FFF#/Jk	.	.	16FF#/JJ	.	.	.	.
8GGG/L)	.	.	16GG/LL	.	.	8B/L) 8d	.
.	.	.	16D/	.	.	.	.
8.r	.	.	16BB/	.	.	8G/	.
.	.	.	16C/	.	.	.	.
.	.	.	16AA-/	.	.	(8c/J 8e-	.
(16FFF#/Jk	.	.	16FF#/JJ	]]	.	.	.
=33	=33	=33	=33	=33	=33	=33	=33
8GGG/)	.	.	8GG/)	.	.	8Bn/) 8d	.
8r	.	.	8r	.	.	8r	.
8r	.	.	8r	.	.	8r	.
*	*	*	*clefG2	*	*	*	*
[2.GG^/	.	.	[2.G^/	.	.	[2.G^/	.
4GG/]	.	.	4G/]	pp	.	4G/]	.
(<8GG/	.	.	(8G/	.	.	8r	.
!!LO:LB:g=original
=34	=34	=34	=34	=34	=34	=34	=34
!	!	!	!LO:TX:a:i:t=misterioso	!	!	!	!
4.AA-X/	.	.	4.A-X/	.	.	1.r	.
4D-X\	.	.	4d-X/	.	.	.	.
8C/	.	.	8c/	.	.	.	.
4.BBn/)	.	.	4.Bn/)	.	.	.	.
(<4.GG/	.	.	(4.G/	.	.	.	.
=35	=35	=35	=35	=35	=35	=35	=35
4.AA-X/	.	.	4.A-X/	.	.	1.r	.
4F\	.	.	4f/	<	.	.	.
8D-X\	.	.	8d-X/	.	.	.	.
4.C/	.	.	4.c/	.	.	.	.
4BBn/)	.	.	4Bn/)	[	.	.	.
(8GG/	.	.	(8G/	.	.	.	.
=36	=36	=36	=36	=36	=36	=36	=36
4.AA-X/)	.	.	4.A-X/)	.	.	1.r	.
([4.A-X^\	.	.	([4.a-X^>/	.	.	.	.
*tuplet	*	*	*tuplet	*	*	*	*
!LO:TUP:a	!	!	!LO:TUP:b	!	!	!	!
!LO:N:vis=4	!	!	!LO:N:vis=4	!	!	!	!
8.A-\]	.	.	8.a-/]	.	.	.	.
!LO:N:vis=4	!	!	!LO:N:vis=4	!	!	!	!
8.F~\	.	.	8.f~/	.	.	.	.
!LO:N:vis=4	!	!	!LO:N:vis=4	!	!	!	!
8.E-X~\	.	.	8.e-X~/	.	.	.	.
!LO:N:vis=4	!	!	!LO:N:vis=4	!	!	!	!
8.D-X~\)	.	.	8.d-X~/)	.	.	.	.
*Xtuplet	*	*	*Xtuplet	*	*	*	*
=37	=37	=37	=37	=37	=37	=37	=37
*	*	*	*^	*	*	*	*
[2.EE-X/	.	.	[2.g-X/	4.d-X\	pp	.	([1.aa-X	pp
.	.	.	.	4.B-\	.	.	.	.
4EE-/]	.	.	4.g-/]	2.c\	.	.	.	.
8EE-/	.	.	.	.	.	.	.	.
4AA-X/	.	.	4f/	.	.	.	.	.
8GG-X/	.	.	8e-X/	.	.	.	.	.
=38	=38	=38	=38	=38	=38	=38	=38	=38
!	!	!	!LO:N:vis=2	!	!	!	!	!
[2.FF/	.	.	[<2.A-X/ [2.a-X	4.e-X\	.	.	1.aa-_	<[
.	.	.	.	4.c\	.	.	.	.
4FF/]	.	.	4.A-/_ 4.a-_	2.d-X\	<	.	.	.
(8FF/	.	.	.	.	.	.	.	.
4BB-/	.	.	8A-/L] 8a-]	.	.	.	.	.
.	.	.	8G-X/ 8g-X	.	.	.	.	.
8AA-X/	.	.	8F/J 8f	.	[	.	.	.
!!LO:LB:g=original
=39	=39	=39	=39	=39	=39	=39	=39	=39
[4.GG-X/	.	.	4.B-/ 4.b-	[>2.d-X\	.	.	4.aa-X\]	.
8GG-/L])	.	.	2.E-X/ 2.e-X	.	.	.	8aa-\L)	.
(8FFF/ 8FF	.	.	.	.	.	.	8gg-X\	.
8GGGn/J 8GGn	.	.	.	.	.	.	8ff\J	.
4.AAA-X/ 4.AA-X	.	.	.	4.d-\]	.	.	4.ee-X\	.
4.BBB--/ 4.BB--	.	.	4.E-/ 4.e-	4.d-/	.	.	4.ee-\	.
=40	=40	=40	=40	=40	=40	=40	=40	=40
*^	*	*	*	*	*	*	*	*
4.AAA-X/) 4.AA-X	2.ryy	.	.	[2.g-X/	[2.E-X\ [2.d-X	.	.	[2.ee-X\	.
(4.AAA-/	.	.	.	.	.	.	.	.	.
!LO:N:vis=2.	!	!	!	!	!	!	!	!	!
8AA-/L)	2.AA-\	.	15	8g-/L]	8E-\] 8d-]	.	.	8ee-\L]	.
!	!	!	!	!LO:TX:a:i:t=rit.	!	!	!	!LO:TX:a:i:t=rit.	!
(<8G-X/	.	.	.	(8c/	[4c\	.	.	(8ee-\	>
8F/J	.	.	.	8dn/J	.	.	.	8dd\J	.
8E-X/L	.	.	.	8c/L] 8e-X	4.ryy	.	.	8cc\L	.
8D/	.	.	.	8f/	.	.	.	8bn\	]
8C/J	.	.	.	8c/J 8f#X	.	.	.	8cc\J)	.
*v	*v	*	*	*	*	*	*	*	*
*	*	*	*v	*v	*	*	*	*
=41	=41	=41	=41	=41	=41	=41	=41
!	!	!	!LO:TX:a:i:t=a tempo	!	!	!LO:TX:a:i:t=a tempo	!
8GG/L) 8D	.	.	4Bn/) 4g	.	.	4g/	.
(8GG/	.	.	.	.	.	.	.
8GGG/J	.	.	8r	.	.	8r	.
8GG/L	.	.	4.r	.	.	4.r	.
8GGG/	.	.	.	.	.	.	.
8GG/J	.	.	.	.	.	.	.
8GG/L	.	.	4.r	.	.	4.r	.
8G/	.	.	.	.	.	.	.
8GG/J	.	.	.	.	.	.	.
8GG/L	.	.	(4.G/ 4.g	p	.	8G/L 8g	p
8GGG/	.	.	.	.	.	8G/ 8g	.
8GG/J)	.	.	.	.	.	8G/J 8g	.
=42	=42	=42	=42	=42	=42	=42	=42
(8GGG/L	.	.	4.A/ 4.a	.	.	4G/ 4g	.
8GG/	.	.	.	.	.	.	.
8GGG/J	.	.	.	.	.	8r	.
8FFF#X/L	.	.	4d/) 4dd	.	.	4.r	.
8FF#X/	.	.	.	.	.	.	.
8FFF#/J	.	.	8c'/ 8cc	.	.	.	.
8FFFn/L	.	.	4.Bn/ 4.bn	.	.	4.r	.
8FFn/	.	.	.	.	.	.	.
8FF/J	.	.	.	.	.	.	.
8F/L	.	.	(<4.G/ 4.g	.	.	8G/L 8g	.
8FF/	.	.	.	.	.	8G/ 8g	.
8F/J)	.	.	.	.	.	8G/J 8g	.
=43	=43	=43	=43	=43	=43	=43	=43
(8EE/L	.	.	4.A/ 4.g 4.a	.	.	4G/ 4g	.
8E/	.	.	.	.	.	.	.
8EE/J	.	.	.	.	.	8r	.
8DD/L	.	.	4f\) 4a 4ff	<	.	4.r	.
8D/	.	.	.	.	.	.	.
8DD/J	.	.	8d'/ 8dd	.	.	.	.
8GG/L	.	.	(4.c/ 4.cc	[	.	4.r	.
8G/	.	.	.	.	.	.	.
8GG/J	.	.	.	.	.	.	.
8FF/L	.	.	8Bn/L) 8bn	.	.	8G/L 8g	.
8F/	.	.	8G'/ 8g	.	.	8G/ 8g	.
8FF/J)	.	.	8A'/J 8a	.	.	8G/J 8g	.
!!LO:LB:g=original
=44	=44	=44	=44	=44	=44	=44	=44
(8EE/L	.	.	4B-X/ 4b-X	.	.	4G/ 4g	.
8E/	.	.	.	.	.	.	.
8DD/J	.	.	8r	.	.	8r	.
8CC/L	.	.	[4.a^\ [4.aa	<	.	4b-\	<
8C/	.	.	.	.	.	.	.
8CC/J	.	.	.	.	.	(8b-\	.
8CC#X/L	.	.	4a\] 4aa]	.	.	4.bb-\	.
8C#X/	.	.	.	.	.	.	.
8CC#/J	.	.	(8g\ 8gg	.	.	.	.
8DD/L) 8D	.	.	8f\L) 8ff	.	.	8aa\L)	.
8EE'/ 8E	.	.	8e'\ 8ee	.	.	8gg\	.
8FF'/J 8F	.	.	8d'\J 8dd	.	.	8ff\J	.
=45	=45	=45	=45	=45	=45	=45	=45
*^	*	*	*^	*	*	*	*
!LO:N:vis=2.	!	!	!	!	!	!	!	!	!
8GG/L	2.GG\	.	.	[4.c/ [4.cc	4.ryy	.	.	[4.ee\	.
8G/	.	.	.	.	.	.	.	.	.
8E/J	.	.	.	.	.	.	.	.	.
8C/L	.	.	.	8c/L] 8cc]	4e\ 4g	.	.	8ee\L]	>
8E/	.	.	.	8Bn'/ 8bn	.	.	.	8dd\	.
8C/J	.	.	.	8c'/J 8cc	8ryy	.	.	8cc\J	.
!LO:N:vis=2.	!	!	!	!	!	!	!	!	!
8FF/L	2.FF\	.	.	[4.d/ [4.dd	4.ryy	>	.	(8bn/L	.
8G/	.	.	.	.	.	.	.	8a/	.
8D/J	.	.	.	.	.	.	.	8g/J)	.
8BBn/L	.	.	.	8d/L] 8dd]	4g\	]	.	(4g/	]
8D/	.	.	.	8B'/ 8b	.	.	.	.	.
8BB/J	.	.	.	8A'/J 8a	8ryy	.	.	8g'/)	.
*	*	*	*	*v	*v	*	*	*	*
=46	=46	=46	=46	=46	=46	=46	=46	=46
4EE/	2.ryy	.	.	8G'/L 8g	.	.	[2.gg\	p <
.	.	.	.	8g'/	.	.	.	.
8r	.	.	.	8Bn'/J	.	.	.	.
!	!	!	!	!LO:TX:a:i:t=legg.	!	!	!	!
8f'\L	.	.	.	[4.g/	.	.	.	.
8Bn'\	.	.	.	.	.	.	.	.
8f'\J	.	.	.	.	.	.	.	.
!LO:N:vis=2.	!	!	!	!	!	!	!	!
(8E/L	2.E\	.	.	8g/L]	.	.	4.gg\]	[
8e/	.	.	.	8a'/	.	.	.	.
8c/J	.	.	.	8bn'/J	.	.	.	.
8G/L	.	.	.	8cc'\L	.	.	4.gg\	.
8c/	.	.	.	8dd'\	.	.	.	.
8G/J)	.	.	.	8ee'\J	.	.	.	.
*v	*v	*	*	*	*	*	*	*
=47	=47	=47	=47	=47	=47	=47	=47
(8D\L	.	.	8ff\	.	.	(4.aa\	.
8f\	.	.	8r	.	.	.	.
8c\J	.	.	8r	.	.	.	.
8A\L	.	.	[4.f/	.	.	4fff\	.
8c\	.	.	.	.	.	.	.
8A\J)	.	.	.	.	.	8ddd\)	.
(8GG\L	.	.	8f/L]	.	.	(4.ccc~\	.
8Bn\	.	.	8g'/	.	.	.	.
8G\J	.	.	8a'/J	.	.	.	.
8F\L	.	.	8bn'\L	.	.	4.bbn~\)	.
8G\	.	.	8cc'\	.	.	.	.
8F\J)	.	.	8dd'\J	.	.	.	.
!!LO:PB:g=original
=48	=48	=48	=48	=48	=48	=48	=48
*^	*	*	*	*	*	*	*
8C\L 8E	2.ryy	.	.	4ee\	.	.	[2.eee\	p <
8e'\	.	.	.	.	.	.	.	.
8G#X'\J	.	.	.	8r	.	.	.	.
8d'\L	.	.	.	[4.e/ [4.ee	.	.	.	.
8G#'\	.	.	.	.	.	.	.	.
8d'\J	.	.	.	.	.	.	.	.
!LO:N:vis=2.	!	!	!	!	!	!	!	!
8C/L	(2.C\	.	.	8e\L] 8ee]	.	.	4.eee\]	.
8c/	.	.	.	8f#X\ 8ff#X	<	.	.	.
8A/J	.	.	.	8g#X\J 8gg#X	.	.	.	.
8E/L	.	.	.	8a\L 8aa	.	.	4.ee\	[
8A/	.	.	.	8bn\ 8bbn	.	.	.	.
8E/J	.	.	.	8cc\J 8ccc	.	.	.	.
*v	*v	*	*	*	*	*	*	*
=49	=49	=49	=49	=49	=49	=49	=49
8BBn\L)	.	.	4dd\ 4ddd	.	.	(4.ff\	.
8d\	.	.	.	.	.	.	.
8A\J	.	.	8r	.	.	.	.
8F\L	.	.	[4.d/ [4.dd	.	.	4ddd\	.
8A\	.	.	.	.	.	.	.
8F\J	.	.	.	.	.	8bbn\)	.
8EE/L	.	.	8d\L] 8dd]	.	.	((4.aa\	.
8G#X/	.	.	8e\ 8ee	.	.	.	.
8E/J	.	.	8f#X\J 8ff#X	.	.	.	.
8D\L	.	.	8g#X\L 8gg#X	.	.	4gg#X\)	.
8E\	.	.	8a\ 8aa	.	.	.	.
8D\J	.	.	8bn\J 8bbn	.	.	8gg#'\)	.
=50	=50	=50	=50	=50	=50	=50	=50
*	*	*	*^	*	*	*	*
4AA/	.	.	4cc\ 4ccc	4.ryy	p	.	(8ccc\L	p
.	.	.	.	.	.	.	8bbn\)	.
8r	.	.	8r	.	.	.	(8ccc\J	.
(8D\L	.	.	(4.f/	[4.f\	.	.	4ff\)	.
8E\	.	.	.	.	.	.	.	.
8F\J	.	.	.	.	.	.	(8ff\	.
4.G\	.	.	4.b-/	(8f\L]	.	.	4.bb-X\	.
.	.	.	.	8e\)	.	.	.	.
.	.	.	.	8d\J	.	.	.	.
4AA/	.	.	4a/	(8c#X\L	.	.	4ee\)	.
.	.	.	.	8d\)	.	.	.	.
8C#X/	.	.	8g/)	8e\J	.	.	8r	.
=51	=51	=51	=51	=51	=51	=51	=51	=51
!	!	!	!	!	!	!	!LO:TX:b:i:t=dolce	!
4D\)	.	.	4d/ 4f	4.ryy	.	.	(8fff\L	.
.	.	.	.	.	.	.	8eee\)	.
8r	.	.	8r	.	.	.	(8fff\J	.
(8G\L	.	.	(4.b-/	[4.b-\	.	.	4bb-X\)	.
8A\	.	.	.	.	.	.	.	.
8B-\J	.	.	.	.	.	.	(8bb-\	.
4c\)	.	.	4.ee-X/	(8b-\L]	.	.	4.eee-X\	.
.	.	.	.	8a\)	.	.	.	.
8r	.	.	.	8g\J	.	.	.	.
(4D\	.	.	4dd/	(8f#X\L	.	.	4aa\)	.
.	.	.	.	8g\)	.	.	.	.
8FF#X/)	.	.	8cc/)	8a\J	.	.	8r	.
!!LO:LB:g=original
=52	=52	=52	=52	=52	=52	=52	=52	=52
*^	*	*	*	*	*	*	*	*
*>A1	*>A1	*	*	*>A1	*>A1	*	*	*>A1	*
(4FF/	4.FF^\	.	.	16r	16ryy	.	.	(8ddd\L	<
.	.	.	.	(<16Bn/LL	4B\	.	.	.	.
.	.	.	.	16a/	.	.	.	8ccc#X\)	.
.	.	.	.	16g#X/	.	.	.	.	.
8G#X/)	.	.	.	16d/	.	.	.	(8ddd\J	.
.	.	.	.	16B/JJ)	8ryy	<	.	.	.
(4EE/	4.EE^\	.	.	16r	.	.	.	4gg#X\)	.
.	.	.	.	(<16d/LL	4d\	.	.	.	.
.	.	.	.	16cc/	.	.	.	.	.
.	.	.	.	16bn/	.	.	.	.	.
!	!	!	!	!	!	!	!	!LO:TX:b:i:t=poco a poco e string.:dur=3q:ext=s	!
8G#/)	.	.	.	16g#/	.	.	.	(8gg#\	.
.	.	.	.	16d/JJ)	8ryy	.	.	.	.
(4BB-X/	4.BB-^\	.	.	16r	.	.	.	4.ggn\	.
!	!	!	!	!LO:TX:b:i:t=poco a poco e string.:dur=3qe:ext=s	!	!	!	!	!
.	.	.	.	(<16e/LL	4e\	.	.	.	.
.	.	.	.	16dd/	.	.	.	.	.
.	.	.	.	16cc#X/	.	.	.	.	.
8c#X/)	.	.	.	16gn/	.	.	.	.	.
.	.	.	.	16e/JJ)	8ryy	.	.	.	.
(4AA/	4.AA^\	.	.	16r	.	.	.	4gggn\)	.
.	.	.	.	(<16g/LL	4g\	.	.	.	.
.	.	.	.	16ff/	.	.	.	.	.
.	.	.	.	16ee/	.	.	.	.	.
8c#/)	.	.	.	16cc#/	.	.	.	8r	.
.	.	.	.	16g/JJ)	16ryy	.	.	.	.
=53	=53	=53	=53	=53	=53	=53	=53	=53	=53
(4E-X/	4.E-^\	.	.	16r	16ryy	.	.	(8ccc\L	.
.	.	.	.	(<16a/LL	4a\	.	.	.	.
.	.	.	.	16gg/	.	.	.	8bbn\)	.
.	.	.	.	16ff#X/	.	.	.	.	.
8f#X/)	.	.	.	16cc/	.	.	.	(8ccc\J	.
.	.	.	.	16a/JJ)	8ryy	.	.	.	.
(4D/	4.D^\	.	.	16r	.	.	.	4ff#X\)	.
.	.	.	.	(<16cc/LL	4cc\	.	.	.	.
.	.	.	.	16bbn/	.	.	.	.	.
.	.	.	.	16aa/	.	.	.	.	.
8f#/)	.	.	.	16ff#/	.	.	.	(8ff#\	.
.	.	.	.	16cc/JJ)	8ryy	.	.	.	.
*clefG2	*	*	*	*	*	*	*	*	*
(4A/	4.A^\	.	.	16r	.	.	.	4.ffn\	.
.	.	.	.	(<16dd/LL	4dd\	.	.	.	.
.	.	.	.	16ccc/	.	.	.	.	.
.	.	.	.	16bb/	.	.	.	.	.
8bn/)	.	.	.	16ffn/	.	.	.	.	.
.	.	.	.	16dd/JJ)	8ryy	.	.	.	.
(4G/	4.G^\	.	.	16r	.	.	.	4fff\)	.
.	.	.	.	(<16ff/LL	4ff\	.	.	.	.
.	.	.	.	16eee/	.	.	.	.	.
.	.	.	.	16ddd/	.	.	.	.	.
8b/)	.	.	.	16bb/	.	.	.	8r	.
.	.	.	.	16ff/JJ)	16ryy	.	.	.	.
*v	*v	*	*	*	*	*	*	*	*
*	*	*	*v	*v	*	*	*	*
!!LO:LB:g=original
=54	=54	=54	=54	=54	=54	=54	=54
*	*	*	*8va	*	*	*	*
*^	*	*	*^	*	*	*	*
(4A#X/	4.A#X^\	.	.	16r	16ryy	.	.	(8eee\L	.
.	.	.	.	(16ee/LL	4ee\	.	.	.	.
.	.	.	.	16ddd/	.	.	.	8ddd#X\)	.
.	.	.	.	16ccc#X/	.	.	.	.	.
8cc#X/)	.	.	.	16gg/	.	.	.	(8eee\J	.
.	.	.	.	16ee/JJ)	8ryy	.	.	.	.
(4Bn/	4.B^\	.	.	16r	.	.	.	4gg\)	.
.	.	.	.	(16gg/LL	4gg\	.	.	.	.
.	.	.	.	16fff#X/	.	.	.	.	.
.	.	.	.	16eee/	.	.	.	.	.
8ee/)	.	.	.	16bbn/	.	.	.	(8aa\	.
.	.	.	.	16gg/JJ)	8ryy	.	.	.	.
(4c#X/	4.c#^\	.	.	16r	.	.	.	4.bb-X\)	.
.	.	.	.	(16bb-X/LL	4bb-\	.	.	.	.
.	.	.	.	16aaa/	.	.	.	.	.
.	.	.	.	16ggg/	.	.	.	.	.
8ee/)	.	.	.	16eee/	.	.	.	.	.
.	.	.	.	16bb-/JJ)	8ryy	.	.	.	.
(4e/	4.e^\	.	.	16r	.	.	.	(4.bbb-X\	.
.	.	.	.	(16ccc#X/LL	4ccc#\	.	.	.	.
.	.	.	.	16ccccn/	.	.	.	.	.
.	.	.	.	16bbb-X/	.	.	.	.	.
8gg/)	.	.	.	16ggg/	.	.	.	.	.
.	.	.	.	16ccc#/JJ)	16ryy	.	.	.	.
=55	=55	=55	=55	=55	=55	=55	=55	=55	=55
(4f/	4.f\	.	.	16r	16ryy	.	.	4.aaa\)	.
.	.	.	.	(16aa/LL	4aa\	.	.	.	.
.	.	.	.	16aaa/	.	.	.	.	.
.	.	.	.	16fff/	.	.	.	.	.
8a/) 8dd 8ff	.	.	.	16ddd/	.	.	.	.	.
.	.	.	.	16aa/JJ)	8ryy	.	.	.	.
*clefF4	*	*	*	*	*	*	*	*	*
*v	*v	*	*	*	*	*	*	*	*
*	*	*	*X8va	*	*	*	*	*
*^	*	*	*	*	*	*	*	*
(4F#X/	4.F#\	.	.	16r	.	.	.	(4.aa-X^>\ 4.aaa-X	.
.	.	.	.	(16a-X/LL	4a-\	.	.	.	.
.	.	.	.	16aa-X/	.	.	.	.	.
.	.	.	.	16ee-X/	.	.	.	.	.
8c/) 8e-X	.	.	.	16cc/	.	.	.	.	.
.	.	.	.	16a-/JJ)	8ryy	.	.	.	.
(4G/	4.G\	.	.	16r	.	<	.	4.gg\) 4.ggg	<
.	.	.	.	(16g/LL	4g\	.	.	.	.
.	.	.	.	16gg/	.	.	.	.	.
.	.	.	.	16ee-/	.	.	.	.	.
8c/) 8e-	.	.	.	16cc/	.	.	.	.	.
.	.	.	.	16g/JJ)	8ryy	.	.	.	.
(4A-X/	4.A-\	.	.	16r	.	.	.	(4.ff#X^<\ 4.fff#X	.
.	.	.	.	(16f#X/LL	4f#\	.	.	.	.
.	.	.	.	16ff#X/	.	.	.	.	.
.	.	.	.	16ee-/	.	.	.	.	.
8c/) 8e-	.	.	.	16cc/	.	.	.	.	.
.	.	.	.	16f#/JJ)	16ryy	[	.	.	[
*v	*v	*	*	*	*	*	*	*	*
*	*	*	*v	*v	*	*	*	*
!!LO:LB:g=original
=56	=56	=56	=56	=56	=56	=56	=56
4G\ 4c 4en	.	.	4g\ 4cc 4een 4gg	ff	.	4gg\) 4ggg	.
8r	.	.	8r	.	.	[8gg\	ff
4GGG/ 4GG	.	.	4f\ 4bn 4dd 4gg	.	.	16gg\LL]	.
.	.	.	.	.	.	(16cc#X\	.
.	.	.	.	.	.	16dd\	.
.	.	.	.	.	.	16ee\	.
8r	.	.	8r	.	.	16ff\	.
.	.	.	.	.	.	16ff#X\JJ	.
4.r	.	.	4.r	.	.	16gg\LL	.
.	.	.	.	.	.	16ff#\	.
.	.	.	.	.	.	16gg\	.
.	.	.	.	.	.	16gg#X\	.
.	.	.	.	.	.	16aa\	.
.	.	.	.	.	.	16ggn\JJ	.
4GG/ 4G	.	.	4d/ 4f 4b	.	.	16ffn/LL	.
.	.	.	.	.	.	16dd/	.
.	.	.	.	.	.	16bn/	.
.	.	.	.	.	.	16g/	.
8r	.	.	8r	.	.	16f/	.
.	.	.	.	.	.	16d/JJ)	.
=57	=57	=57	=57	=57	=57	=57	=57
8CC\L 8C	.	.	[2.b-X\ [2.bb-X	>	.	4c/	.
8B-X\ 8d 8f	.	.	.	.	.	.	.
8B-\J 8d 8f	.	.	.	.	.	8r	.
4.B-\ 4.d 4.f	.	.	.	.	.	[4.c^/	.
*tremolo	*	*	*	*	*	*	*
8B-\L 8c 8e	.	.	4b-\] 4bb-]	] p	.	(8c/L]	.
8B-\ 8c 8e	.	.	.	.	.	8cc/)	.
8B-\J 8c 8e	.	.	8ee\	.	.	(8cc/J	p
8B-\L 8c	.	.	8g'\L 8gg	.	.	(8cc\L	.
8B-\ 8c	.	.	8f'\ 8ff	.	.	8ccc\)	.
8B-\J 8c	.	.	8e'\J 8ee	.	.	8ccc'\J)	.
*Xtremolo	*	*	*	*	*	*	*
=58	=58	=58	=58	=58	=58	=58	=58
*	*	*	*^	*	*	*	*
4r	.	.	4.a\ 4.aa	1ryy	.	.	(8ccc\L	<
.	.	.	.	.	.	.	8cc\)	.
8C/	.	.	.	.	.	.	(8ccc\J	.
8G\L 8B-	.	.	4.c#X/ 4.cc#X	.	.	.	8ccc#X\L)	.
8F\ 8A	.	.	.	.	.	.	8cc#X\	.
8E\J 8G	.	.	.	.	.	.	8ccc#\J	.
8F\L 8A	.	.	(8d/L 8dd	.	<	.	(8ddd\L	[
8E\ 8G	.	.	8e/) 8ee	.	.	.	8eee\)	.
8D\J 8F	.	.	8f/J 8ff	8ryy	.	.	(8fff\J	.
4G\	.	.	4a/	(8A\L	.	.	4aa\	.
.	.	.	.	8f\)	.	.	.	.
8GG/	.	.	8bn/	8Bn\J	[	.	8bbn\)	.
*	*	*	*v	*v	*	*	*	*
=59	=59	=59	=59	=59	=59	=59	=59
[2.BB-^\ [2.B-	.	.	8r	f	.	4ccc\	.
.	.	.	(8c/L 8cc	.	.	.	.
.	.	.	8d/J 8dd	.	.	8r	.
.	.	.	8e/L) 8ee	.	.	8r	.
.	.	.	(8e/ 8ee	.	.	(8cc\L	f
.	.	.	8f/J 8ff	.	.	8dd\J	.
4BB-\] 4B-]	.	.	8g\L) 8gg	.	.	8ee\L)	.
.	.	.	8g'\ 8gg	.	.	(8ee\	.
8EE/ 8E	.	.	8a'\J 8aa	.	.	8ff\J	.
8GG/L 8G	.	.	[4.b-\ [4.bb-	.	.	8ee\L)	.
8FF/ 8F	.	.	.	.	.	8dd\	.
8EE/J 8E	.	.	.	.	.	8cc#X\J	.
!!LO:PB:g=original
=60	=60	=60	=60	=60	=60	=60	=60
4.AA\ 4.A	.	.	8b-/L] 8bb-]	.	.	[4.gg\	.
.	.	.	8c#X/ 8cc#X	.	.	.	.
.	.	.	8d/J 8dd	.	.	.	.
([4.CC#X/ [4.C#X	.	.	8e\L 8ee	.	.	8gg\L]	.
.	.	.	8f\ 8ff	.	.	8ff\	.
.	.	.	8g\J 8gg	.	.	8ee\J	.
8CC#/L] 8C#]	.	.	[4.f\ [4.ff	.	.	([4.aa\	.
8DD/) 8D	.	.	.	.	.	.	.
8EE'/J 8E	.	.	.	.	.	.	.
4DD/ 4D	.	.	8f/L] 8ff]	.	.	8aa\L]	.
.	.	.	8A/ 8a	.	.	8a\	.
8GG/ 8G	.	.	8Bn/J 8f 8bn	.	.	8bn\J)	.
=61	=61	=61	=61	=61	=61	=61	=61
4CC/ 4C	.	.	4c/ 4e 4cc	.	.	4cc\	.
8r	.	.	8r	.	.	8r	.
(4.GGG#X/ 4.GG#X	.	.	(4.e/ 4.bn 4.ee	ff	.	(4.e/ 4.ee	ff
4AAA'/) 4AA	.	.	4e/) 4a 4cc	>	.	4e/) 4cc	.
8r	.	.	8r	]	.	8r	.
4GGGn'/ 4GGn	.	.	4g'\ 4b 4dd 4gg	.	.	4G'/ 4d 4bn 4gg	.
8r	.	.	8r	.	.	8r	.
=62	=62	=62	=62	=62	=62	=62	=62
4CC'/ 4C	.	.	4e'/ 4g 4cc 4ee	.	.	4c'/ 4e 4cc 4ee	.
8r	.	.	8r	.	.	8r	.
4C'\ 4G 4c	.	.	4e/ 4g 4cc	.	.	4c'/	.
8r	.	.	8r	.	.	8r	.
2.r	.	.	2.r	.	.	2.r	.
=63:|!	=63:|!	=63:|!	=63:|!	=63:|!	=63:|!	=63:|!	=63:|!
*^	*	*	*^	*	*	*	*
*>A2	*>A2	*	*	*>A2	*>A2	*	*	*>A2	*
4FF/	4.FF^\	.	.	16r	16ryy	.	.	(8ddd\L	.
.	.	.	.	(<16Bn/LL	4B\	.	.	.	.
.	.	.	.	16a/	.	.	.	8ccc#X\)	.
.	.	.	.	16g#X/	.	.	.	.	.
8G#X/	.	.	.	16d/	.	.	.	(8ddd\J	<
.	.	.	.	16B/JJ)	8ryy	.	.	.	.
4EE/	4.EE^\	.	.	16r	.	.	.	4gg#X\)	.
.	.	.	.	(<16d/LL	4d\	<	.	.	.
.	.	.	.	16cc/	.	.	.	.	.
.	.	.	.	16bn/	.	.	.	.	.
!	!	!	!	!	!	!	!	!LO:TX:b:i:t=molto	!
8G#/	.	.	.	16g#/	.	.	.	(8gg#\	.
.	.	.	.	16d/JJ)	8ryy	.	.	.	.
4BB-X/	4.BB-^\	.	.	16r	.	.	.	4.ggn\	.
!	!	!	!	!LO:TX:b:i:t=molto	!	!	!	!	!
.	.	.	.	(<16e/LL	4e\	.	.	.	.
.	.	.	.	16dd/	.	.	.	.	.
.	.	.	.	16cc#X/	.	.	.	.	.
8c#X/	.	.	.	16g#/	.	.	.	.	.
.	.	.	.	16e/JJ)	8ryy	.	.	.	.
4AA/	4.AA^\	.	.	16r	.	.	.	8ggg\)	.
.	.	.	.	(<16g#/LL	4g#\	.	.	.	.
.	.	.	.	16ff/	.	.	.	8r	.
.	.	.	.	16ee/	.	.	.	.	.
8c#/	.	.	.	16cc#/	.	.	.	8r	.
.	.	.	.	16g#/JJ)	16ryy	.	.	.	.
!!LO:LB:g=original
=64	=64	=64	=64	=64	=64	=64	=64	=64	=64
*>B	*>B	*	*	*>B	*>B	*	*	*>B	*
4E-X/	4.E-^\	.	.	16r	16ryy	.	.	(8ccc\L	.
.	.	.	.	(<16a/LL	4a\	.	.	.	.
.	.	.	.	16gg/	.	.	.	8bbn\)	.
.	.	.	.	16ff#X/	.	.	.	.	.
8f#X/	.	.	.	16cc/	.	.	.	(8ccc\J	.
.	.	.	.	16a/JJ)	8ryy	.	.	.	.
4D/	4.D^\	.	.	16r	.	.	.	4cc\)	.
.	.	.	.	(<16cc/LL	4cc\	.	.	.	.
.	.	.	.	16bbn/	.	.	.	.	.
.	.	.	.	16aa/	.	.	.	.	.
8f#/	.	.	.	16ff#/	.	.	.	(8dd\	.
.	.	.	.	16cc/JJ)	8ryy	.	.	.	.
4F#X/	4.F#^\	.	.	16r	.	.	.	4.ee-X\)	.
.	.	.	.	(<16ee-X/LL	4ee-\	.	.	.	.
.	.	.	.	16ddd/	.	.	.	.	.
.	.	.	.	16ccc/	.	.	.	.	.
8a/	.	.	.	16aa/	.	.	.	.	.
.	.	.	.	16ee-/JJ)	8ryy	.	.	.	.
*clefG2	*	*	*	*	*	*	*	*	*
4A/	4.A^\	.	.	16r	.	.	.	(4eee-X\	.
.	.	.	.	(<16ff#/LL	4ff#\	.	.	.	.
.	.	.	.	16fffn/	.	.	.	.	.
.	.	.	.	16eee-X/	.	.	.	.	.
8cc/	.	.	.	16ccc/	.	.	.	8eee-'\)	.
.	.	.	.	16ff#/JJ)	16ryy	.	.	.	.
*clefF4	*	*	*	*	*	*	*	*	*
*	*	*	*	*v	*v	*	*	*	*
=65	=65	=65	=65	=65	=65	=65	=65	=65
.	.	.	.	(<16qqgg/LL	.	.	.	.
.	.	.	.	16qqbb-/	.	.	.	.
.	.	.	.	16qqeee-X/JJ	.	.	.	.
*ped	*	*	*	*	*	*	*	*
8BB-/L	4BB-\	.	.	[2.ggg\)	ff >	.	4eee-X\	.
*clefG2	*	*	*	*	*	*	*	*
8B-/ 8e-X 8g 8b-	.	.	.	.	.	.	.	.
8B-/J 8e- 8g 8b-	1ryy	.	.	.	.	.	8r	.
*tremolo	*	*	*	*	*	*	*	*
8B-/L 8e- 8g 8b-	.	.	.	.	.	.	(16G/LL	p
.	.	.	.	.	.	.	16B-/	.
8B-/ 8e- 8g 8b-	.	.	.	.	]	.	16c/	.
.	.	.	.	.	.	.	16B-/	.
8B-/J 8e- 8g 8b-	.	.	.	.	.	.	16A/	.
*Xped	*	*	*	*	*	*	*	*
.	.	.	.	.	.	.	16B-/JJ	.
*ped	*	*	*	*	*	*	*	*
8B-/L 8e- 8f 8a	.	.	.	4ggg\]	.	.	16A/LL	.
.	.	.	.	.	.	.	16B-/	.
8B-/ 8e- 8f 8a	.	.	.	.	.	.	16Bn/	<
.	.	.	.	.	.	.	16c/	.
8B-/ 8e- 8f 8a	.	.	.	8aa\	p	.	16d/	.
.	.	.	.	.	.	.	16e-X/JJ	.
8B-/ 8e- 8f 8a	.	.	.	(8ee-X\L 8eee-X	.	.	16d/LL	.
.	.	.	.	.	.	.	16e-/	.
8B-/ 8e- 8f 8a	4ryy	.	.	8dd\) 8ddd	.	.	16f/	.
.	.	.	.	.	.	.	16g-X/	.
8B-/J 8e- 8f 8a	.	.	.	8cc'\J 8ccc	.	.	16cc/	.
.	.	.	.	.	.	.	16dd/JJ	[[
*Xped	*	*	*	*	*	*	*	*
*v	*v	*	*	*	*	*	*	*
=66	=66	=66	=66	=66	=66	=66	=66
8B-/L 8c 8e-X	.	.	4cc\ 4ccc	.	.	8ee-X\)	.
8B-/ 8c 8e-	.	.	.	.	.	8r	.
8B-/ 8c 8e-	.	.	8r	.	.	8r	.
8B-/ 8c 8e-	.	.	2.g-X^\ 2.gg-X	.	.	(16c/LL	p
.	.	.	.	.	.	16e-X/	.
8B-/ 8c 8e-	.	.	.	.	.	16f/	.
.	.	.	.	.	.	16e-/	.
8B-/J 8c 8e-	.	.	.	.	.	16d/	.
.	.	.	.	.	.	16e-/JJ	.
8An/L 8c 8e-	.	.	.	.	.	16A/LL	<
.	.	.	.	.	.	16c/	.
8A/ 8c 8e-	.	.	.	.	.	16d/	.
.	.	.	.	.	.	16e-/	.
8A/ 8c 8e-	.	.	.	.	.	16f/	.
.	.	.	.	.	.	16g-X/JJ	.
8A/ 8c 8e-	.	.	(4cc\ 4ccc	.	.	16f\LL	.
.	.	.	.	.	.	16g-\	.
8A/ 8c 8e-	.	.	.	.	.	16cc\	.
.	.	.	.	.	.	16ee-X\	.
8A/J 8c 8e-	.	.	8cc'\) 8ccc	.	.	16ff\	.
.	.	.	.	.	.	16gg-X\JJ	[[
*clefF4	*	*	*	*	*	*	*
!!LO:LB:g=original
=67	=67	=67	=67	=67	=67	=67	=67
8A-X\L 8B- 8d	.	.	4.cc\ 4.ccc	.	.	8ff\)	.
8A-\ 8B- 8d	.	.	.	.	.	8r	.
8A-\ 8B- 8d	.	.	.	.	.	8r	.
8A-\ 8B- 8d	.	.	[4.b-\ [4.bb-	.	.	(16d/LL	.
.	.	.	.	.	.	16f/	.
8A-\ 8B- 8d	.	.	.	.	.	16e/	.
.	.	.	.	.	.	16f/	.
8A-\J 8B- 8d	.	.	.	.	.	16g/	.
.	.	.	.	.	.	16a-X/JJ	.
8G\L 8B- 8d	.	.	4b-\] 4bb-]	.	.	16b-/LL	.
.	.	.	.	.	.	16a-/	.
8G\ 8B- 8d	.	.	.	.	.	16g/	.
.	.	.	.	.	.	16b-/	.
8G\J 8B- 8d	.	.	8ee-X'\	.	.	16cc/	.
.	.	.	.	.	.	16dd/JJ	.
8G\L 8A- 8c	.	.	(8a-X\L 8aa-X	.	.	16ee-X\LL	.
.	.	.	.	.	.	16dd\	.
8G\ 8A- 8c	.	.	8cc\)	.	.	16cc\	.
.	.	.	.	.	.	16ee-\	.
8G\J 8A- 8c	.	.	8e-X\J 8ee-	.	.	16ff\	.
.	.	.	.	.	.	16gg\JJ	.
=68	=68	=68	=68	=68	=68	=68	=68
8F\L 8A-X 8c	.	.	([4.e-X/ [4.ee-X	.	.	4aa-X'\)	.
8F\ 8A- 8c	.	.	.	.	.	.	.
8F\J 8A- 8c	.	.	.	.	.	[8aa-^\	.
8F\L 8A-	.	.	8e-/L] 8ee-]	>	.	16aa-\LL]	.
.	.	.	.	.	.	16gg\	.
8F\ 8A-	.	.	8d/) 8dd	.	.	16ff\	.
.	.	.	.	.	.	16gg\	.
8F\J 8A-	.	.	8c'/J 8cc	]]	.	16ff\	.
.	.	.	.	.	.	16ee-X\JJ	.
8F\L 8G	.	.	4Bn/ 4bn	.	.	8dd\	.
8F\ 8G	.	.	.	.	.	8r	.
8F\ 8G	.	.	8r	.	.	[8g/	>
8F\ 8G	.	.	4r	.	.	16g/LL]	.
.	.	.	.	.	.	(<16g/	.
8F\ 8G	.	.	.	.	.	16a-X/	.
.	.	.	.	.	.	16g/	.
8F\J 8G	.	.	8g/	.	.	16bn/	.
.	.	.	.	.	.	16dd/JJ	]]
*Xtremolo	*	*	*	*	*	*	*
=69	=69	=69	=69	=69	=69	=69	=69
*ped	*	*	*	*	*	*	*
(8qEE-X/	.	.	.	.	.	.	.
*^	*	*	*^	*	*	*	*
(2.G/)	1ryy	.	.	4.cc/	8cc\L	p	.	8gg\)	.
!	!	!	!	!LO:TX:a:i:t=espress.	!	!	!	!	!
.	.	.	.	.	8c\	.	.	8r	.
.	.	.	.	.	8e-X\J	.	.	8r	.
.	.	.	.	4f#X/	8f#\L	.	.	16r	.
.	.	.	.	.	.	.	.	(16G/LL	p
*Xped	*	*	*	*	*	*	*	*	*
.	.	.	.	.	8c\	.	.	16A-X/	.
.	.	.	.	.	.	.	.	16G/	.
.	.	.	.	8a-X/	8a-\J	.	.	16A-/	.
.	.	.	.	.	.	.	.	16G/JJ	.
(8qDD/	.	.	.	.	.	.	.	.	.
*ped	*	*	*	*	*	*	*	*	*
2.F/)	.	.	.	4.a-/	8a-\L	.	.	16A-/LL	.
.	.	.	.	.	.	.	.	16G/	.
.	.	.	.	.	8c\	.	.	16A-/	.
.	.	.	.	.	.	.	.	16G/	.
*Xped	*	*	*	*	*	*	*	*	*
.	8ryy	.	.	.	8fn\J	.	.	16Bn/	.
.	.	.	.	.	.	.	.	16d/JJ	.
.	4.GG\)	.	.	4.g/	8g\L	.	.	8g/L)	.
.	.	.	.	.	8Bn\	.	.	(8g'/	.
.	.	.	.	.	8d\J	.	.	8g'/J)	.
=70	=70	=70	=70	=70	=70	=70	=70	=70	=70
(8qEE-X/	.	.	.	.	.	.	.	.	.
*ped	*	*	*	*	*	*	*	*	*
(<4.G/)	2.ryy	.	.	4.cc/	(>8cc\L	.	.	8g/	.
.	.	.	.	.	8c\	.	.	8r	.
.	.	.	.	.	8e-X\J	.	.	8r	.
*Xped	*	*	*	*	*	*	*	*	*
4.D\ 4.F#X	.	.	.	4f#X/	8f#\L	.	.	4.r	.
.	.	.	.	.	8c\	.	.	.	.
.	.	.	.	8b-/	8b-\J	.	.	.	.
2.G/	4.E-X\	.	.	4.b-/	8b-\L	.	.	16r	.
.	.	.	.	.	.	.	.	(16An/LL	.
.	.	.	.	.	8c#X\	<	.	16B-/	.
.	.	.	.	.	.	.	.	16A/	.
.	.	.	.	.	8g\J	.	.	16B-/	.
.	.	.	.	.	.	.	.	16A/JJ	.
.	4.En\)	.	.	4.an/	8a\L	.	.	16B-/LL	<
.	.	.	.	.	.	.	.	16A/	.
.	.	.	.	.	8c#\	.	.	16B-/	.
.	.	.	.	.	.	.	.	16A/	.
.	.	.	.	.	8g\J)	[	.	16B-/	.
.	.	.	.	.	.	.	.	16A/JJ)	[[
!!LO:LB:g=original
=71	=71	=71	=71	=71	=71	=71	=71	=71	=71
(8qFF/	.	.	.	.	.	.	.	.	.
(<2.A\)	1ryy	.	.	4.dd/	(>8dd\L	p	.	8A/	.
.	.	.	.	.	8d\	.	.	8r	.
.	.	.	.	.	8f\J	.	.	8r	.
.	.	.	.	4g#X/	8g#\L	.	.	16r	.
.	.	.	.	.	.	.	.	(16A/LL	p
.	.	.	.	.	8d\	.	.	16B-/	.
.	.	.	.	.	.	.	.	16A/	.
.	.	.	.	8b-/	8b-\J	.	.	16B-/	.
.	.	.	.	.	.	.	.	16A/JJ	.
(8qEE/	.	.	.	.	.	.	.	.	.
2.G/)	.	.	.	4.b-/	8b-\L	.	.	16B-/LL	.
.	.	.	.	.	.	.	.	16A/	.
.	.	.	.	.	8d\	.	.	16B-/	.
.	.	.	.	.	.	.	.	16A/	.
.	8ryy	.	.	.	8gn\J	.	.	16c#X/	.
.	.	.	.	.	.	.	.	16e/JJ	.
.	4.AA\)	.	.	4.a/	8a\L	.	.	8a/L)	.
.	.	.	.	.	8c#X\	.	.	(8a'/	.
.	.	.	.	.	8e\J)	.	.	8a'/J)	.
=72	=72	=72	=72	=72	=72	=72	=72	=72	=72
(<8qFF/	.	.	.	.	.	.	.	.	.
(<4.A\)	2.ryy	.	.	4.dd/	(>8dd\L	.	.	8a/	.
.	.	.	.	.	8d\	.	.	8r	.
.	.	.	.	.	8f\J	.	.	8r	.
4.E\ 4.G#X	.	.	.	4g#X/	8g#\L	.	.	4.r	.
.	.	.	.	.	8d\	.	.	.	.
.	.	.	.	8cc/	8cc\J	.	.	.	.
2.A/	4.F\	.	.	4.cc/	8cc\L	.	.	16r	.
.	.	.	.	.	.	.	.	(16Bn/LL	.
.	.	.	.	.	8d#X\	.	.	16c/	.
.	.	.	.	.	.	.	.	16B/	.
.	.	.	.	.	8a\J	.	.	16c/	.
.	.	.	.	.	.	.	.	16B/JJ	.
.	4.F#X\)	.	.	4.bn/	8b\L	<	.	16c/LL	<
.	.	.	.	.	.	.	.	16B/	.
.	.	.	.	.	8d#\	.	.	16c/	.
.	.	.	.	.	.	.	.	16B/	.
.	.	.	.	.	8a\J)	[	.	16c/	.
.	.	.	.	.	.	.	.	16B/JJ)	[[
*v	*v	*	*	*	*	*	*	*	*
=73	=73	=73	=73	=73	=73	=73	=73	=73
(<8qGG/	.	.	.	.	.	.	.	.
4Bn\)	.	.	(4.ee/	4e\	p	.	8Bn/	.
.	.	.	.	.	.	.	8r	.
8r	.	.	.	8r	.	.	8r	.
4.r	.	.	4a#X/	4.r	.	.	4.r	.
.	.	.	8cc/)	.	.	.	.	.
(<8qFF#X/	.	.	.	.	.	.	.	.
(4.A\)	.	.	4.cc/	8r	.	.	2.r	.
.	.	.	.	(8f#X\L	.	.	.	.
.	.	.	.	8e\J	.	.	.	.
4BBn/	.	.	4.bn/	8d#X\L	.	.	.	.
.	.	.	.	8f#\)	.	.	.	.
8F#X\)	.	.	.	8an\J	.	.	.	.
!!LO:PB:g=original
=74	=74	=74	=74	=74	=74	=74	=74	=74
(4.E\	.	.	([4.b-X/	4.g\	.	.	(4.gg\	.
4C#X/	.	.	8b-/L]	8e\	.	.	4g/	.
.	.	.	8g/	1ryy	.	.	.	.
8G\)	.	.	[8f^/J)	.	.	.	8b-X\)	.
((4.G\	.	.	8f/L]	.	.	.	(4.b-\	.
.	.	.	8e'/	.	.	.	.	.
.	.	.	8d'/J	.	.	.	.	.
8G\L)	.	.	8c#X'/L	.	.	.	4.a/)	.
8F\)	.	.	8d'/	.	.	.	.	.
8E'\J	.	.	8e'/J	.	.	.	.	.
*	*	*	*v	*v	*	*	*	*
=75	=75	=75	=75	=75	=75	=75	=75
4F\	.	.	4A/	.	.	(4.dd\	.
8r	.	.	8r	.	.	.	.
4.r	.	.	4.r	.	.	4g#X/	.
.	.	.	.	.	.	8b-\)	.
(<8qEE/	.	.	.	.	.	.	.
(4.G\)	.	.	8r	.	.	(4.b-\	.
.	.	.	(8e/L	.	.	.	.
.	.	.	8d/J	.	.	.	.
4AA/	.	.	8c#X/L	.	.	4.a/)	.
.	.	.	8e/)	.	.	.	.
8E\)	.	.	8g'/J	.	.	.	.
=76	=76	=76	=76	=76	=76	=76	=76
*	*	*	*^	*	*	*	*
(4.D\	.	.	(4.ff/	4.f\	.	.	([4.a-X/	.
4BBn/	.	.	4f/	4d\	.	.	8a-/L]	.
.	.	.	.	.	.	.	8f/)	.
8F\)	.	.	8a-X/)	8c\	.	.	([8e-X^>/J	.
(4.F\	.	.	(4.a-/	(8c\L	.	.	8e-/L]	.
.	.	.	.	8d\)	.	.	8d/)	.
.	.	.	.	8e-X\J	.	.	8c'/J	.
4.GG/)	.	.	4g/)	4f\	.	.	8Bn'/L	.
.	.	.	.	.	.	.	8c'/	.
.	.	.	8g/	8f\	.	.	8d'/J	.
!!LO:LB:g=original
=77	=77	=77	=77	=77	=77	=77	=77	=77
[2.AA-X/	.	.	(4.cc/	2.c\	p <	.	4c/	.
.	.	.	.	.	.	.	8r	.
.	.	.	4e/	.	.	.	4.r	.
.	.	.	8f/)	.	.	.	.	.
8AA-/L]	.	.	4.f/	2.B-\	[	.	16r	.
.	.	.	.	.	.	.	(<16c/LL	p
(8AA-/	.	.	.	.	.	.	16d-X/	.
.	.	.	.	.	.	.	16c/	.
8GG/J	.	.	.	.	.	.	16e/	.
.	.	.	.	.	.	.	16g/JJ	.
4CC/)	.	.	4.e/	.	>]	.	8cc\L)	.
.	.	.	.	.	.	.	8cc'\	.
(8CC/	.	.	.	.	.	.	8cc'\J	.
=78	=78	=78	=78	=78	=78	=78	=78	=78
2.AA-X/)	.	.	(4.cc/	2.c\	p <	.	(4.cc\	.
.	.	.	4e/	.	.	.	4e/	.
.	.	.	8f/)	.	.	.	8f/)	.
16r	.	.	(4.f/	2.B-\	[	.	(4.f/	.
*	*	*above	*	*	*	*	*	*
(16CC/LL	.	4	.	.	>	.	.	.
16DD-X/	.	3	.	.	.	.	.	.
16CC/	.	5	.	.	.	.	.	.
16EE/	.	.	.	.	.	.	.	.
16GG/JJ	.	.	.	.	.	.	.	.
8C/L)	.	.	4.e/)	.	]	.	4.e/)	.
8C'/	.	.	.	.	.	.	.	.
8C'/J	.	.	.	.	.	.	.	.
=79	=79	=79	=79	=79	=79	=79	=79	=79
8r	.	.	(4.B-^>/ [4.c [4.e-X	2.ryy	<	.	2.r	.
(16GG-X/LL	.	.	.	.	.	.	.	.
16FF/	.	.	.	.	.	.	.	.
16GG-/	.	.	.	.	.	.	.	.
16EE/JJ	.	.	.	.	.	.	.	.
8GG-/L)	.	.	8A/) 8c] 8e-]	.	.	.	.	.
8GG-'/	.	.	8r	.	.	.	.	.
(8GG-'/J	.	.	8r	.	.	.	.	.
4.G-X\	.	.	8r	8ryy	.	.	8r	.
.	.	.	8e-/L	[4B-\ [4e-	.	.	(16f/LL	.
.	.	.	.	.	.	.	16e-X/	>
.	.	.	[8cc/J	.	.	.	16f/	.
.	.	.	.	.	.	.	16d/JJ	.
8F\)	.	.	8cc/L]	8B-\] 8e-]	.	.	8e-/L)	.
8r	.	.	[8A/ [<8c	4ryy	.	.	(8e-'/	]
8r	.	.	8A/J] 8c] 8e-	.	.	.	8e-'/J)	.
!!LO:LB:g=original
=80	=80	=80	=80	=80	=80	=80	=80	=80
8r	.	.	(4.B-^/ [4.c [4.e-X	2.ryy	.	.	(4.ee-X\	.
(16GG-X/LL	.	.	.	.	.	.	.	.
16FF/	.	.	.	.	.	.	.	.
16GG-/	.	.	.	.	.	.	.	.
16EE/JJ	.	.	.	.	.	.	.	.
8FF/L)	.	.	8A/) 8c] 8e-]	.	.	.	8a/)	.
8FF/	.	.	8r	.	.	.	8r	.
8FF/J	.	.	8r	.	.	.	8r	.
(4.G-X\	.	.	8r	8ryy	.	.	8r	.
.	.	.	8e-X/L	[4B-\ [4e-	.	.	(16f/LL	.
.	.	.	.	.	.	.	16e-X/	.
.	.	.	8cc/J	.	.	.	16f/	.
.	.	.	.	.	.	.	16d/JJ	.
8F\)	.	.	8cc/L	8B-\] 8e-]	.	.	8e-/L)	.
8r	.	.	[8A/ [8c	4ryy	.	.	8e-'/	.
8r	.	.	8A/J] 8c] 8e-	.	.	.	8e-'/J	.
*	*	*	*v	*v	*	*	*	*
=81	=81	=81	=81	=81	=81	=81	=81
8r	.	.	8A'/L 8c 8e-X	.	.	(4.gg-X\	.
*	*	*	*clefF4	*	*	*	*
(16GG-X/LL	.	.	(16G-X/L	<	.	.	.
16FF/	.	.	16F/	.	.	.	.
!	!	!	!LO:TX:b:i:t=molto	!	!	!	!
16GG-/	.	.	16G-/	.	.	.	.
16DD/JJ	.	.	16D/JJ	.	.	.	.
8EE-X'/L)	.	.	8E-X'\L)	.	.	8a/)	.
(16E-X/L	.	.	(16e-X\L	.	.	8r	.
16D/	.	.	16d\	.	.	.	.
16E-/	.	.	16e-\	.	.	8r	.
16BBn/JJ	.	.	16Bn\JJ	.	.	.	.
*	*	*	*clefG2	*	*	*	*
8C'/L)	.	.	8c'/L)	.	.	8r	.
(16G-X/L	.	.	(<16g-X/L	.	.	(16ee-X\LL	<
16F/	.	.	16f/	.	.	16dd\	.
16G-/	.	.	16g-/	.	.	16ee-\	.
16D/JJ	.	.	16d/JJ	.	.	16bn\JJ	.
8E-'\L)	.	.	8e-'/L)	.	.	8cc\L)	.
8E-'\	.	.	8e-'/	.	.	(16gg-X\L	.
.	.	.	.	.	.	16ff\	.
8E-'\J	.	.	8e-'/J	.	.	16gg-\	.
.	.	.	.	.	.	16dd\JJ	.
!!LO:LB:g=original
=82	=82	=82	=82	=82	=82	=82	=82
[4.g-X\	.	.	[4.gg-X\	ff	.	8ee-X\L)	.
.	.	.	.	.	.	8ee-'\	ff
.	.	.	.	.	.	8ee-'\J	.
8g-\L]	.	.	8gg-\L]	.	.	[4.ggg-X\	.
8e-X'\	.	.	8ee-X'\	.	.	.	.
8c'\J	.	.	8cc'\J	.	.	.	.
8A'\L	.	.	8a'\L	.	.	8ggg-\]	.
8E-X'\ 8e-	.	.	8ee-'\ 8eee-X	.	.	8r	.
8C'\J 8c	.	.	8cc'\J 8ccc	.	.	8r	.
8AA'\L 8A	.	.	8a'\L 8aa	.	.	4.r	.
8G-X'\ 8g-	.	.	8gg-'\ 8ggg-X	.	.	.	.
8E-'\J 8e-	.	.	8ee-'\J 8eee-	.	.	.	.
=83||	=83||	=83||	=83||	=83||	=83||	=83||	=83||
*M6/8	*	*	*M6/8	*	*	*M6/8	*
8C'\L 8c	.	.	8cc'\L 8ccc	.	.	2.r	.
8AA'\ 8A	.	.	8a'\ 8aa	.	.	.	.
8GG-X'\J 8G-X	.	.	8g-X'\J 8gg-X	.	.	.	.
8EE-X'/L 8E-X	.	.	8e-X'/L 8ee-X	.	.	.	.
8CC'/ 8C	.	.	8c'/ 8cc	.	.	.	.
8AAA'/J 8AA	.	.	8A'/J 8a	.	.	.	.
=84||	=84||	=84||	=84||	=84||	=84||	=84||	=84||
*M12/8	*	*	*M12/8	*	*	*M12/8	*
*	*	*	*clefF4	*	*	*	*
*	*	*	*^	*	*	*	*
(4.BBB-/	.	.	16r	16ryy	.	.	1.r	.
.	.	.	(<16BB-/LL	4BB-\	pp	.	.	.
.	.	.	16A-X/	.	.	.	.	.
.	.	.	16G-X/	.	.	.	.	.
.	.	.	16E-X/	.	.	.	.	.
.	.	.	16BB-/JJ)	8ryy	.	.	.	.
4.GG-X/	.	.	16r	.	.	.	.	.
.	.	.	(<16E-/LL	4E-\	.	.	.	.
.	.	.	16c-X/	.	.	.	.	.
.	.	.	16B-/	.	.	.	.	.
.	.	.	16G-/	.	.	.	.	.
.	.	.	16E-/JJ)	8ryy	.	.	.	.
4.EE-X/	.	.	16r	.	.	.	.	.
.	.	.	(<16E-/LL	4E-\	.	.	.	.
.	.	.	16c-/	.	.	.	.	.
.	.	.	16B-/	.	.	.	.	.
.	.	.	16G-/	.	.	.	.	.
.	.	.	16E-/JJ)	8ryy	.	.	.	.
4.CC-X/)	.	.	16r	.	.	.	.	.
.	.	.	(<16G-/LL	4G-\	.	.	.	.
.	.	.	16f/	.	.	.	.	.
.	.	.	16e-X/	.	.	.	.	.
.	.	.	16An/	.	.	.	.	.
.	.	.	16G-/JJ)	16ryy	.	.	.	.
!!LO:LB:g=original
=85	=85	=85	=85	=85	=85	=85	=85	=85
!	!	!	!	!	!	!	!LO:TX:b:i:t=espress.	!
(4.BBB-/	.	.	16r	16ryy	.	.	(4.b-\	p
.	.	.	(<16E-X/LL	4E-\	.	.	.	.
.	.	.	16c-X/	.	.	.	.	.
.	.	.	16B-/	.	.	.	.	.
.	.	.	16G-X/	.	.	.	.	.
.	.	.	16E-/JJ)	8ryy	.	.	.	.
4.GG-X/	.	.	16r	.	.	.	4ee-X\	.
.	.	.	(<16G-/LL	4G-\	.	.	.	.
.	.	.	16f/	.	.	.	.	.
.	.	.	16e-X/	.	.	.	.	.
.	.	.	16B-/	.	.	.	8cc-X\)	.
.	.	.	16G-/JJ)	8ryy	.	.	.	.
4.EE-X/	.	.	16r	.	.	.	(4.b-\	.
.	.	.	(<16G-/LL	4G-\	.	.	.	.
.	.	.	16f/	.	.	.	.	.
.	.	.	16e-/	.	.	.	.	.
.	.	.	16B-/	.	.	.	.	.
.	.	.	16G-/JJ)	8ryy	.	.	.	.
*	*	*	*clefG2	*	*	*	*	*
4.CC-X/)	.	.	16r	.	.	.	4.an/)	.
.	.	.	(<16An/LL	4A\	.	.	.	.
.	.	.	16a/	.	.	.	.	.
.	.	.	16g-X/	.	.	.	.	.
.	.	.	16e-X/	.	.	.	.	.
.	.	.	16A/JJ)	16ryy	.	.	.	.
=86	=86	=86	=86	=86	=86	=86	=86	=86
4BBB-/	.	.	16r	16ryy	.	.	(4.b-\	.
.	.	.	(<16B-/LL	4B-\	.	.	.	.
.	.	.	16b-/	.	.	.	.	.
.	.	.	16g-X/	.	.	.	.	.
8r	.	.	16e-X/	.	.	.	.	.
.	.	.	16B-/JJ)	8ryy	.	.	.	.
[4.BB-^\ [4.B-	.	.	16r	.	.	.	4gg-X\	.
.	.	.	(<16e-/LL	4e-\	.	.	.	.
.	.	.	16cc-X/	.	.	.	.	.
.	.	.	16b-/	.	.	.	.	.
.	.	.	16g-/	.	.	.	8ee-X\)	<
.	.	.	16e-/JJ)	16ryy	.	.	.	.
8BB-\L] 8B-]	.	.	(<16ff/LL	4ff\	<	.	(4.b-\	.
.	.	.	16ee-X/	.	.	.	.	.
8C'\ 8c	.	.	16b-/	.	.	.	.	.
.	.	.	16g-/	.	.	.	.	.
8D'\J 8d	.	.	16b-/	8ryy	.	.	.	.
.	.	.	16ee-/JJ)	.	.	.	.	.
8E-X'\L 8e-X	.	.	(<16aan/LL	4aa\	.	.	4.an/)	.
.	.	.	16gg-X/	.	.	.	.	.
8F'\ 8f	.	.	16ee-/	.	.	.	.	.
.	.	.	16a/	.	.	.	.	.
8G-X'\J 8g-X	.	.	16ee-/	8ryy	.	.	.	.
.	.	.	16gg-/JJ)	.	[	.	.	[
*	*	*	*v	*v	*	*	*	*
!!LO:PB:g=original
=87	=87	=87	=87	=87	=87	=87	=87
!LO:TX:t=P:problem=mixed beam	!	!	!LO:TX:b:i:t=risoluto	!	!	!LO:TX:b:i:t=risoluto	!
8F\L 8f\	.	.	8b-\ 8dd 8bb-	f	.	4.a-X/	f
*	*	*below	*	*	*	*	*
(<16AAA/L	.	4	8r	.	.	.	.
16BBB-/	.	3	.	.	.	.	.
16DD/	.	2	8r	.	.	.	.
16FF/JJ	.	1	.	.	.	.	.
16EE/LL	.	4	(4cc\ 4ccc-X	.	.	[4.aa-X\	.
16FF/	.	3	.	.	.	.	.
16BB-/	.	2	.	.	.	.	.
16D/	.	1	.	.	.	.	.
16F/	.	4	8a-X\ 8aa-X	.	.	.	.
16B-/JJ	.	2	.	.	.	.	.
!	!	!	!	!	!	!LO:N:vis=4	!
8d'\L)	.	.	4.g-X\ 4.gg-X	.	.	8.aa-\]	.
*	*	*above	*	*	*	*	*
(16AA\L	.	4	.	.	.	.	.
!	!	!	!	!	!	!LO:N:vis=4	!
16BB-\	.	3	.	.	.	8.ff~\	.
16D\	.	2	.	.	.	.	.
16F\JJ	.	1	.	.	.	.	.
!	!	!	!	!	!	!LO:N:vis=4	!
16A\LL	.	4	[4.f\) [4.ff	.	.	8.ee-X~\	.
16B-\	.	.	.	.	.	.	.
16c#X\	.	.	.	.	.	.	.
!	!	!	!	!	!	!LO:N:vis=4	!
16d\	.	.	.	.	.	8.dd~\	.
16e\	.	4	.	.	.	.	.
16f\JJ	.	3	.	.	.	.	.
=88	=88	=88	=88	=88	=88	=88	=88
!	!	!	!	!	!	!LO:N:vis=2	!
8a-X\)	.	.	8f/L] 8ff]	.	.	[4.fff\	.
*	*	*	*	*	*below	*	*
8r	.	.	(16A/L	.	1	.	.
.	.	.	16B-/	.	2	.	.
8r	.	.	16d/	.	3	.	.
.	.	.	16f/JJ	.	5	.	.
!	!	!	!	!	!	!LO:N:vis=4	!
(<4AA-X\ 4A-X	.	.	16e/LL	.	1	16fff\]	.
.	.	.	16f/	.	2	4aa-X~\	.
.	.	.	16b-/	.	4	.	.
.	.	.	16dd/	.	1	.	.
8FF/ 8F	.	.	16ff/	.	2	.	.
.	.	.	16bb-/JJ	.	3	4ff~\	.
!	!	!	!LO:TX:t=P:problem=mixed beam	!	!	!	!
4.DD/ 4.D	.	.	8fff\L)	.	.	.	.
.	.	.	(16c#X/L	<	2	.	.
!	!	!	!	!	!	!LO:N:vis=4	!
.	.	.	16d/	.	3	(8.dd~\	<
.	.	.	16e/	.	1	.	.
.	.	.	16f/JJ	.	2	.	.
!	!	!	!	!	!	!LO:N:vis=4	!
*	*	*	*	*	*above	*	*
4.BBB-/ 4.BB-	.	.	16a\LL	.	3	8.a-X~/	.
.	.	.	16b-\	.	4	.	.
.	.	.	16dd\	.	1	.	.
!	!	!	!	!	!	!LO:N:vis=4	!
.	.	.	16ff\	.	2	8.f~/)	[[
.	.	.	16aa\	.	3	.	.
.	.	.	16bb-\JJ	[[	4	.	.
!!LO:LB:g=original
=89	=89	=89	=89	=89	=89	=89	=89
4CC-X/) 4C-X	.	.	4ee-X\) 4aa-X 4eee-X	f	.	8e-X/L	.
.	.	.	.	.	.	(8A-X'/	.
*clefG2	*	*	*	*	*	*	*
8r	.	.	8r	.	.	8e-'/J)	.
16r	.	.	(4aa-\	.	.	[4.e-/ [4.cc-X	.
(16e-X/LL	.	.	.	.	.	.	.
16a-X/	.	.	.	.	.	.	.
16cc-X/	.	.	.	.	.	.	.
16b-/	.	.	8ff-X\	.	.	.	.
16a-/JJ)	.	.	.	.	.	.	.
16r	.	.	4.ee-X\	.	.	8e-/L] 8cc-]	.
(16c-X/LL	.	.	.	.	.	.	.
16e-/	.	.	.	.	.	(8A-'/	.
16b-/	.	.	.	.	.	.	.
16a-/	.	.	.	.	.	8e-'/J)	.
16e-/JJ)	.	.	.	.	.	.	.
16r	.	.	4.dd\)	.	.	[4.cc-\ [4.aa-X	.
*clefF4	*	*	*	*	*	*	*
(16F-X\LL	.	.	.	.	.	.	.
16A-X\	.	.	.	.	.	.	.
16d\	.	.	.	.	.	.	.
16B-\	.	.	.	.	.	.	.
16A-\JJ)	.	.	.	.	.	.	.
=90	=90	=90	=90	=90	=90	=90	=90
!	!	!	!	!	!	!LO:TX:t=P:problem=mixed beam	!
16r	.	.	4.ee-X\	.	.	8cc-\L] 8aa-]	.
(16E-X\LL	.	.	.	.	.	.	.
16A-X\	.	.	.	.	.	(8A-X/	.
16e-X\	.	.	.	.	.	.	.
16c-X\	.	.	.	.	.	8e-X/J	.
16A-\JJ)	.	.	.	.	.	.	.
16r	.	.	(4cc-X\ 4ccc-X	.	.	8e-/L) 8cc-X	.
(16C-X\LL	.	.	.	.	.	.	.
16E-\	.	.	.	.	.	8A-'/	.
16B-\	.	.	.	.	.	.	.
16A-\	.	.	8a-X\ 8aa-X	.	.	8e-'/J 8cc-	.
16E-\JJ)	.	.	.	.	.	.	.
16r	.	.	4.e-X/ 4.ee-X	.	.	8cc-'\L 8aa-X	.
(16AA-X\LL	.	.	.	.	.	.	.
16C-\	.	.	.	.	.	8e-'\	.
16F-X\	.	.	.	.	.	.	.
16E-\	.	.	.	.	.	(8cc-\J [<8aa-	.
16C-\JJ)	.	.	.	.	.	.	.
16r	.	.	8dn/L) 8ddn	.	.	8b-\L) 8aa-]	.
(16FF-X\LL	.	.	.	.	.	.	.
16BB-\	.	.	8B-'/ 8b-	.	.	8f-X'\	.
16A-\	.	.	.	.	.	.	.
16D\	.	.	8cn'/J 8ccn	.	.	([8b-\J 8aa-	.
16BB-\JJ)	.	.	.	.	.	.	.
!!LO:LB:g=original
=91	=91	=91	=91	=91	=91	=91	=91
*	*	*	*	*	*	*^	*
!LO:TX:b:i:t=con pedale	!	!	!	!	!	!	!	!
4EE-X/	.	.	4.d-X/ 4.g 4.dd-X	ff	.	4b-\]) 4gg	4.ryy	.
8r	.	.	.	.	.	8r	.	.
8r	.	.	[4.dd-X\ [4.ddd-X	ff	.	8r	(16G\LL	.
.	.	.	.	.	.	.	16e-X\)	.
8EEE-X'/L 8EE-X	.	.	.	.	.	[4dd-X/	(16f\	.
.	.	.	.	.	.	.	16e-\	.
8GGG'/J 8GG	.	.	.	.	.	.	16f\	.
.	.	.	.	.	.	.	16e-\JJ	.
!	!	!	!LO:N:vis=4	!	!	!	!	!
[4.BBB-/ [4.BB-	.	.	16%3dd-\] 16%3ddd-]	.	.	4.dd-/]	16f\LL	.
.	.	.	.	.	.	.	16e-\	.
.	.	.	.	.	.	.	16f\	.
!	!	!	!LO:N:vis=4	!	!	!	!	!
.	.	.	(16%3b-'\ 16%3bb-	.	.	.	16e-\	.
.	.	.	.	.	.	.	16f\	.
.	.	.	.	.	.	.	16e-\JJ)	.
!	!	!	!LO:N:vis=4	!	!	!	!	!
8BBB-/L] 8BB-]	.	.	16%3a-X'\ 16%3aa-X	.	.	(16G/LL	8G\	.
.	.	.	.	.	.	[16f-X/)	.	.
8BBB-'/ 8BB-	.	.	.	.	.	(16ee-X/	4f-\]	.
!	!	!	!LO:N:vis=4	!	!	!	!	!
.	.	.	16%3g'\) 16%3gg	.	.	16dd-X/	.	.
8DD-X'/J 8D-X	.	.	.	.	.	16ee-/	.	.
.	.	.	.	.	.	16dd-/JJ)	.	.
=92	=92	=92	=92	=92	=92	=92	=92	=92
*	*	*	*8va	*	*	*	*	*
!	!	!	!LO:N:vis=2	!	!	!	!	!
8FF-X'/L 8F-X	.	.	[8%3bb-\ [8%3bbb-	.	.	((16G/LL 16f-X	8ryy	.
.	.	.	.	.	.	16dd-X/JJ) [16bb-	.	.
8EE-X'/ 8E-X	.	.	.	.	.	4bb-/]	16b-\LL	.
.	.	.	.	.	.	.	16dd-\	.
8GG'/J 8G	.	.	.	.	.	.	16b-\	.
.	.	.	.	.	.	.	16dd-\JJ)	.
!	!	!	!LO:N:vis=4	!	!	!	!	!
[4.BB-\ [4.B-	.	.	16%3bb-\] 16%3bbb-]	.	.	2.bb-/	(16b-\LL	.
*	*	*	*X8va	*	*	*	*	*
.	.	.	.	.	.	.	16dd-\	.
.	.	.	.	.	.	.	16b-\	.
!	!	!	!LO:N:vis=4	!	!	!	!	!
.	.	.	16%3dd-X'\ 16%3ddd-X	.	.	.	16dd-\	.
.	.	.	.	.	.	.	16b-\	.
.	.	.	.	.	.	.	16dd-\JJ	.
!	!	!	!LO:N:vis=4	!	!	!	!	!
8BB-/L] 8B-]	.	.	16%3b-'\ 16%3bb-	>	.	.	16b-\LL	.
.	.	.	.	.	.	.	16dd-\	.
8EEE-X'/ 8EE-X	.	.	.	.	.	.	16b-\	.
!	!	!	!LO:N:vis=4	!	!	!	!	!
.	.	.	16%3g'\ 16%3gg	.	.	.	16dd-\	.
8GGG'/J 8GG	.	.	.	.	.	.	16b-\	.
.	.	.	.	.	.	.	16dd-\JJ)	.
!	!	!	!LO:N:vis=4	!	!	!	!	!
8BBB-'/L 8BB-	.	.	16%3d-X'/ 16%3dd-X	]	.	8G/ 8f- 8dd- 8bb-	4.ryy	.
8DD-X'/ 8D-X	.	.	.	.	.	8r	.	.
!	!	!	!LO:N:vis=4	!	!	!	!	!
.	.	.	16%3B-'/ 16%3b-	.	.	.	.	.
8EE-'/J 8E-	.	.	.	.	.	8gg\	.	p
*X8va	*	*	*	*	*	*	*	*
*	*	*	*	*	*	*v	*v	*
!!LO:LB:g=original
=93	=93	=93	=93	=93	=93	=93	=93
*	*	*	*^	*	*	*	*
(4.EEn/ 4.En	.	.	16G#X/LL 16g#X	4.ryy	p	.	(4.gg#X\	.
.	.	.	(16G#/	.	.	.	.	.
.	.	.	16g#/	.	.	.	.	.
.	.	.	16e/	.	.	.	.	.
.	.	.	16c#X/	.	.	.	.	.
.	.	.	16G#/JJ)	.	.	.	.	.
4.GG#X/ 4.G#X	.	.	16r	16ryy	.	.	4ccc#X\	.
.	.	.	(<16c#/LL	4c#\	.	.	.	.
.	.	.	16cc#X/	.	.	.	.	.
.	.	.	16g#/	.	.	.	.	.
.	.	.	16e/	.	.	.	8aa\)	.
.	.	.	16c#/JJ)	8ryy	.	.	.	.
4.EE/ 4.E	.	.	16r	.	.	.	(4.gg#\	.
.	.	.	(<16c#/LL	4c#\	.	.	.	.
.	.	.	16cc#/	.	.	.	.	.
.	.	.	16g#/	.	.	.	.	.
.	.	.	16e/	.	.	.	.	.
.	.	.	16c#/JJ)	8ryy	.	.	.	.
4.CC#X/) 4.C#X	.	.	16r	.	.	.	4.ff##X\)	.
.	.	.	(<16e/LL	4e\	.	.	.	.
.	.	.	16ee/	.	.	.	.	.
.	.	.	16cc#/	.	.	.	.	.
.	.	.	16f##X/	.	.	.	.	.
.	.	.	16e/JJ)	16ryy	.	.	.	.
=94	=94	=94	=94	=94	=94	=94	=94	=94
4GGG#X/ 4GG#X	.	.	16r	16ryy	.	.	(4.gg#X\	.
.	.	.	(<16e/LL	4e\	.	.	.	.
.	.	.	16ee/	.	.	.	.	.
.	.	.	16cc#X/	.	.	.	.	.
8r	.	.	16g#X/	.	.	.	.	.
.	.	.	16e/JJ)	8ryy	.	.	.	.
[4.GG#X^/ [4.G#X	.	.	16r	.	.	.	4eee\	.
.	.	.	(16g#/LL	4g#\	.	.	.	.
.	.	.	16gg#X/	.	.	.	.	.
.	.	.	16ee/	.	.	.	.	.
.	.	.	16cc#/	.	.	.	8ccc#X\)	<
.	.	.	16g#/JJ	2ryy	.	.	.	.
8GG#\L] 8G#]	.	.	16eee\LL	.	.	.	(4.gg#\	.
.	.	.	16ccc#X\	.	.	.	.	.
8AA#X'\ 8A#X	.	.	16gg#\	.	.	.	.	.
.	.	.	16ee\	.	.	.	.	.
8BB#X'\J 8B#X	.	.	16cc#\	.	.	.	.	.
.	.	.	16g#\JJ)	.	.	.	.	.
8C#X'\L 8c#X	.	.	16r	.	.	.	4.ggn\)	.
.	.	.	(<16gn/LL	4g\	.	.	.	.
8D#X'\ 8d#X	.	.	16ggn/	.	.	.	.	.
.	.	.	16ee/	.	.	.	.	.
[8E'\J [8e	.	.	16cc#/	.	.	.	.	.
.	.	.	16g/JJ)	16ryy	.	.	.	[
*	*	*	*v	*v	*	*	*	*
!!LO:LB:g=original
=95	=95	=95	=95	=95	=95	=95	=95
*^	*	*	*	*	*	*	*
8E\L] 8e]	4.ryy	.	.	4f#X\ 4ff#X	p	.	[2.ff#X\	p <
(<8c#X\	.	.	.	.	.	.	.	.
8F#X\J	.	.	.	8r	.	.	.	.
8E/L	4.E\	.	.	[4.f#^/	.	.	.	.
8c#/	.	.	.	.	.	.	.	.
8F#/J	.	.	.	.	.	.	.	.
!LO:N:vis-2.	!	!	!	!	!	!	!	!
8D#X/L	2.D#\	.	.	8f#/L]	.	.	4.ff#\]	[
8d#X/	.	.	.	8g#X'/	.	.	.	.
8Bn/J	.	.	.	8a#X'/J	.	.	.	.
8F#/L	.	.	.	8bn'\L	.	.	4.ff#\	.
8B/	.	.	.	8cc#X'\	.	.	.	.
8F#/J)	.	.	.	8dd#X'\J	.	.	.	.
*v	*v	*	*	*	*	*	*	*
=96	=96	=96	=96	=96	=96	=96	=96
!	!	!	!	!	!	!LO:TX:b:i:t=espress.	!
8C#X\L	.	.	4ee\	.	.	(4.gg#X\	.
(8e\	.	.	.	.	.	.	.
8Bn\J	.	.	8r	.	.	.	.
8G#X\L	.	.	[4.e^/	.	.	4eee\	.
8B\	.	.	.	.	.	.	.
8G#\J	.	.	.	.	.	8ccc#X\)	.
8FF#X\L)	.	.	8e/L]	.	.	(4.bbn\	.
(8A#X\	.	.	8f#X/	.	.	.	.
8F#X\J	.	.	8g#X/J	.	.	.	.
8E\L	.	.	8a#X/L	.	.	4.aa#X\)	.
8F#\	.	.	8bn/	.	.	.	.
8E\J)	.	.	8cc#X/J	.	.	.	.
!!LO:PB:g=original
=97	=97	=97	=97	=97	=97	=97	=97
*^	*	*	*	*	*	*	*
8BBn/L	4BB\	.	.	4dd#X\	.	.	[2.ddd#X\	.
8d#X/	.	.	.	.	.	.	.	.
8F##X/J	2ryy	.	.	8r	.	.	.	.
8c#X/L	.	.	.	[4.d#X^/ [4.dd#X	.	.	.	.
8F##/	.	.	.	.	.	.	.	.
8c#/J	.	.	.	.	.	.	.	.
!LO:N:vis-2.	!	!	!	!	!	!	!	!
8BB/L	2.BB\	.	.	8d#/L] 8dd#]	.	.	4ddd#\]	.
8Bn/	.	.	.	8e#X'/ 8ee#X	<	.	.	.
8G#X/J	.	.	.	8f##X'/J 8ff##X	.	.	8r	.
8D#X/L	.	.	.	8g#X'\L 8gg#X	.	.	4.dd#X\	p
8G#/	.	.	.	8a#X'\ 8aa#X	.	.	.	.
8D#/J	.	.	.	8bn'\J 8bbn	.	.	.	.
=98	=98	=98	=98	=98	=98	=98	=98	=98
8AA#X/L	4AA#X\	.	.	4cc#X\ 4ccc#X	.	.	(4.ee\	.
8c#X/	.	.	.	.	.	.	.	.
8G#X/J	1ryy	.	.	8r	.	.	.	.
8E\L	.	.	.	[4.c#X^/ [4.cc#X	.	.	4ccc#X\	<
8G#\	.	.	.	.	.	.	.	.
8E\J	.	.	.	.	.	.	8aa#X\)	.
8DD#X/L	.	.	.	8c#/L] 8cc#]	.	.	(4.gg#X\	.
8F##X/	.	.	.	8d#X'/ 8dd#X	.	.	.	.
8D#X/J	.	.	.	8e#X'/J 8ee#X	.	.	.	.
8C#X/L	.	.	.	8f##X'\L 8ff##X	.	.	4.ff##X\)	[
8D#/	4ryy	.	.	8g#X'\ 8gg#X	.	.	.	.
8C#/J	.	.	.	8a#X'\J 8aa#X	.	.	.	.
*v	*v	*	*	*	*	*	*	*
=99	=99	=99	=99	=99	=99	=99	=99
*	*	*	*^	*	*	*	*
4GG#X/	.	.	4.bbn\	[4.bn\	p	.	(8bbn\L	p
.	.	.	.	.	.	.	8aa\)	.
8r	.	.	.	.	.	.	((8bb\J	.
(8c#X\L	.	.	([4.ee/	4.b\]	.	.	4ee\)	.
8d#X\	.	.	.	.	.	.	.	.
8e\J	.	.	.	.	.	.	8ee'\)	.
4.f#X\	.	.	8ee/L]	2.a\	.	.	[4.aan\	.
.	.	.	8dd#X/)	.	.	.	.	.
.	.	.	(8cc#X/J	.	.	.	.	.
4Bn\)	.	.	[4.dd#/)	.	.	.	8aa\L]	.
.	.	.	.	.	.	.	(8gg#X\	.
(8B\	.	.	.	.	.	.	8ff#X\J)	.
!!LO:LB:g=original
=100	=100	=100	=100	=100	=100	=100	=100	=100
!	!	!	!LO:TX:b:i:t=dolce	!	!	!	!	!
(4.e\)	.	.	(4.dd#X/]	2.g#X\	.	.	(8gg#X\L	.
.	.	.	.	.	.	.	8ff##X\)	.
.	.	.	.	.	.	.	((8gg#\J	.
8A\L	.	.	[4.cc#X/	.	.	.	4cc#X\)	.
8Bn\	.	.	.	.	.	.	.	.
8c#X\J	.	.	.	.	.	.	8cc#'\)	.
!	!	!	!	!	!	!	!LO:N:acc=n #	!
4.d#X\	.	.	8cc#/L]	[4.f#X\	.	.	[4.ffn#\	.
.	.	.	8bn/)	.	.	.	.	.
.	.	.	(8a#X/J	.	.	.	.	.
4.G#X\)	.	.	[4.b/)	4f#\]	.	.	8ff#\L]	.
.	.	.	.	.	.	.	(8dd#X\	.
.	.	.	.	(8d#X\	.	.	8ff#\J	.
=101	=101	=101	=101	=101	=101	=101	=101	=101
(4.c#X\	.	.	8b/L]	[4.e\)	.	.	[4.ee\	.
.	.	.	(8g#X/	.	.	.	.	.
.	.	.	8bn/J	.	.	.	.	.
4.F#X\	.	.	[4.a/	4e\]	.	.	8ee\L])	.
.	.	.	.	.	.	.	(8cc#X\	.
.	.	.	.	(8c#X\	.	.	8ee\J	.
4.BBn/	.	.	8a/L]	[4.d\)	.	.	[4.ddn\	.
.	.	.	8f#X/	.	.	.	.	.
.	.	.	8a/J	.	.	.	.	.
4.E\)	.	.	[4.gn/	4d\]	.	.	8dd\L])	.
.	.	.	.	.	.	.	(8bn\	.
.	.	.	.	(8Bn\	.	.	8dd\J	.
=102	=102	=102	=102	=102	=102	=102	=102	=102
(4.AA/	.	.	8g/L]	[4.cn\)	.	.	[4.ccn\	.
.	.	.	8e/	.	.	.	.	.
.	.	.	8g/J	.	.	.	.	.
4.D\	.	.	[4.fn/	4c\]	.	.	8cc\L])	.
.	.	.	.	.	.	.	(8a\	.
.	.	.	.	(8A\	.	.	8cc\J	.
4.GG/	.	.	8f/L]	2.B-X\)	.	.	[4.b-X\	.
.	.	.	8d/	.	.	.	.	.
.	.	.	8f/J	.	.	.	.	.
4C/)	.	.	4.e-X/)	.	.	.	8b-/L])	.
.	.	.	.	.	.	.	(8a/	.
(8C#X/	.	.	.	.	.	.	8g/J)	.
*	*	*	*v	*v	*	*	*	*
!!LO:LB:g=original
=103	=103	=103	=103	=103	=103	=103	=103
!	!	!	!LO:TX:b:i:t=con gran espress.	!	!	!	!
.	.	.	8qd/	.	.	.	.
8DD/L) 8D	.	.	(4.dd\	.	.	8d/L	mf
*	*	*below	*	*	*	*	*
(16FF#X/L	.	4	.	.	.	8G/	.
16GG/	.	.	.	.	.	.	.
16BB-/	.	.	.	.	.	[8d/J [8b-	.
16D/JJ	.	.	.	.	.	.	.
16C#X\LL	.	.	4gg\	.	.	8d/L] 8b-]	.
16D\	.	.	.	.	.	.	.
16F#X\	.	.	.	.	.	(8G/	.
16G\	.	.	.	.	.	.	.
16A\	.	.	8ee-X\	.	.	8b-/J) 8gg	.
16B-\JJ)	.	.	.	.	.	.	.
16r	.	.	4.dd\	.	.	[4.b-\ [4.gg	.
(16B-\LL	.	.	.	.	.	.	.
16d\	.	.	.	.	.	.	.
16a\	.	.	.	.	.	.	.
16g\	.	.	.	.	.	.	.
16d\JJ)	.	.	.	.	.	.	.
16r	.	.	4.cc#X\	.	.	4b-\] 4gg]	.
(16G\LL	.	.	.	.	.	.	.
16A\	.	.	.	.	.	.	.
16e-X\	.	.	.	.	.	.	.
16c#X\	.	.	.	.	.	8g\ 8ee-X	.
16A\JJ)	.	.	.	.	.	.	.
=104	=104	=104	=104	=104	=104	=104	=104
16r	.	.	4.dd\)	.	.	8b-/L 8dd	.
(16D\LL	.	.	.	.	.	.	.
16G\	.	.	.	.	.	8G/	.
16d\	.	.	.	.	.	.	.
16B-\	.	.	.	.	.	[8d/J [8b-	.
16G\JJ)	.	.	.	.	.	.	.
16r	.	.	(4g\ 4gg	.	.	8d/L] 8b-]	.
(16BB-\LL	.	.	.	.	.	.	.
16D\	.	.	.	.	.	(8G/	.
16A\	.	.	.	.	.	.	.
16G\	.	.	8e-X/ 8ee-X	.	.	8b-/J) 8gg	.
16D\JJ)	.	.	.	.	.	.	.
16r	.	.	4.d/ 4.dd	.	.	[4.b-\ [4.gg	.
(16GG/LL	.	.	.	.	.	.	.
16BB-/	.	.	.	.	.	.	.
16E-X/	.	.	.	.	.	.	.
16D/	.	.	.	.	.	.	.
16BB-/JJ)	.	.	.	.	.	.	.
16r	.	.	4c#X/) 4cc#X	.	.	8b-\L] 8gg]	.
(16EE-X/LL	.	.	.	.	.	.	.
16AA/	.	.	.	.	.	(8g\	.
16G/	.	.	.	.	.	.	.
16C#X/	.	.	(8c#/ 8cc#	.	.	8a\J)	.
16AA/JJ)	.	.	.	.	.	.	.
!!LO:LB:g=original
=105	=105	=105	=105	=105	=105	=105	=105
*	*	*	*^	*	*	*	*
8r	.	.	8d/L) 8dd	1ryy	f	.	(4.b-\	f
(16DD/LL	.	.	8G'/	.	.	.	.	.
16D/	.	.	.	.	.	.	.	.
16DD/	.	.	8B-'/J	.	.	.	.	.
16D/JJ	.	.	.	.	.	.	.	.
16DD/LL	.	.	16d'/LL	.	.	.	4bb-\	.
16D/	.	.	(16B-/	.	.	.	.	.
16DD/	.	.	16d/	.	.	.	.	.
16D/	.	.	16g/	.	.	.	.	.
16DD/	.	.	16b-/	.	.	.	8gg\)	.
16D/JJ	.	.	16dd/JJ)	.	.	.	.	.
*tremolo	*	*	*	*	*	*	*	*
16DD-X/LL	.	.	(16gg\LL	.	.	.	(4.ff\	.
16D-X/	.	.	16g\	.	.	.	.	.
16DD-/	.	.	16b-\	.	.	.	.	.
16D-/	.	.	16gg\	.	.	.	.	.
16DD-/	.	.	16gg\	8ryy	.	.	.	.
16D-/	.	.	16bb-\JJ	.	.	.	.	.
16DD-/	.	.	16%3ggg/	16ggg\LL	.	.	8ee\L)	.
16D-/	.	.	.	16bb-\	.	.	.	.
16DD-/	.	.	.	16gg\	.	.	8g\	.
16D-/	.	.	16%3ff/	16ff\	.	.	.	.
16DD-/	.	.	.	16b-\	.	.	8a\J	.
16D-/JJ)	.	.	.	16g\JJ)	.	.	.	.
=106	=106	=106	=106	=106	=106	=106	=106	=106
!	!	!	!LO:TX:t=P:problem=mixed beam	!	!	!	!	!
(16CC/LL	.	.	4ee/	8ee\L	.	.	(4.b-\	.
16C/	.	.	.	.	.	.	.	.
16CC/	.	.	.	8G'/	.	.	.	.
16C/	.	.	.	.	.	.	.	.
16CC/	.	.	2.ryy	8B-'/J	.	.	.	.
16C/	.	.	.	.	.	.	.	.
16CC/	.	.	.	16e'/LL	.	.	4bb-\	.
16C/	.	.	.	(16B-/	.	.	.	.
16CC/	.	.	.	16e/	.	.	.	.
16C/	.	.	.	16g/	.	.	.	.
16CC/	.	.	.	16b-/	.	.	8gg\)	.
16C/JJ	.	.	.	16ee/JJ	.	.	.	.
16DD-X/LL	.	.	.	16gg\LL	.	.	(4.ff\	.
16D-X/	.	.	.	16g\	.	.	.	.
16DD-/	.	.	.	16b-\	.	.	.	.
16D-/	.	.	.	16gg\	.	.	.	.
16DD-/	.	.	8ryy	16gg\	.	.	.	.
16D-/	.	.	.	16bb-\JJ	.	.	.	.
16DD-/	.	.	16%3ggg/	16ggg\LL	.	.	8ee\L)	.
16D-/	.	.	.	16bb-\	.	.	.	.
16DD-/	.	.	.	16gg\	.	.	8g\	.
16D-/	.	.	16%3ff/	16ff\	.	.	.	.
16DD-/	.	.	.	16b-\	.	.	8a\J	.
16D-/JJ	.	.	.	16g\JJ)	.	.	.	.
*Xtremolo	*	*	*	*	*	*	*	*
*	*	*	*v	*v	*	*	*	*
!!LO:LB:g=original
=107	=107	=107	=107	=107	=107	=107	=107
8CC/) 8C	.	.	8ee\	p	.	8b-\	.
(16BBBn/LL	.	.	8r	.	.	8r	.
16GG/	.	.	.	.	.	.	.
16CC/	.	.	8r	.	.	8r	.
16GG/JJ	.	.	.	.	.	.	.
16DD-X/LL	.	.	(<4b-\	.	.	[4.ggg^<\	.
16GG/	.	.	.	.	.	.	.
16CC/	.	.	.	.	.	.	.
16GG/	.	.	.	.	.	.	.
16DD-/	.	.	8g/	<	.	.	.
16GG/JJ	.	.	.	.	.	.	.
!	!	!	!	!	!	!LO:TUP:a	!
!	!	!	!	!	!	!LO:N:vis=4	!
16CC/LL	.	.	4.f/	.	.	16%3ggg\]	<
16GG/	.	.	.	.	.	.	.
16BBBn/	.	.	.	.	.	.	.
!	!	!	!	!	!	!LO:N:vis=4	!
16GG/	.	.	.	.	.	16%3ddd-X~\	.
16CC/	.	.	.	.	.	.	.
16GG/JJ	.	.	.	.	.	.	.
!	!	!	!	!	!	!LO:N:vis=4	!
16DD-/LL	.	.	8e/L)	.	.	16%3bb-~\	.
16GG/	.	.	.	.	.	.	.
16CC/	.	.	8G'/	[	.	.	.
!	!	!	!	!	!	!LO:N:vis=4	!
16GG/	.	.	.	.	.	16%3aa~\	[[
16DD-/	.	.	8A'/J	.	.	.	.
16GG/JJ)	.	.	.	.	.	.	.
=108	=108	=108	=108	=108	=108	=108	=108
!	!	!	!	!	!	!LO:TUP:a	!
!	!	!	!	!	!	!LO:N:vis=4	!
(16CC/LL	.	.	4B-/	.	.	16%3gg~\	.
16GG/	.	.	.	.	.	.	.
16BBBn/	.	.	.	.	.	.	.
!	!	!	!	!	!	!LO:N:vis=4	!
16GG/	.	.	.	.	.	16%3bb-~\	.
16CC/	.	.	8r	.	.	.	.
16GG/JJ	.	.	.	.	.	.	.
!	!	!	!	!	!	!LO:N:vis=4	!
16DD-X/LL	.	.	(4b-\ 4bb-	f	.	16%3gg~\	.
16GG/	.	.	.	.	.	.	.
16CC/	.	.	.	.	.	.	.
!	!	!	!	!	!	!LO:N:vis=4	!
16GG/	.	.	.	.	.	16%3ee~\	.
16DD-/	.	.	8g\ 8gg	.	.	.	.
16GG/JJ	.	.	.	.	.	.	.
!	!	!	!	!	!	!LO:N:vis=4	!
16CC/LL	.	.	4.f\ 4.ff	.	.	16%3dd-X~\	.
16GG/	.	.	.	.	.	.	.
16BBBn/	.	.	.	.	.	.	.
!	!	!	!	!	!	!LO:N:vis=4	!
16GG/	.	.	.	.	.	16%3b-~\	.
16CC/	.	.	.	.	.	.	.
16GG/JJ	.	.	.	.	.	.	.
!	!	!	!	!	!	!LO:N:vis=4	!
16DD-X/LL	.	.	8e/L) 8ee	.	.	16%3g~/	.
16GG/	.	.	.	.	.	.	.
16CC/	.	.	8G'/ 8g	.	.	.	.
!	!	!	!	!	!	!LO:N:vis=4	!
16GG/	.	.	.	.	.	16%3f~/	.
16DD-/	.	.	8A'/J 8a	.	.	.	.
16GG/JJ)	.	.	.	.	.	.	.
!!LO:PB:g=original
=109	=109	=109	=109	=109	=109	=109	=109
8CC/	.	.	(8B-'/L 8b-	.	.	4e/	.
8r	.	.	8B-'/ 8e 8b-	.	.	.	.
8r	.	.	8B-'/J 8e 8b-	.	.	8r	.
(4.DDD-X^/ 4.DD-X	.	.	8B-'/L 8e 8b-	.	.	4.r	.
.	.	.	8B-'/ 8e 8b-	.	.	.	.
.	.	.	8B-'/J 8e 8b-	.	.	.	.
*	*	*	*tremolo	*	*	*	*
4.DDDn/) 4.DDn	.	.	8B-'/L 8f 8b-	>	.	2.r	.
.	.	.	8B-'/ 8f 8b-	.	.	.	.
.	.	.	8B-'/J) 8f 8b-	.	.	.	.
(4.EEE-X^/ 4.EE-X	.	.	8G'/L 8B- 8d-X	.	.	.	.
.	.	.	8G'/ 8B- 8d-	.	.	.	.
.	.	.	8G'/J 8B- 8d-	]	.	.	.
*	*	*	*clefF4	*	*	*	*
=110	=110	=110	=110	=110	=110	=110	=110
16%3EEEn/) 16%3EEn	.	.	(8G'\L 8B- 8c	.	.	1.r	.
.	.	.	8C'\ 8G 8B- 8c	.	.	.	.
!LO:N:vis-2	!	!	!	!	!	!	!
(8%3BB-^/	.	.	.	.	.	.	.
.	.	.	8C'\J) 8G 8B- 8c	.	.	.	.
.	.	.	8C\L 8G 8B-	>	.	.	.
.	.	.	8C\ 8G 8B-	.	.	.	.
!LO:N:vis=4	!	!	!	!	!	!	!
16%3GG/	.	.	.	.	.	.	.
.	.	.	8C\ 8G 8B-	.	.	.	.
!LO:N:vis=4	!	!	!	!	!	!	!
16%3EE/	.	.	8C\ 8G 8B-	.	.	.	.
.	.	.	8C\ 8G 8B-	.	.	.	.
!LO:N:vis=4	!	!	!	!	!	!	!
16%3CC/	.	.	.	.	.	.	.
.	.	.	8C\J 8G 8B-	.	.	.	.
!LO:N:vis=4	!	!	!	!	!	!	!
16%3BBB-/	.	.	8C\L 8G 8B- 8c	.	.	.	.
.	.	.	8C\ 8G 8B- 8c	.	.	.	.
!LO:N:vis=4	!	!	!	!	!	!	!
16%3GGG/)	.	.	.	.	.	.	.
.	.	.	8C\J 8G 8B- 8c	]]	.	.	.
=111	=111	=111	=111	=111	=111	=111	=111
!	!	!	!	!	!	!LO:TX:b:i:t=molto cantabile	!
(8qFFF/	.	.	.	.	.	.	.
(2.FF/)	sfz	.	8C\L 8F 8A 8c	mf	.	[2.aa\	.
.	.	.	8C\ 8F 8A 8c	.	.	.	.
.	.	.	8C\ 8F 8A 8c	.	.	.	.
.	.	.	8C\ 8F 8A 8c	.	.	.	.
.	.	.	8C\ 8F 8A 8c	.	.	.	.
.	.	.	8C\J 8F 8A 8c	.	.	.	.
2.DD/	.	.	8F\L 8A 8d	.	.	4aa\]	.
.	.	.	8F\ 8A 8d	.	.	.	.
.	.	.	8F\ 8A 8d	.	.	(8bn\	.
.	.	.	8F\ 8A 8d	.	.	8ff\L)	.
.	.	.	8F\ 8A 8d	.	.	8ee\	.
.	.	.	8F\J 8A 8d	.	.	8dd\J	.
=112	=112	=112	=112	=112	=112	=112	=112
[2.EE/	.	.	8E\L 8G#X 8d	.	.	(4.dd\	.
.	.	.	8E\ 8G# 8d	.	.	.	.
.	.	.	8E\ 8G# 8d	.	.	.	.
.	.	.	8E\ 8G# 8d	.	.	2.g#X/)	.
.	.	.	8E\ 8G# 8d	.	.	.	.
.	.	.	8E\J 8G# 8d	.	.	.	.
4.EE/])	.	.	8E\L 8G# 8d	>	.	.	.
.	.	.	8E\ 8G# 8d	.	.	.	.
.	.	.	8E\ 8G# 8d	.	.	.	.
(4.EE/	.	.	8E\ 8G# 8d	.	.	(4dd\	.
.	.	.	8E\ 8G# 8d	.	.	.	.
.	.	.	8E\J 8G# 8d	]]	.	8dd'\)	.
!!LO:LB:g=original
=113	=113	=113	=113	=113	=113	=113	=113
2.EE-X/	.	.	8F\L 8A 8c	p	.	(4.dd\	.
.	.	.	8F\ 8A 8c	.	.	.	.
.	.	.	8F\ 8A 8c	.	.	.	.
.	.	.	8F\ 8A 8c	.	.	[4.cc\	.
.	.	.	8F\ 8A 8c	.	.	.	.
.	.	.	8F\J 8A 8c	.	.	.	.
2.DD/)	.	.	8F\L 8B- 8f	.	.	4cc\])	.
.	.	.	8F\ 8B- 8f	.	.	.	.
.	.	.	8F\ 8B- 8f	.	.	(8f/	.
.	.	.	8F\ 8B- 8f	.	.	8b-X/L)	.
.	.	.	8F\ 8B- 8f	.	.	8d/	.
.	.	.	8F\J 8B- 8f	.	.	8f/J	.
=114	=114	=114	=114	=114	=114	=114	=114
[2.CC/	.	.	8A\L 8c 8f	>	.	([4.f/	>
.	.	.	8A\ 8c 8f	.	.	.	.
.	.	.	8A\J 8c 8f	.	.	.	.
.	.	.	8A-X\L 8Bn 8f	.	.	8f/L]	.
.	.	.	8A-\ 8B 8f	.	.	8e~/	.
.	.	.	8A-\J 8B 8f	.	.	8d~/J)	.
4.CC/]	.	.	8G\L 8c 8e	.	.	[4.c/	]
.	.	.	8G\ 8c 8e	.	.	.	.
.	.	.	8G\J 8c 8e	]	.	.	.
(4.BBB-/	.	.	8G\ 8c 8e	.	.	8c/]	.
.	.	.	8r	.	.	8r	.
*	*	*	*clefG2	*	*	*	*
.	.	.	8cc\	.	.	8r	.
=115	=115	=115	=115	=115	=115	=115	=115
*	*	*	*^	*	*	*	*
!	!	!	!LO:TX:b:i:t=dolce	!	!	!	!	!
8AAA/)	.	.	(4.ff/	8ff\L	.	.	2.r	.
8r	.	.	.	8f\	.	.	.	.
8r	.	.	.	8a\J	.	.	.	.
(8A\L	.	.	4cc#X/	8cc#\L	.	.	.	.
8c\	.	.	.	8f\	.	.	.	.
8A\J	.	.	8dd/)	8dd\J	.	.	.	.
!	!	!	!	!	!LO:HP:a	!	!	!
8B-\L	.	.	(4.dd/	8dd\L	<	.	4.r	.
8c\	.	.	.	8e\	.	.	.	.
8B-\J	.	.	.	8g\J	.	.	.	.
!	!	!	!	!	!	!	!LO:TX:b:i:t=dolce	!
8B-\L	.	.	4.ccn/	8cc\L	.	.	4.cc\	.
8c\	.	.	.	8e\	.	.	.	.
8B-\J	.	.	.	8g\J	.	.	.	.
*	*	*	*v	*v	*	*	*	*
=116	=116	=116	=116	=116	=116	=116	=116
4A\) 4c	.	.	4f\) 4ff	[	.	(4.ff\	.
8r	.	.	8r	.	.	.	.
(4.AA/	.	.	4.r	p	.	4cc#X\	.
.	.	.	.	.	.	8dd'\)	.
4BB-/)	.	.	4.r	.	.	(4.dd\	.
8r	.	.	.	.	.	.	.
4.B-\ 4.c	.	.	4.e/ 4.cc	.	.	4.ccn\)	.
!!LO:LB:g=original
=117	=117	=117	=117	=117	=117	=117	=117
*	*	*	*^	*	*	*	*
8A\L	.	.	4.ff/	8ff\L	.	.	2.r	.
8c\	.	.	.	8f\	.	.	.	.
8A\J	.	.	.	8a\J	.	.	.	.
8F\L	.	.	4cc#X/	8cc#\L	<	.	.	.
8A\	.	.	.	8a\	.	.	.	.
8F\J	.	.	8dd/	8dd\J	.	.	.	.
8E\L	.	.	4.dd/	8dd\L	.	.	4.r	.
8B-\	.	.	.	8g\	.	.	.	.
8E\J	.	.	.	8dd\J	.	.	.	.
8E-X\L	.	.	4.ccn/	8cc\L	.	.	4.ccc\	mf
8A\	.	.	.	8g-X\	.	.	.	.
8E-\J	.	.	.	8cc\J	[	.	.	.
*	*	*	*v	*v	*	*	*	*
=118	=118	=118	=118	=118	=118	=118	=118
4D\ 4B-	.	.	4f\ 4ff	.	.	(4.fff\	.
8r	.	.	8r	.	.	.	.
4.r	.	.	4.r	.	.	4aa\	.
.	.	.	.	.	.	8bb-\)	<
(4.AA/	.	.	(4.c/ 4.f#X 4.cc	<	.	4.eee-X\	.
4.BB-/)	.	.	4.d/) 4.g 4.b-	[[	.	(4.ddd\	[[
=119	=119	=119	=119	=119	=119	=119	=119
(4.BBn/	.	.	(4.d-X/ 4.f 4.a-X	.	.	4.ddd-X\)	<
4.C/	.	.	4.c/ 4.f 4.an	.	.	(4.ccc\	.
4.D\	.	.	4.Bn/ 4.f 4.a-X	.	.	4bbn\)	[
.	.	.	.	.	.	(8ff\	>
4E\)	.	.	4.B-X/) 4.g	.	.	8bb-X\L)	.
.	.	.	.	.	.	8aa\	.
(8C/	.	.	.	.	.	8gg\J	]]
=120	=120	=120	=120	=120	=120	=120	=120
.	.	.	[8qf/	.	.	.	.
4D\) 4F 4B-	.	.	(4.f\] 4.ff	.	.	4ff\	.
8r	.	.	.	.	.	8r	.
4.r	.	.	4a/	<	.	4.r	.
.	.	.	8b-\	.	.	.	.
4.AAA/ 4.AA	.	.	(4.e-X/) 4.f#X 4.ee-X	[	.	(4.c/	p
(4.BBB-/ 4.BB-	.	.	4.d/ 4.g 4.dd	.	.	8d/L	.
.	.	.	.	.	.	8e/	.
.	.	.	.	.	.	8f/J)	.
!!LO:LB:g=original
=121	=121	=121	=121	=121	=121	=121	=121
*	*	*	*^	*	*	*	*
4.BBBn/) 4.BBn	.	.	4.d-X/) 4.dd-X	4.f/	<	.	(4.A-X/	.
(4.CC/ 4.C	.	.	(<4.c/ 4.cc	4.e/	.	.	4G/	<
.	.	.	.	.	[	.	8e/)	[
4.DD/ 4.D	.	.	4Bn/) 4bn	4f/	.	.	(4.f/	>
.	.	.	(>8f/	8ryy	>	.	.	.
4EE/) 4E	.	.	8b-X/L	4c\	.	.	4g/	.
.	.	.	8a/)	.	.	.	.	.
(8CC/	.	.	(>8g/J	8/-X\	]	.	8B-/)	]
*	*	*	*v	*v	*	*	*	*
=122	=122	=122	=122	=122	=122	=122	=122
8FF/)	.	.	8A/) 8f	.	.	8A/	.
8r	.	.	8r	.	.	8r	.
!	!	!	!LO:TX:b:i:t=legg.	!	!	!	!
8r	.	.	8F/	.	.	8r	.
!	!	!	!	!	!	!LO:TX:b:i:t=dolce	!
(2.FFF/ 2.FF	.	.	8A'/L	.	.	2.aa\	.
.	.	.	8c#X'/	.	.	.	.
.	.	.	8F'/J	.	.	.	.
.	.	.	8B-'/L	.	.	.	.
.	.	.	8d'/	.	.	.	.
.	.	.	8f'/J	.	.	.	.
4.GGG/ 4.GG	.	.	8e'/L	.	.	(4.gg\	.
.	.	.	8d-X'/	.	.	.	.
.	.	.	8B-'/J	.	.	.	.
=123	=123	=123	=123	=123	=123	=123	=123
4.AAA/) 4.AA	.	.	8A'/L	.	.	4.ff\	.
.	.	.	8c'/	.	.	.	.
.	.	.	8f'/J	.	.	.	.
(4.CC/ 4.C	.	.	8f#X'/L	.	.	4.ee-X\	.
.	.	.	8e-X'/	.	.	.	.
.	.	.	8A'/J	.	.	.	.
4.BBB-/ 4.BB-	.	.	8B-'/L	.	.	4.dd\)	.
.	.	.	8d'/	.	.	.	.
.	.	.	8g'/J	.	.	.	.
4.AAA/ 4.AA	.	.	8a'/L	.	.	(4.ccc\	.
.	.	.	8f#'/	.	.	.	.
.	.	.	8c'/J	.	.	.	.
!!LO:LB:g=original
=124	=124	=124	=124	=124	=124	=124	=124
8GGG/) 8GG	.	.	8d'/ 8g 8b-	.	.	8bb-\)	.
8r	.	.	8r	.	.	8r	.
8r	.	.	8G'/	.	.	8r	.
(2.GGG/ 2.GG	.	.	8B-'/L	.	.	(2.bb-\	.
.	.	.	8e-X'/	.	.	.	.
.	.	.	8G'/J	.	.	.	.
.	.	.	8B-'/L	.	.	.	.
.	.	.	8d'/	.	.	.	.
.	.	.	8g'/J	.	.	.	.
4.AAA/ 4.AA	.	.	8f#X'/L	.	.	4.aa\)	.
.	.	.	8e-'/	.	.	.	.
.	.	.	8c'/J	.	.	.	.
=125	=125	=125	=125	=125	=125	=125	=125
4.BBB-/) 4.BB-	.	.	8B-'/L	.	.	(4.gg\	.
.	.	.	8d'/	.	.	.	.
.	.	.	8g'/J	.	.	.	.
(4.DD/ 4.D	.	.	8g#X'/L	<	.	4.ff\	<
.	.	.	8fn'/	.	.	.	.
.	.	.	8Bn'/J	.	.	.	.
4.CC/ 4.C	.	.	8c'/L	.	.	4.ee\)	.
.	.	.	8e'/	.	.	.	.
.	.	.	8a'/J	.	.	.	.
4.BBBn/ 4.BBn	.	.	8bn'/L	.	.	(4.ddd\	[
.	.	.	8g#X'/	.	.	.	.
.	.	.	8d'/J	[[	.	.	.
=126	=126	=126	=126	=126	=126	=126	=126
8AAA/) 8AA	.	.	[4.e/ [4.ee	f	.	8ccc\)	f
8r	.	.	.	.	.	8r	.
8r	.	.	.	.	.	8r	.
(4GGG#X/ 4GG#X	.	.	8e/L] 8ee]	.	.	(16ccc\LL	.
.	.	.	.	.	.	16eee\)	.
.	.	.	8a/	.	.	(16ddd\	.
.	.	.	.	.	.	16ccc\	.
8AAA/) 8AA	.	.	8cc/J	.	.	16bbn\	.
.	.	.	.	.	.	16aa\JJ	.
(4.FF/ 4.F	.	.	8g#X/	.	.	16ddd\LL	.
.	.	.	.	.	.	16ccc\	.
.	.	.	8r	.	.	16bb\	.
.	.	.	.	.	.	16ccc\	.
.	.	.	8r	.	.	16bb\	.
.	.	.	.	.	.	16aa\JJ	.
[4.EE/ [4.E	.	.	4.r	.	.	16gg#X\LL	.
.	.	.	.	.	.	16ff\	.
.	.	.	.	.	.	16ee\	.
.	.	.	.	.	.	16dd\	.
.	.	.	.	.	.	16cc\	.
.	.	.	.	.	.	16bn\JJ	.
!!LO:PB:g=original
=127	=127	=127	=127	=127	=127	=127	=127
*	*	*	*^	*	*	*	*
8EE/L]) 8E]	.	.	(4.c/ 4.cc	2.ryy	.	.	4a/)	.
(16AAA/L	.	.	.	.	.	.	.	.
16EE/	.	.	.	.	.	.	.	.
16AA/	.	.	.	.	.	.	8r	.
16C/JJ)	.	.	.	.	.	.	.	.
16r	.	.	4G#X/ 4g#X	.	.	.	4e/ 4cc 4ee	.
(16E/LL	.	.	.	.	.	.	.	.
16D/	.	.	.	.	.	.	.	.
16C/	.	.	.	.	.	.	.	.
16BBn/	.	.	8A/) 8a	.	.	.	8r	.
16AA/JJ)	.	.	.	.	.	.	.	.
8r	.	.	4.ggn^/	16gg\LL	.	.	4.r	.
.	.	.	.	16gn\	.	.	.	.
8r	.	.	.	16a\	.	.	.	.
.	.	.	.	16cc\	.	.	.	.
8E-X'\ 8A 8c 8e-X	.	.	.	16a\	.	.	.	.
.	.	.	.	16g\JJ	.	.	.	.
8r	.	.	4.ff#X^/	16ff#\LL	.	.	8d/ 8cc 8ff#X	.
.	.	.	.	16f#X\	.	.	.	.
8r	.	.	.	16a\	.	.	8r	.
.	.	.	.	16cc\	.	.	.	.
8D'\ 8A 8c 8d	.	.	.	16a\	.	.	8r	.
.	.	.	.	16f#\JJ	.	.	.	.
*	*	*	*v	*v	*	*	*	*
=128	=128	=128	=128	=128	=128	=128	=128
(4.BBB-X/ 4.BB-X	.	.	[4.dd\ [4.ddd	.	.	8G/ 8d 8b- 8gg	.
.	.	.	.	.	.	(16d/LL	.
.	.	.	.	.	.	16b-/	.
.	.	.	.	.	.	16dd/	.
.	.	.	.	.	.	16gg/JJ	.
4FFF#X/ 4FF#X	.	.	8dd\L] 8ddd]	.	.	16bb-\LL	.
.	.	.	.	.	.	16ddd\)	.
.	.	.	8g'\	.	.	(16ccc\	.
.	.	.	.	.	.	16bb-\	.
8GGG/) 8GG	.	.	8b-'\J	.	.	16aa\	.
.	.	.	.	.	.	16gg\JJ	.
(4.EE-X/ 4.E-X	.	.	8f#X/	.	.	16ccc\LL	.
.	.	.	.	.	.	16bb-\)	.
.	.	.	8r	.	.	(16aa\	.
.	.	.	.	.	.	16bb-\	.
.	.	.	8r	.	.	16aa\	.
.	.	.	.	.	.	16gg\JJ	.
[4.DD/ [4.D	.	.	4.r	.	.	16ff#X\LL	.
.	.	.	.	.	.	16ee-X\	.
.	.	.	.	.	.	16dd\	.
.	.	.	.	.	.	16cc\	.
.	.	.	.	.	.	16b-\	.
.	.	.	.	.	.	16a\JJ	.
=129	=129	=129	=129	=129	=129	=129	=129
*	*	*	*^	*	*	*	*
8DD/L]) 8D]	.	.	(4.b-\ 4.bb-	2.ryy	.	.	4g/)	.
(16GG/L	.	.	.	.	.	.	.	.
16D/	.	.	.	.	.	.	.	.
16G/	.	.	.	.	.	.	8r	.
16B-/JJ)	.	.	.	.	.	.	.	.
16r	.	.	4f#X\ 4ff#X	.	.	.	4d/ 4b- 4dd	.
(16d\LL	.	.	.	.	.	.	.	.
16c\	.	.	.	.	.	.	.	.
16B-\	.	.	.	.	.	.	.	.
!	!	!	!	!	!	!	!LO:TX:t=P:problem=łamanie układu	!
16A\	.	.	8g\) 8gg	.	.	.	8r	.
16G\JJ)	.	.	.	.	.	.	.	.
*clefG2	*	*	*	*	*	*	*	*
!!LO:LB:g=original
8r	.	.	4.fffn^/	16fff\LL	.	.	4.r	.
.	.	.	.	16ffn\	.	.	.	.
8r	.	.	.	16gg\	.	.	.	.
.	.	.	.	16bb-\	.	.	.	.
8d'/ 8g 8b-	.	.	.	16gg\	.	.	.	.
.	.	.	.	16ff\JJ	.	.	.	.
8r	.	.	4.eee^/	16eee\LL	.	.	4g\ 4b- 4ee	.
.	.	.	.	16ee\	.	.	.	.
8r	.	.	.	16gg\	.	.	.	.
.	.	.	.	16bb-\	.	.	.	.
8c#X'/ 8g 8b-	.	.	.	16gg\	.	.	8r	.
.	.	.	.	16ee\JJ	.	.	.	.
*	*	*	*v	*v	*	*	*	*
*clefF4	*	*	*	*	*	*	*
=130	=130	=130	=130	=130	=130	=130	=130
(<4.FF/ 4.F	.	.	[4.aa\ [4.aaa	.	.	8d/L 8a 8ff	.
.	.	.	.	.	.	(16A/L	.
.	.	.	.	.	.	16f/	.
.	.	.	.	.	.	16a/	.
.	.	.	.	.	.	16dd/JJ	.
4CC#X/ 4C#X	.	.	8aa\L] 8aaa]	.	.	16ff\LL	.
.	.	.	.	.	.	16aa\)	.
.	.	.	8dd'\	.	.	(16gg\	.
.	.	.	.	.	.	16ff\	.
8DD/ 8D	.	.	8ff'\J	.	.	16ee\	.
.	.	.	.	.	.	16dd\JJ	.
4.BB-\) 4.B-	.	.	8cc#X\	.	.	16gg\LL	.
.	.	.	.	.	.	16ff\)	.
.	.	.	8r	.	.	(16ee\	.
.	.	.	.	.	.	16ff\	.
.	.	.	8r	.	.	16ee\	.
.	.	.	.	.	.	16dd\JJ	.
[4.AA\ [4.A	.	.	4.r	.	.	16cc#X/LL	.
.	.	.	.	.	.	16b-X/	.
.	.	.	.	.	.	16a/	.
.	.	.	.	.	.	16g/	.
.	.	.	.	.	.	16f/	.
.	.	.	.	.	.	16e/JJ	.
=131	=131	=131	=131	=131	=131	=131	=131
*	*	*	*^	*	*	*	*
8AA/L] 8A]	.	.	(4.f\ 4.ff	2.ryy	.	.	8d/)	.
(16DD/L	.	.	.	.	.	.	8r	.
16AA/	.	.	.	.	.	.	.	.
16D/	.	.	.	.	.	.	8r	.
16F/JJ)	.	.	.	.	.	.	.	.
16r	.	.	4c#X/ 4cc#X	.	.	.	4f\ 4a 4ff	.
(16A\LL	.	.	.	.	.	.	.	.
16G\	.	.	.	.	.	.	.	.
16F\	.	.	.	.	.	.	.	.
16E\	.	.	8d/) 8dd	.	.	.	8r	.
16D\JJ)	.	.	.	.	.	.	.	.
*clefG2	*	*	*	*	*	*	*	*
8r	.	.	4.cccn^/	16ccc\LL	.	.	4.r	.
.	.	.	.	16ccn\	.	.	.	.
8r	.	.	.	16dd\	.	.	.	.
.	.	.	.	16ff\	.	.	.	.
8d'/ 8f 8a-X	.	.	.	16dd\	.	.	.	.
.	.	.	.	16cc\JJ	.	.	.	.
8r	.	.	4.bbn^/	16bb\LL	.	.	4.gg\	.
.	.	.	.	16bn\	.	.	.	.
8r	.	.	.	16dd\	.	.	.	.
.	.	.	.	16ff\	.	.	.	.
8G'/ 8d 8f 8g	.	.	.	16dd\	.	.	.	.
.	.	.	.	16b\JJ	.	.	.	.
*	*	*	*v	*v	*	*	*	*
!!LO:LB:g=original
*clefF4	*	*	*	*	*	*	*
=132	=132	=132	=132	=132	=132	=132	=132
*	*	*	*	*	*	*^	*
8C/	.	.	16r	.	.	4.bb-X\ 4.ggg	1ryy	ff
*	*	*	*8va	*	*	*	*	*
.	.	.	(16bbb-X\LL	ff	.	.	.	.
*clefG2	*	*	*	*	*	*	*	*
8r	.	.	16eee\	.	.	.	.	.
.	.	.	16ggg\	.	.	.	.	.
8r	.	.	16eee\	.	.	.	.	.
.	.	.	16bb-X\JJ	.	.	.	.	.
4c:/ 4f: 4a-X: 4dd:	sfz	.	16fff\LL	.	.	8.aa-X\L 8.fff	.	.
.	.	.	16ddd\	.	.	.	.	.
.	.	.	16bbn\	.	.	.	.	.
.	.	.	16ddd\	.	.	16ggg\K	.	.
8r	.	.	16bb\	.	.	8aa-\J 8fff	.	.
.	.	.	16ff\JJ)	.	.	.	.	.
*clefF4	*	*	*	*	*	*	*	*
*	*	*	*X8va	*	*	*	*	*
4C:\ 4G: 4e:	.	.	16r	.	.	4.gg\ 4.eee	.	.
.	.	.	(16ggg\LL	.	.	.	.	.
.	.	.	16bb-X\	.	.	.	.	.
.	.	.	16eee\	.	.	.	.	.
*clefG2	*	*	*	*	*	*	*	*
8r	.	.	16bb-\	.	.	.	8ryy	.
.	.	.	16gg\JJ	.	.	.	.	.
4c:/ 4f: 4a-X: 4dd:	sfz	.	16ddd\LL	.	.	8bbn/	(>8aa-\L	.
.	.	.	16aa-X\	.	.	.	.	.
.	.	.	16ff\	.	.	4ryy	8gg\	.
.	.	.	16bbn\	.	.	.	.	.
8r	.	.	16ff\	.	.	.	8ff\J)	.
.	.	.	16dd\JJ)	.	.	.	.	.
*clefF4	*	*	*	*	*	*	*	*
*	*	*	*	*	*	*v	*v	*
=133	=133	=133	=133	=133	=133	=133	=133
8C/L	.	.	16r	.	.	8ee\L 8ccc	.
.	.	.	(16gg\LL	.	.	.	.
*clefG2	*	*	*	*	*	*	*
8r	.	.	16ee\	.	.	8g\	.
.	.	.	16aa-X\	.	.	.	.
((8Bn/J 8d	.	.	16ff\	>	.	(8a-X\J 8ff	.
.	.	.	16dd\JJ	.	.	.	.
8c/L)) 8e	.	.	16gg\LL	.	.	8g/L) 8ee	.
.	.	.	16ee\	.	.	.	.
8r	.	.	16cc\	.	.	8G/	.
.	.	.	16ff\	.	.	.	.
((8d/J 8f	.	.	16dd\	.	.	(8f/J 8dd	.
.	.	.	16bn\JJ	.	.	.	.
8e/L)) 8g	.	.	16ee\LL	.	.	8e/L) 8cc	.
.	.	.	16cc\	.	.	.	.
8r	.	.	16g\	.	.	8G/	.
.	.	.	16b\	.	.	.	.
*clefF4	*	*	*	*	*	*	*
((8D/J 8F	.	.	16a-X\	.	.	(8d/J 8bn	.
.	.	.	16f\JJ	.	.	.	.
8E\L)) 8G	.	.	16cc/LL	.	.	8e/L) 8cc	.
.	.	.	16g/	.	.	.	.
8r	.	.	16e/	.	.	8G/	.
.	.	.	16f/	]	.	.	.
(8F\J 8A-X	.	.	16d/	.	.	(8f/J 8dd	.
.	.	.	16Bn/JJ)	.	.	.	.
!!LO:LB:g=original
=134	=134	=134	=134	=134	=134	=134	=134
8C/)	.	.	8c/	.	.	8e/L) 8cc	p
8r	.	.	8r	.	.	8G/	.
8r	.	.	8r	.	.	(8f/J 8a-X	.
*	*	*	*clefF4	*	*	*	*
8CC/L	.	.	16C\LL	.	.	8e/L) 8g	>
.	.	.	16G\	>	.	.	.
8.r	.	.	16E\	.	.	8G/	.
.	.	.	16F\	.	.	.	.
.	.	.	16D-X\	.	.	(8f/J 8a-	.
(16BBBn/Jk	.	.	16BBn\JJ	.	.	.	.
8CC/L)	.	.	16C\LL	.	.	8e/L) 8g	.
.	.	.	16G\	.	.	.	.
8.r	.	.	16E\	.	.	8G/	.
.	.	.	16F\	.	.	.	.
.	.	.	16D-X\	.	.	(8f/J 8a-	.
(16BBB/Jk	.	.	16BB\JJ	.	.	.	.
8CC/L)	.	.	16C\LL	.	.	8e/L) 8g	.
.	.	.	16G\	]	.	.	.
8.r	.	.	16E\	.	.	8G/	]
.	.	.	16F\	.	.	.	.
.	.	.	16D-\	.	.	(8f/J 8a-	.
(16BBB/Jk	.	.	16BB\JJ	.	.	.	.
=135	=135	=135	=135	=135	=135	=135	=135
8CC/)	.	.	8C/	.	.	8e/) 8g	.
8r	.	.	8r	.	.	8r	.
8r	.	.	8r	.	.	8r	.
*	*	*	*clefG2	*	*	*	*
[2.C^/	.	.	[2.c^/	.	.	(2.c^/	.
4C/]	.	.	4c/]	.	.	4c/)	.
(<8C/	.	.	(8c/	.	.	8r	.
=136	=136	=136	=136	=136	=136	=136	=136
!	!	!	!LO:TX:b:i:t=misterioso	!	!	!	!
4.BBn/	.	.	4.Bn/	.	.	1.r	.
4E\	.	.	4e/	.	.	.	.
8C/	.	.	8c/	.	.	.	.
4.BB/	.	.	4.B/	.	.	.	.
4AA#X/)	.	.	4A#X/)	.	.	.	.
(<8FF#X/	.	.	(8F#X/	.	.	.	.
=137	=137	=137	=137	=137	=137	=137	=137
4.GG/	.	.	4.G/	.	.	1.r	.
4E\	.	.	4e/	.	.	.	.
8C/	.	.	8c/	<	.	.	.
4.BBn/	.	.	4.Bn/	.	.	.	.
4AA#X/)	.	.	4A#X/)	[	.	.	.
(<8FF#X/	.	.	(8F#X/	.	.	.	.
!!LO:LB:g=original
=138	=138	=138	=138	=138	=138	=138	=138
*ped	*	*	*	*	*	*	*
4.GG/)	.	.	4.G/)	.	.	1.r	.
([4.G^\	.	.	([4.g^>/	.	.	.	.
!LO:N:vis=4	!	!	!LO:N:vis=4	!	!	!	!
16%3G\]	.	.	16%3g/]	.	.	.	.
*Xped	*	*	*	*	*	*	*
!LO:N:vis=4	!	!	!LO:N:vis=4	!	!	!	!
16%3E~\	.	.	16%3e~/	.	.	.	.
!LO:N:vis=4	!	!	!LO:N:vis=4	!	!	!	!
16%3D~\	.	.	16%3d~/	.	.	.	.
!LO:N:vis=4	!	!	!LO:N:vis=4	!	!	!	!
16%3C~/)	.	.	16%3c~/)	.	.	.	.
=139	=139	=139	=139	=139	=139	=139	=139
*	*	*	*^	*	*	*	*
[2.DD/	.	.	[2.f/	4.c\	.	.	[1.gg-X	pp
.	.	.	.	4.A\	.	.	.	.
4DD/]	.	.	4.f/]	2.Bn\	.	.	.	.
(8DD/	.	.	.	.	.	.	.	.
4GG/	.	.	4e/	.	.	.	.	.
8FF/)	.	.	8d/	.	.	.	.	.
=140	=140	=140	=140	=140	=140	=140	=140	=140
[2.EE/	.	.	[<2.G/ [2.g	4.d\	,	.	1.gg-_	<
.	.	.	.	4.Bn\	.	.	.	.
!	!	!	!LO:TX:a:i:t=un poco	!	!	!	!	!
4EE/]	.	.	4.G/_ 4.g_	2.c\	.	.	.	.
(8EE/	.	.	.	.	.	.	.	.
4AA/	.	.	8G/L] 8g]	.	.	.	.	.
.	.	.	8F/ 8f	.	.	.	.	.
8GG/)	.	.	8E/J 8e	.	.	.	.	[
=141	=141	=141	=141	=141	=141	=141	=141	=141
[4.FF/	.	.	4.A/ 4.a	[>2.c\	.	.	4.gg-\_	.
8FF/L]	.	.	2.D/ 2.d	.	.	.	8gg-\L]	.
(8EEE/ 8EE	.	.	.	.	.	.	8ff\	.
8FFF#X/J 8FF#X	.	.	.	.	.	.	8ee\J	.
4.GGG/) 4.GG	.	.	.	4.c\]	.	.	4.dd\	.
4.AAA-X/ 4.AA-X	.	.	4.c/ 4.d	4.D/	.	.	4.dd\	.
=142	=142	=142	=142	=142	=142	=142	=142	=142
*^	*	*	*	*	*	*	*	*
[2.D>/	2.GGG/ [2.GG	.	.	[2.f/	4.c\	.	.	[2.dd\	.
.	.	.	.	.	4.Bn\	.	.	.	.
!LO:TX:t=P:problem=mixed beam	!	!	!	!	!	!	!	!	!
8D>\L]	4.GG\]	.	.	8f/L]	2.B-X\	.	.	8dd\L]	.
*	*	*	*	*Xtremolo	*	*	*	*	*
!	!	!	!	!LO:TX:b:i:t=riten.	!	!	!	!LO:TX:a:i:t=riten.	!LO:HP:b:t=dim.
(8F/	.	.	.	(8f/	.	.	.	(8dd\	>
8E/J	.	.	.	8e/J	.	.	.	8cc#X\J	.
8D/L	4.GG#X\	.	.	8d/L	.	.	.	8ff\L	.
8E/	.	.	.	8c#X/	.	.	.	8ee\	.
8F/J	.	.	.	8d/J	.	.	.	8dd\J)	.
*v	*v	*	*	*	*	*	*	*	*
*	*	*	*v	*v	*	*	*	*
!!LO:PB:g=original
=143	=143	=143	=143	=143	=143	=143	=143
!	!	!	!LO:TX:a:i:t=a tempo	!	!	!LO:TX:a:i:t=a tempo	!
8AA/L) 8E	.	.	4A/) 4c#X	.	.	4a/	.
(<8AA/	.	.	.	.	.	.	.
8AAA/J	.	.	8r	p	.	8r	.
8AA/L	.	.	4.r	.	.	4.r	.
8AAA/	.	.	.	.	.	.	.
8AA/J	.	.	.	.	.	.	.
*tremolo	*	*	*	*	*	*	*
8AAA/L	.	.	4.r	.	.	4.r	.
8AA/	.	.	.	.	.	.	.
8AAA/	.	.	.	.	.	.	.
*	*	*	*	*	*	*tremolo	*
8AA/	.	.	(4.A/ 4.a	p	.	8A/L 8a	p
8AAA/	.	.	.	.	.	8A/ 8a	.
8AA/J)	.	.	.	.	.	8A/J 8a	.
*Xtremolo	*	*	*	*	*	*	*
=144	=144	=144	=144	=144	=144	=144	=144
(8AAA/L	.	.	4.Bn/ 4.bn	.	.	4A/ 4a	.
8AA/	.	.	.	.	.	.	.
8AAA/J	.	.	.	.	.	8r	.
!	!	!	!LO:TX:b:i:t=espress.	!	!	!	!
8GGG#X/L	.	.	4e/) 4ee	.	.	4.r	.
8GG#X/	.	.	.	.	.	.	.
8GGG#/J	.	.	8d/ 8dd	.	.	.	.
8GGGn/L	.	.	4.c#X/ 4.cc#X	.	.	4.r	.
8GGn/)	.	.	.	.	.	.	.
(<8GG/J	.	.	.	.	.	.	.
8G/L	.	.	(<4.A/ 4.a	.	.	8A/L 8a	<
8GG/	.	.	.	.	.	8A/ 8a	.
8G/J	.	.	.	.	.	8A/J 8a	.
=145	=145	=145	=145	=145	=145	=145	=145
8FF#X/L	.	.	4.Bn/ 4.a 4.bn	<	.	4A/ 4a	.
8F#X/	.	.	.	.	.	.	.
8FF#/J	.	.	.	.	.	8r	.
8EE/L	.	.	4g\ 4b 4gg	.	.	4.r	.
8E/	.	.	.	.	.	.	.
8EE/J	.	.	8e'/) 8ee	.	.	.	.
8AA\L	.	.	(4.d/ 4.dd	[	.	4.r	.
8A\	.	.	.	.	.	.	.
8AA\J	.	.	.	.	.	.	.
8GG/L	.	.	8c#X/L) 8cc#X	.	.	8A/L 8a	.
8G/	.	.	8A'/ 8a	.	.	8A/ 8a	.
8GG/J)	.	.	8B'/J 8b	.	.	8A/J 8a	.
=146	=146	=146	=146	=146	=146	=146	=146
(8FF#X/L	.	.	4cn/ 4ccn	.	.	4A/ 4a	.
8F#X/	.	.	.	.	.	.	.
8EE/J	.	.	8r	.	.	8r	.
[8DD/L	.	.	((2.cc\ 2.ccc	<	.	4dd\	.
8DD/]) 8D	.	.	.	.	.	.	.
8EE'/J 8E	.	.	.	.	.	(8dd\	<
(<8FF#X/L	.	.	.	.	.	[4.ddd\	.
8F#/	.	.	.	.	.	.	.
8FF#/J	.	.	.	.	.	.	.
8GG\L) 8G	.	.	8b-X\L)) 8bb-X	.	.	8ddd\L])	.
8AA'\ 8A	.	.	8a'\ 8aa	.	.	8ccc\	.
8BB-'\J 8B-	.	.	8g'\J 8gg	.	.	8bb-\J	.
!!LO:LB:g=original
=147	=147	=147	=147	=147	=147	=147	=147
*^	*	*	*^	*	*	*	*
!LO:N:vis=2.	!	!	!	!	!	!	!	!	!
8C/L	2.C\	.	.	[4.ff\	[4.f\	.	.	[4.aa\	.
8c/	.	.	.	.	.	.	.	.	.
8A/J	.	.	.	.	.	.	.	.	.
8F/L	.	.	.	4a/ 4cc	8f\L] 8ff]	.	.	8aa\L]	.
8A/	.	.	.	.	8e\ 8ee	.	.	8gg\	.
8F/J	.	.	.	2ryy	8f\J 8ff	.	.	8ff\J	.
!LO:N:vis=2.	!	!	!	!	!	!	!	!	!
8BB-/L	2.BB-\	.	.	.	[4.g\ [4.gg	>	.	(8ee\L	>
8c/	.	.	.	.	.	.	.	8dd\	.
8G/J	.	.	.	.	.	.	.	8cc\J)	.
8E/L	.	.	.	4cc/	8g\L] 8gg]	]	.	[4cc\	.
8G/	.	.	.	.	8e\ 8ee	.	.	.	.
8E/J	.	.	.	8ryy	8d\J 8dd	.	.	8cc\]	]]
*	*	*	*	*v	*v	*	*	*	*
=148	=148	=148	=148	=148	=148	=148	=148	=148
4AA/	2.ryy	.	.	8c/L 8cc	.	.	[2.ccc\	p <
.	.	.	.	8cc'/	.	.	.	.
8r	.	.	.	8e'/J	.	.	.	.
*clefG2	*	*	*	*	*	*	*	*
!	!	!	!	!LO:TX:b:i:t=legg.	!	!	!	!
8b-'/L	.	.	.	[4.cc^\	.	.	.	.
8e'/	.	.	.	.	.	.	.	.
8b-'/J	.	.	.	.	.	.	.	.
!LO:N:vis=2.	!	!	!	!	!	!	!	!
(8A/L	2.A\	.	.	8cc\L]	.	.	4.ccc\]	[
8a/	.	.	.	8dd'\	.	.	.	.
8f/J	.	.	.	8ee'\J	.	.	.	.
8c/L	.	.	.	8ff'\L	.	.	4.cc\	.
8f/	.	.	.	8gg'\	.	.	.	.
8c/J)	.	.	.	8aa'\J	.	.	.	.
*v	*v	*	*	*	*	*	*	*
=149	=149	=149	=149	=149	=149	=149	=149
8G/L	.	.	4bb-\	.	.	(4.dd\	.
8b-/	.	.	.	.	.	.	.
8f/J	.	.	8r	.	.	.	.
8d/L	.	.	[4.b-^\	.	.	4bb-\	.
8f/	.	.	.	.	.	.	.
8d/J	.	.	.	.	.	8gg\)	.
*clefF4	*	*	*	*	*	*	*
8C\L	.	.	8b-\L]	.	.	(4.ff~\	.
8e\	.	.	8cc'\	.	.	.	.
8c\J	.	.	8dd'\J	.	.	.	.
8B-\L	.	.	8ee'\L	.	.	4.ee~\)	.
8c\	.	.	8ff'\	.	.	.	.
8B-\J	.	.	8gg'\J	.	.	.	.
=150	=150	=150	=150	=150	=150	=150	=150
*^	*	*	*	*	*	*	*
8F\L 8A	2.ryy	.	.	4aa\	.	.	[2.aa\	p <
8a'\	.	.	.	.	.	.	.	.
8c#X'\J	.	.	.	8r	.	.	.	.
8g'\L	.	.	.	[4.a^\ [4.aa	.	.	.	.
8c#'\	.	.	.	.	.	.	.	.
8g'\J	.	.	.	.	.	.	.	.
!LO:N:Vis=2.	!	!	!	!	!	!	!	!
(<8F/L	2.F\	.	.	8a\L] 8aa]	.	.	4.aa\]	[
8f/	.	.	.	8bn\ 8bbn	.	.	.	.
8d/J	.	.	.	8cc#X\J 8ccc#X	.	.	.	.
8A/L	.	.	.	8dd\L 8ddd	<	.	4.aa\	.
8d/	.	.	.	8ee\ 8eee	.	.	.	.
8A/J)	.	.	.	8ff\J 8fff	[[	.	.	.
*v	*v	*	*	*	*	*	*	*
!!LO:LB:g=original
=151	=151	=151	=151	=151	=151	=151	=151
!	!	!	!	!	!	!LO:TX:b:i:t=espress.	!
8E\L	.	.	4gg\ 4ggg	.	.	(4.bb-\	.
8g\	.	.	.	.	.	.	.
8d\J	.	.	8r	.	.	.	.
8B-\L	.	.	[4.g^\ [4.gg	.	.	4ggg\	.
8d\	.	.	.	.	.	.	.
8B-\J	.	.	.	.	.	8eee\)	.
8AA\L	.	.	8g\L] 8gg]	.	.	((4.ddd\	.
8c#X\	.	.	8a\ 8aa	.	.	.	.
8A\J	.	.	8bn\J 8bbn	.	.	.	.
8G\L	.	.	8cc#X\L 8ccc#X	.	.	4ccc#X\)	.
8A\	.	.	8dd\ 8ddd	.	.	.	.
8G\J	.	.	8ee\J 8eee	.	.	8ccc#'\)	p
=152	=152	=152	=152	=152	=152	=152	=152
*	*	*	*^	*	*	*	*
*	*	*	*	*	*	*	*Xtremolo	*
4D\	.	.	4fff\	4ff\	.	.	(8fff\L	.
.	.	.	.	.	.	.	8eee\)	.
8r	.	.	8r	8ryy	.	.	(8fff\J	.
(8G\L	.	.	(4.b-/	[4.b-\	p	.	4bb-\)	.
8A\	.	.	.	.	.	.	.	.
8B-\J	.	.	.	.	.	.	(8bb-\	.
4.c\	.	.	4.ee-X/	(8b-\L]	.	.	4.eee-X\	.
.	.	.	.	8a\)	.	.	.	.
.	.	.	.	8g'\J	.	.	.	.
4D\	.	.	4dd/	(8f#X\L	.	.	4aa\)	.
.	.	.	.	8g\)	.	.	.	.
8F#X\	.	.	8cc/)	8a'\J	.	.	8r	.
=153	=153	=153	=153	=153	=153	=153	=153	=153
!	!	!	!LO:TX:b:i:t=dolce	!	!	!	!LO:TX:b:i:t=dolce	!
4G\)	.	.	4b-/	4g/	.	.	(8bb-\L	.
.	.	.	.	.	.	.	8aa\)	.
8r	.	.	8r	8ryy	.	.	(8bb-\J	.
((8C\L	.	.	(4.e-X/	[4.e-\	.	.	4ee-X\)	.
8D\)	.	.	.	.	.	.	.	.
8E-X\J	.	.	.	.	.	.	(8ee-\	.
4.F\	.	.	4.a-X/	(8e-\L]	.	.	4.aa-X\	.
.	.	.	.	8d\)	.	.	.	.
.	.	.	.	8c'\J	.	.	.	.
4G\)	.	.	4g/	(8Bn\L	.	.	4dd\)	.
.	.	.	.	8c\)	.	.	.	.
8BBBn/	.	.	8f/)	8d'\J	.	.	8r	.
*	*	*	*clefF4	*	*	*	*	*
=154	=154	=154	=154	=154	=154	=154	=154	=154
*^	*	*	*	*	*	*	*	*
(4BBB-X/	4.BBB-^\	.	.	16r	16ryy	.	.	(8gg\L	.
.	.	.	.	(<16E/LL	4E\	.	.	.	.
.	.	.	.	16d/	.	.	.	8ff#X\)	.
.	.	.	.	16c#X/	.	<	.	.	.
8C#X/)	.	.	.	16G/	.	.	.	(8gg\J	<
.	.	.	.	16E/JJ)	8ryy	.	.	.	.
(4AAA/	4.AAA^\	.	.	16r	.	.	.	4cc#X\)	.
.	.	.	.	(<16G/LL	4G\	.	.	.	.
.	.	.	.	16f/	.	.	.	.	.
.	.	.	.	16e/	.	.	.	.	.
!	!	!	!	!	!	!	!	!LO:TX:b:i:t=poco a poco e string.:dur=5q:ext=s	!
!	!	!	!	!LO:TX:b:i:t=poco a poco e string.:dur=5q:ext=s	!	!	!	!	!
8C#/)	.	.	.	16c#/	.	.	.	(8cc#\	.
.	.	.	.	16G/JJ)	8ryy	.	.	.	.
*	*	*	*	*clefG2	*	*	*	*	*
!!LO:LB:g=original
(4EE-X/	4.EE-^\	.	.	16r	.	.	.	(4.ccn\)	.
.	.	.	.	(<16A/LL	4A\	.	.	.	.
.	.	.	.	16g/	.	.	.	.	.
.	.	.	.	16f#X/	.	.	.	.	.
8F#X/)	.	.	.	16cn/	.	.	.	.	.
.	.	.	.	16A/JJ)	8ryy	.	.	.	.
(4DD/	4.DD^\	.	.	16r	.	.	.	8cccn\)	.
.	.	.	.	(<16c/LL	4c\	.	.	.	.
.	.	.	.	16bn/	.	.	.	8r	.
.	.	.	.	16a/	.	.	.	.	.
8F#/)	.	.	.	16f#/	.	.	.	8r	.
.	.	.	.	16c/JJ)	16ryy	.	.	.	.
!!LO:LB:g=original
=155	=155	=155	=155	=155	=155	=155	=155	=155	=155
(4AA-X/	4.AA-^\	.	.	16r	16ryy	.	.	(8ffn\L	.
.	.	.	.	(<16d/LL	4d\	.	.	.	.
.	.	.	.	16cc/	.	.	.	8ee\)	.
.	.	.	.	16bn/	.	.	.	.	.
8Bn/)	.	.	.	16f/	.	.	.	(8ff\J	.
.	.	.	.	16d/JJ)	8ryy	.	.	.	.
(4GG/	4.GG^\	.	.	16r	.	.	.	4bn\)	.
.	.	.	.	(<16f/LL	4f\	.	.	.	.
.	.	.	.	16ee/	.	.	.	.	.
.	.	.	.	16dd/	.	.	.	.	.
8B/)	.	.	.	16b/	.	.	.	(8b\	.
.	.	.	.	16f/JJ)	8ryy	.	.	.	.
(4D-X/	4.D-^\	.	.	16r	.	.	.	4.b-X\	.
.	.	.	.	(<16g/LL	4g\	.	.	.	.
.	.	.	.	16ff/	.	.	.	.	.
.	.	.	.	16ee/	.	.	.	.	.
8e/)	.	.	.	16b-X/	.	.	.	.	.
.	.	.	.	16g/JJ)	8ryy	.	.	.	.
(4C/	4.C^\	.	.	16r	.	.	.	8bb-X\)	.
.	.	.	.	(<16b-/LL	4b-\	.	.	.	.
.	.	.	.	16aa/	.	.	.	8r	.
.	.	.	.	16gg/	.	.	.	.	.
8e/)	.	.	.	16ee/	.	.	.	8r	.
.	.	.	.	16b-/JJ)	16ryy	.	.	.	.
=156	=156	=156	=156	=156	=156	=156	=156	=156	=156
(4D#X/	4.D#^\	.	.	16r	16ryy	.	.	(8aa\L	.
.	.	.	.	(<16a/LL	4a\	.	.	.	.
.	.	.	.	16ggn/	.	.	.	8gg#X\)	.
.	.	.	.	16ff#X/	.	.	.	.	.
8f#X/)	.	.	.	16cc/	.	.	.	(8aa\J	.
.	.	.	.	16a/JJ)	8ryy	.	.	.	.
(4E/	4.E^\	.	.	16r	.	.	.	4cc\)	.
.	.	.	.	(<16cc/LL	4cc\	.	.	.	.
.	.	.	.	16bbn/	.	.	.	.	.
.	.	.	.	16aa/	.	.	.	.	.
8a/)	.	.	.	16ee/	.	.	.	(8dd\	.
.	.	.	.	16cc/JJ)	8ryy	.	.	.	.
!!LO:LB:g=original
(4F#X/	4.F#^\	.	.	16r	.	.	.	4.ee-X\)	.
.	.	.	.	(<16ee-X/LL	4ee-\	.	.	.	.
.	.	.	.	16ddd/	.	.	.	.	.
.	.	.	.	16ccc/	.	.	.	.	.
8a/)	.	.	.	16aa/	.	.	.	.	.
.	.	.	.	16ee-/JJ)	8ryy	.	.	.	.
*clefG2	*	*	*	*	*	*	*	*	*
(4A/	4.A^\	.	.	16r	.	.	.	(4.eee-X\	.
.	.	.	.	(<16ff#X/LL	4ff#X\	.	.	.	.
.	.	.	.	16fffn/	.	.	.	.	.
.	.	.	.	16eee-X/	.	.	.	.	.
8cc/)	.	.	.	16ccc/	.	.	.	.	.
.	.	.	.	16ff#/JJ)	16ryy	.	.	.	.
!!LO:LB:g=original
=157	=157	=157	=157	=157	=157	=157	=157	=157	=157
(4B-/	4.B-\	.	.	16r	16ryy	.	.	4ddd\)	.
.	.	.	.	(<16dd/LL	4dd\	.	.	.	.
.	.	.	.	16ddd/	.	.	.	.	.
.	.	.	.	16bb-/	.	.	.	.	.
8d/) 8g 8b-	.	.	.	16gg/	.	.	.	8r	.
.	.	.	.	16dd/JJ)	8ryy	.	.	.	.
(4Bn/	4.B\	.	.	16r	.	.	.	(4.dd-X^\ 4.ddd-X	.
.	.	.	.	(<16dd-X/LL	4dd-\	.	.	.	.
.	.	.	.	16ddd-X/	.	.	.	.	.
.	.	.	.	16aa-X/	.	.	.	.	.
8f/) 8a-X	.	.	.	16ff/	.	.	.	.	.
.	.	.	.	16dd-/JJ)	8ryy	.	.	.	.
(4c/	4.c\	.	.	16r	.	.	.	4.cc\) 4.ccc	.
.	.	.	.	(<16cc/LL	4cc\	.	.	.	.
.	.	.	.	16ccc/	.	.	.	.	.
.	.	.	.	16aa-/	.	.	.	.	.
8f/) 8a-	.	.	.	16ff/	.	.	.	.	.
.	.	.	.	16cc/JJ)	8ryy	.	.	.	.
(4d-X/	4.d-\	.	.	16r	.	.	.	(4.bn^\ 4.bbn	.
.	.	.	.	(<16bn/LL	4b\	.	.	.	.
.	.	.	.	16bbn/	.	.	.	.	.
.	.	.	.	16aa-/	.	.	.	.	.
8f/) 8a-	.	.	.	16ff/	.	.	.	.	.
.	.	.	.	16b/JJ)	16ryy	.	.	.	.
*v	*v	*	*	*	*	*	*	*	*
*	*	*	*v	*v	*	*	*	*
=158	=158	=158	=158	=158	=158	=158	=158
4c/ 4f 4a#X	.	.	4cc\ 4ff 4aa 4ccc	ff	.	4cc\) 4ccc	.
*clefF4	*	*	*	*	*	*	*
8r	.	.	8r	.	.	[8ccc\	ff
4CC/ 4C	.	.	4b-\ 4ee 4gg 4ccc	.	.	16ccc\LL]	.
.	.	.	.	.	.	(16bb-X\	.
.	.	.	.	.	.	16aa\	.
.	.	.	.	.	.	16bb-\	.
8r	.	.	8r	.	.	16ddd\	.
.	.	.	.	.	.	16bb-\JJ	.
4.r	.	.	4.r	.	.	16aa\LL	.
.	.	.	.	.	.	16gg\	.
.	.	.	.	.	.	16ff#X\	.
.	.	.	.	.	.	16gg\	.
.	.	.	.	.	.	16aa\	.
.	.	.	.	.	.	16gg\JJ	.
4C\ 4c	.	.	4g\ 4b- 4ee	.	.	16bb-\LL	.
.	.	.	.	.	.	16gg\	.
.	.	.	.	.	.	16ee\	.
.	.	.	.	.	.	16cc\	.
8r	.	.	8r	.	.	16b-\	.
.	.	.	.	.	.	16g\JJ	.
!!LO:PB:g=original
=159	=159	=159	=159	=159	=159	=159	=159
!	!	!	!LO:TX:b:i:t=a tempo	!	!	!LO:TX:a:i:t=a tempo	!
4FF/ 4F	.	.	4f\ 4a 4ff	.	.	4f/)	.
8r	.	.	8r	.	.	8r	.
(4.CC#X/ 4.C#X	.	.	(([4.a\ 4.ee 4.aa	>	.	(4.a\ 4.aa	.
4DD/) 4D	.	.	4a\])) 4dd 4ff	.	.	4a\) 4ff	.
8r	.	.	8r	]	.	8r	.
4CCn'/ 4Cn	.	.	4cc'\ 4ee 4gg 4ccc	.	.	4g\ 4ee 4ccc	.
8r	.	.	8r	.	.	8r	.
=160	=160	=160	=160	=160	=160	=160	=160
4FF'/ 4F	.	.	4a'\ 4cc 4ff 4aa	.	.	4f\ 4cc 4aa	.
8r	.	.	8r	.	.	8r	.
(4.GGG#X/ 4.GG#X	.	.	[4.e/ 4.bn 4.ee	.	.	(4.e/ 4.ee	>
4AAA/) 4AA	.	.	4e/] 4a 4cc	.	.	4e/) 4cc	.
8r	.	.	8r	.	.	8r	]
4GGGn'/ 4GGn	.	.	4g'\ 4bn 4dd 4gg	.	.	4G/ 4d 4bn 4gg	.
8r	.	.	8r	.	.	8r	.
=161	=161	=161	=161	=161	=161	=161	=161
*	*	*	*^	*	*	*	*
4CC'/ 4C	.	.	4e'/ 4g 4cc 4ee	1ryy	.	.	4c/ 4e 4cc 4ee	.
8r	.	.	8r	.	.	.	8r	.
(4.FFF/ 4.FF	.	.	[4.d-X/ 4.a-X 4.dd-X	.	p >	.	4.r	.
!	!	!	!LO:TX:b:i:t=sotto voce	!	!	!	!	!
4GGG-X/) 4GG-X	.	.	4d-/] 4g-X 4b-X	.	.	.	2.r	.
8r	.	.	8r	8ryy	]	.	.	.
(4.EEE-X/ 4.EE-X	.	.	[4.g-/ [4.gg-X	8dd-\L	.	.	.	.
.	.	.	.	8b-\	.	.	.	.
.	.	.	.	8dd-\J	.	.	.	.
=162	=162	=162	=162	=162	=162	=162	=162	=162
4AAA-X/) 4AA-X	.	.	4g-\] 4cc-X 4gg-]	1ryy	.	.	1.r	.
8r	.	.	8r	.	.	.	.	.
(4.AAA-/ 4.AA-	.	.	[4.c-X/ 4.g-X [4.cc-	.	>	.	.	.
4DD-X/) 4D-X	.	.	4c-/] 4f 4cc-]	.	]	.	.	.
8r	.	.	8r	8ryy	.	.	.	.
(4.DDD-X/ 4.DD-	.	.	[<4.f/ [4.ff	8cc-\L	.	.	.	.
.	.	.	.	8a-X\	.	.	.	.
.	.	.	.	8cc-\J	.	.	.	.
!!LO:LB:g=original
=163	=163	=163	=163	=163	=163	=163	=163	=163
4GGG-X/) 4GG-X	.	.	4f\] 4b- 4ff]	1ryy	.	.	1.r	.
8r	.	.	8r	.	.	.	.	.
(4.GGG-/ 4.GG-	.	.	[4.B-/ 4.f [4.b-	.	>	.	.	.
4CC-X/) 4C-X	.	.	4B-/] 4e-X 4b-]	.	]	.	.	.
8r	.	.	8r	8ryy	.	.	.	.
(4.CCC-X/ 4.CC-X	.	.	[<4.e-/ [4.ee-X	8b-\L	.	.	.	.
.	.	.	.	8g-X\	.	.	.	.
.	.	.	.	8b-\J	.	.	.	.
*	*	*	*v	*v	*	*	*	*
=164	=164	=164	=164	=164	=164	=164	=164
4FFF/) 4FF	.	.	4e-/] 4a-X 4ee-]	.	.	4.r	.
8r	.	.	8r	.	.	.	.
(4.BBB-/ 4.BB-	.	.	((4.A-X/ 4.d-X 4.a-	>	.	2.dd-X\	p
4EEE-X/) 4EE-X	.	.	4Gn/)) 4d- 4gn	]	.	.	.
8r	.	.	8r	.	.	.	.
(4.EEEn/ 4.EEn	.	.	((4.G-X/ 4.d- 4.g-X	.	.	[4.dd-\	.
=165	=165	=165	=165	=165	=165	=165	=165
4FFF/) 4FF	.	.	4F/)) 4d 4f	.	.	4.dd-\]	.
8r	.	.	8r	.	.	.	.
!	!	!	!	!LO:HP:a	!	!	!
(4.GGG-X/ 4.GG-X	.	.	((4.F-X/ 4.B- 4.f-X	<	.	[4.d-X/	.
!	!	!	!LO:TX:a:i:t=poco	!	!	!	!
4GGGn/) 4GGn	.	.	4E/)) 4B- 4e-X	.	.	4d-/]	.
8r	.	.	8r	.	.	(8d-/	<
(4.GGG#X/ 4.GG#X	.	.	(4.Dn/ 4.B- 4.dn	sfz	.	4f/)	.
.	.	.	.	.	.	[8f/	[
*	*	*	*clefF4	*	*	*	*
!!LO:LB:g=original
=166	=166	=166	=166	=166	=166	=166	=166
*^	*	*	*^	*	*	*	*
4AAA/) 4AA	4.ryy	.	.	4F\) 4c	4C\	.	.	4f/]	.
8r	.	.	.	8r	8.ryy	.	.	8r	.
!	!	!	!	!	!	!	!	!LO:TX:b:i:t=espress.	!
(4FF/	4.FF\	.	.	16r	.	.	.	(4ff\	.
.	.	.	.	(<16F/LL	4F\	.	.	.	.
.	.	.	.	16d/	.	.	.	.	.
.	.	.	.	16c/	.	.	.	.	.
16BBn/LL	.	.	.	16A/	.	.	.	8dd\)	.
16C/JJ)	.	.	.	16F/JJ)	8ryy	.	.	.	.
(4DD/	4.DD\	.	.	16r	.	.	.	4.cc\	.
.	.	.	.	(<16A/LL	4A\	.	.	.	.
.	.	.	.	16g/	.	.	.	.	.
.	.	.	.	16f/	.	.	.	.	.
16C#X/LL	.	.	.	16c/	.	.	.	.	.
16D/JJ)	.	.	.	16A/JJ)	8ryy	.	.	.	.
*	*	*	*	*clefG2	*	*	*	*	*
(4GG/	4.GG\	.	.	16r	.	.	.	(4.bn\	.
.	.	.	.	(<16Bn/LL	4B\	.	.	.	.
.	.	.	.	16a/	.	.	.	.	.
.	.	.	.	16g/	.	.	.	.	.
16F#X/LL	.	.	.	16f/	.	.	.	.	.
16G/JJ)	.	.	.	16B/JJ)	16ryy	.	.	.	.
=167	=167	=167	=167	=167	=167	=167	=167	=167	=167
4CC/	[2.CC\	.	.	16r	16ryy	.	.	4.b-X\)	.
*	*	*	*	*	*ped	*	*	*	*
.	.	.	.	(16e/LL	4e\	.	.	.	.
.	.	.	.	16dd/	.	.	.	.	.
.	.	.	.	16cc/	.	.	.	.	.
[8C/	.	.	.	16b-X/	.	.	.	.	.
.	.	.	.	16e/JJ	1ryy	.	.	.	.
4.C/_ 4.B- 4.e	.	.	.	16gg/LL	.	.	.	[4.bb-^<\	<
.	.	.	.	16ee/	.	.	.	.	.
.	.	.	.	16b-/	.	.	.	.	.
.	.	.	.	16g/	.	.	.	.	.
.	.	.	.	16e/	.	.	.	.	.
.	.	.	.	16B-/JJ	.	.	.	.	.
!	!	!	!	!	!	!	!	!LO:TUP:a	!
!	!	!	!	!	!	!	!	!LO:N:vis=4	!
8CC/L] 8C]	2.ryy	.	.	8G/)	.	.	.	16%3bb-\]	.
8DD'/ 8D	.	.	.	8r	.	.	.	.	.
!	!	!	!	!	!	!	!	!LO:N:vis=4	!
.	.	.	.	.	.	.	.	16%3gg~\	.
8EE'/J 8E	.	.	.	8r	.	.	.	.	.
!	!	!	!	!	!	!	!	!LO:N:vis=4	!
8FF'\L 8F	.	.	.	4.r	.	<	.	16%3ff~\	.
8GG'\ 8G	.	.	.	.	.	.	.	.	.
*	*	*	*	*	*Xpe	*	*	*	*
!	!	!	!	!	!	!	!	!LO:N:vis=4	!
.	.	.	.	.	8.ryy	.	.	16%3ee-X~\	.
8AA'\J 8A	.	.	.	.	.	[	.	.	.
*	*	*	*	*clefF4	*	*	*	*	*
!!LO:LB:g=original
=168	=168	=168	=168	=168	=168	=168	=168	=168	=168
4B-\	4BB-\	.	.	4.r	4.ryy	.	.	4.dd\	.
8r	8ryy	.	.	.	.	.	.	.	.
(4GG/	4.GG\	.	.	16r	16ryy	.	.	(4gg\	.
.	.	.	.	(<16G/LL	4G\	p	.	.	.
.	.	.	.	16e-X/	.	.	.	.	.
.	.	.	.	16d/	.	.	.	.	.
16C#X/LL	.	.	.	16B-/	.	.	.	8ee-X\)	.
16D/JJ)	.	.	.	16G/JJ)	8ryy	.	.	.	.
*	*	*	*	*clefG2	*	*	*	*	*
(4EE/	4.EE\	.	.	16r	.	.	.	4.dd\	.
.	.	.	.	(<16B-/LL	4B-\	.	.	.	.
.	.	.	.	16a/	.	.	.	.	.
.	.	.	.	16g/	.	.	.	.	.
16D#X/LL	.	.	.	16d/	.	.	.	.	.
16E/JJ)	.	.	.	16B-/JJ)	8ryy	.	.	.	.
(4AA/	4.AA\	.	.	16r	.	.	.	(4.cc#X\	.
.	.	.	.	(<16c#X/LL	4c#\	.	.	.	.
.	.	.	.	16b-/	.	.	.	.	.
.	.	.	.	16a/	.	.	.	.	.
16G#X/LL	.	.	.	16g/	.	.	.	.	.
16A/JJ)	.	.	.	16c#/JJ)	16ryy	.	.	.	.
=169	=169	=169	=169	=169	=169	=169	=169	=169	=169
*	*	*	*	*ped	*	*	*	*	*
4DD/	[2.DD\	.	.	16r	16ryy	.	.	4.ccn\)	.
.	.	.	.	(16cn/LL	4c\	.	.	.	.
.	.	.	.	16b-/	.	.	.	.	.
.	.	.	.	16a/	.	.	.	.	.
[8D/	.	.	.	16f#X/	.	.	.	.	.
.	.	.	.	16c/JJ	1ryy	.	.	.	.
4.D/_ 4.c 4.f#X	.	.	.	16aa\LL	.	.	.	[4.ccc^<\	.
.	.	.	.	16ff#X\	.	.	.	.	.
.	.	.	.	16cc\	.	.	.	.	.
.	.	.	.	16a\	.	.	.	.	.
.	.	.	.	16f#\	.	.	.	.	.
.	.	.	.	16c\JJ	.	.	.	.	.
*	*	*	*	*Xped	*	*	*	*	*
!	!	!	!	!	!	!	!	!LO:TUP:a	!
!	!	!	!	!	!	!	!	!LO:N:vis=4	!
8DD/L] 8D]	2.ryy	.	.	8A/)	.	.	.	16%3ccc\]	.
8EE'/ 8E	.	.	.	8r	.	.	.	.	.
!	!	!	!	!	!	!	!	!LO:N:vis=4	!
.	.	.	.	.	.	.	.	16%3aa\	.
8FF#X'/J 8F#X	.	.	.	8r	.	<	.	.	.
!	!	!	!	!	!	!	!	!LO:N:vis=4	!
8GG'\L 8G	.	.	.	4.r	.	.	.	16%3gg\	.
8AA'\ 8A	.	.	.	.	.	.	.	.	.
!	!	!	!	!	!	!	!	!LO:N:vis=4	!
.	.	.	.	.	8.ryy	.	[	16%3ff\	.
8BBn'\J 8Bn	.	.	.	.	.	.	.	.	.
!!LO:LB:g=original
=170	=170	=170	=170	=170	=170	=170	=170	=170	=170
4c\	4C\	.	.	4.r	4.ryy	.	.	4.ee\	.
8r	8ryy	.	.	.	.	.	.	.	.
(4AA/	4.AA\	.	.	16r	16ryy	.	.	(4aa\	.
.	.	.	.	(<16A/LL	4A\	.	.	.	.
.	.	.	.	16f/	.	.	.	.	.
.	.	.	.	16e/	.	.	.	.	.
16D#X/LL	.	.	.	16c/	.	.	.	8ff\)	.
16E/JJ)	.	.	.	16A/JJ)	8ryy	<	.	.	.
(4C/	4.C\	.	.	16r	.	.	.	4.ee\	.
.	.	.	.	(<16c/LL	4c\	.	.	.	.
.	.	.	.	16bn/	.	.	.	.	.
.	.	.	.	16a/	.	.	.	.	.
16G#X/LL	.	.	.	16e/	.	.	.	.	.
16A/JJ)	.	.	.	16c/JJ)	8ryy	.	.	.	.
(4GGn/	4.GG\	.	.	16r	.	.	.	(4.ee-X\	.
.	.	.	.	(<16e-X/LL	4e-\	.	.	.	.
.	.	.	.	16dd/	.	.	.	.	.
.	.	.	.	16cc/	.	.	.	.	.
16Bn/LL	.	.	.	16a/	.	.	.	.	.
16c/JJ)	.	.	.	16e-/JJ)	16ryy	.	.	.	.
*v	*v	*	*	*	*	*	*	*	*
*	*	*	*v	*v	*	*	*	*
=171	=171	=171	=171	=171	=171	=171	=171
!LO:TX:b:i:t=molto	!	!	!	!	!	!	!
4.FF#X/	.	.	16r	.	.	4.dd\)	.
.	.	.	(16d/LL	.	.	.	.
.	.	.	16dd/	.	.	.	.
.	.	.	16cc/	.	.	.	.
.	.	.	16a/	.	.	.	.
.	.	.	16d/JJ	.	.	.	.
4.C\ 4.F#X 4.A 4.d	sfz	.	16aa\LL	.	.	[4.ddd\	.
.	.	.	16ff#X\	.	.	.	.
.	.	.	16dd\	.	.	.	.
.	.	.	16a\	.	.	.	.
.	.	.	16f#X\	.	.	.	.
.	.	.	16d\JJ)	.	.	.	.
!	!	!	!	!	!	!LO:TUP:a	!
!	!	!	!	!	!	!LO:N:vis=4	!
2.BB-\ 2.D 2.G 2.d	.	.	16r	.	.	16%3ddd\]	.
.	.	.	(16dd\LL	.	.	.	.
.	.	.	16ddd\	.	.	.	.
!	!	!	!	!	!	!LO:N:vis=4	!
.	.	.	16bb-\	.	.	16%3bb-\	.
.	.	.	16gg\	.	.	.	.
.	.	.	16dd\JJ	.	.	.	.
!	!	!	!	!	!	!LO:N:vis=4	!
.	.	.	16b-/LL	.	.	16%3aa\	.
.	.	.	16g/	.	.	.	.
.	.	.	16dd/	.	.	.	.
!	!	!	!	!	!	!LO:N:vis=4	!
.	.	.	16b-/	.	.	16%3gg\	.
.	.	.	16g/	.	.	.	.
.	.	.	16d/JJ)	.	.	.	.
!!LO:PB:g=original
=172	=172	=172	=172	=172	=172	=172	=172
.	.	.	.	.	.	8qgg/	.
4.BBB-/ 4.BB-	.	.	16r	.	.	[2.ggg\	.
.	.	.	(16c/LL	.	.	.	.
.	.	.	16cc/	.	.	.	.
.	.	.	16g/	.	.	.	.
.	.	.	16e/	.	.	.	.
.	.	.	16c/JJ	.	.	.	.
4.E\ 4.G 4.c	sfz	.	16gg/LL	.	.	.	.
.	.	.	16ee/	.	.	.	.
.	.	.	16cc/	.	.	.	.
.	.	.	16g/	.	.	.	.
.	.	.	16e/	.	.	.	.
.	.	.	16c/JJ)	.	.	.	.
!	!	!	!	!	!	!LO:TUP:a	!
!	!	!	!	!	!	!LO:N:vis=4	!
(2.BBB-/ 2.BB-	.	.	16r	.	.	16%3ggg\]	.
.	.	.	(16cc\LL	.	.	.	.
.	.	.	16ccc\	.	.	.	.
!	!	!	!	!	!	!LO:N:vis=4	!
.	.	.	16gg\	.	.	16%3eee\	.
.	.	.	16ee\	.	.	.	.
.	.	.	16cc\JJ	.	.	.	.
!	!	!	!	!	!	!LO:N:vis=4	!
.	.	.	16g/LL	.	.	16%3ddd\	.
.	.	.	16e/	.	.	.	.
.	.	.	16cc/	.	.	.	.
!	!	!	!	!	!	!LO:N:vis=4	!
.	.	.	16g/	.	.	16%3ccc\	.
.	.	.	16e/	.	.	.	.
.	.	.	16c/JJ)	.	.	.	.
=173	=173	=173	=173	=173	=173	=173	=173
4AAA/) 4AA	.	.	16r	ff	.	[2.aaa\	ff
.	.	.	(16a/LL	.	.	.	.
.	.	.	16A/	.	.	.	.
.	.	.	16c#X/	.	.	.	.
8r	.	.	16e/	.	.	.	.
.	.	.	16a/JJ	.	.	.	.
(4.GG/ 4.G	.	.	16ee\LL	.	.	.	.
.	.	.	16cc#X\	.	.	.	.
.	.	.	16aa\	.	.	.	.
.	.	.	16ee\	.	.	.	.
.	.	.	16cc#\	.	.	.	.
.	.	.	16a\JJ)	.	.	.	.
4.FF/ 4.F	.	.	16r	.	.	4aaa\]	.
.	.	.	(16a\LL	.	.	.	.
.	.	.	16aa\	.	.	.	.
.	.	.	16ff\	.	.	.	.
.	.	.	16dd\	.	.	(8bbn\	.
.	.	.	16a\JJ	.	.	.	.
4.DD/ 4.D	.	.	16f/LL	.	.	8fff\L)	.
.	.	.	16d/	.	.	.	.
.	.	.	16a/	.	.	8eee\	.
.	.	.	16f/	.	.	.	.
.	.	.	16d/	.	.	8ddd\J	.
.	.	.	16A/JJ)	.	.	.	.
!!LO:LB:g=original
=174	=174	=174	=174	=174	=174	=174	=174
4AAA/) 4AA	.	.	16r	.	.	[2.aaa\	.
.	.	.	(16a/LL	.	.	.	.
.	.	.	16A/	.	.	.	.
.	.	.	16c#X/	.	.	.	.
8r	.	.	16e/	.	.	.	.
.	.	.	16a/JJ	.	.	.	.
(8AA/L	.	.	16ee\LL	.	.	.	.
.	.	.	16cc#X\	.	.	.	.
8A/	.	.	16aa\	.	.	.	.
.	.	.	16ee\	.	.	.	.
8GG/J 8G	.	.	16cc#\	.	.	.	.
.	.	.	16a\JJ)	.	.	.	.
8FF/L	.	.	16r	.	.	4aaa\]	.
.	.	.	(16a\LL	.	.	.	.
8F/)	.	.	16aa\	.	.	.	.
.	.	.	16ff\	.	.	.	.
(8EE/J 8E	.	.	16dd\	.	.	(8bbn\	.
.	.	.	16a\JJ	.	.	.	.
8DD/L	.	.	16f/LL	.	.	8fff\L)	.
.	.	.	16d/	.	.	.	.
8D/	.	.	16a/	.	.	8eee\	.
.	.	.	16f/	.	.	.	.
8CC/J) 8C	.	.	16d/	.	.	8ddd\J	.
.	.	.	16A/JJ)	.	.	.	.
=175	=175	=175	=175	=175	=175	=175	=175
*	*	*	*ped	*	*	*	*
.	.	.	(8qf/	.	.	.	.
8BBBn\L 8BBn	.	.	2.aa\)	.	.	8aaa\	.
8D\ 8F 8A 8Bn	.	.	.	.	.	8r	.
8D\J 8F 8A 8B	.	.	.	.	.	8r	.
*tremolo	*	*	*	*	*	*	*
8D\L 8F 8A 8B	.	.	.	.	.	4.r	.
8D\ 8F 8A 8B	.	.	.	.	.	.	.
8D\ 8F 8A 8B	.	.	.	.	.	.	.
8D\ 8F 8A 8B	.	.	4aa\	.	.	2.r	.
8D\ 8F 8A 8B	.	.	.	.	.	.	.
8D\J 8F 8A 8B	.	.	(8bn\	.	.	.	.
8D\L 8F 8A 8B	.	.	8ff\L)	.	.	.	.
8D\ 8F 8A 8B	.	.	(8ee'\	.	.	.	.
8D\J 8F 8A 8B	.	.	8dd'\J)	.	.	.	.
!!LO:LB:g=original
=176	=176	=176	=176	=176	=176	=176	=176
8E\L 8G#X 8d	.	.	4dd\	.	.	[2.fff\	p
8E\ 8G# 8d	.	.	.	.	.	.	.
8E\ 8G# 8d	.	.	8r	.	.	.	.
8E\ 8G# 8d	.	.	[2.g#X/	.	.	.	.
8E\ 8G# 8d	.	.	.	.	.	.	.
8E\J 8G# 8d	.	.	.	.	.	.	.
8E\L 8G# 8d	.	.	.	.	.	4fff\]	>
8E\ 8G# 8d	.	.	.	.	.	.	.
8E\ 8G# 8d	.	.	.	.	.	(8gg#X\	.
8E\ 8G# 8d	.	.	4g#/]	.	.	8ddd\L)	.
8E\ 8G# 8d	.	.	.	.	.	8ccc\	.
8E\J 8G# 8d	.	.	8r	.	.	8bbn\J	]]
=177	=177	=177	=177	=177	=177	=177	=177
.	.	.	(8qA/	<	.	.	.
8E-X\L 8F 8A	.	.	[2.cc\)	.	.	4ddd\	.
8E-\ 8F 8A	.	.	.	.	.	.	.
8E-\ 8F 8A	.	.	.	.	.	8r	.
8E-\ 8F 8A	.	.	.	.	.	[2.ccc\	.
8E-\ 8F 8A	.	.	.	.	.	.	.
8E-\J 8F 8A	.	.	.	.	.	.	.
8D\L 8F 8A	.	.	4cc\]	.	.	.	.
8D\ 8F 8A	.	.	.	[	.	.	.
8D\ 8F 8A	.	.	(8d/	.	.	.	.
8D\ 8F 8A	.	.	8a/L)	.	.	4ccc\]	.
8D\ 8F 8A	.	.	8g'/	.	.	.	.
8D\J 8F 8A	.	.	(8f/J	.	.	8r	.
=178	=178	=178	=178	=178	=178	=178	=178
*Xtremolo	*	*	*	*	*	*	*
8C\L	.	.	4a/)	.	.	[2.bb-\	.
8B-\ 8c 8f	.	.	.	.	.	.	.
8B-\J 8c 8f	.	.	8r	.	.	.	.
*tremolo	*	*	*	*	*	*	*
8B-\L 8c 8f	.	.	[2.g/	.	.	.	.
8B-\ 8c 8f	.	.	.	.	.	.	.
8B-\J 8c 8f	.	.	.	.	.	.	.
8B-\L 8c 8d	.	.	.	.	.	4bb-\]	.
8B-\ 8c 8d	.	.	.	.	.	.	.
8B-\J 8c 8d	.	.	.	.	.	(8ee\	.
8B-\L 8c 8e	.	.	4g/]	.	.	8gg\L)	.
8B-\ 8c 8e	.	.	.	.	.	8ff\	.
8B-\J 8c 8e	.	.	8r	.	.	8ee\J	.
=179	=179	=179	=179	=179	=179	=179	=179
!LO:TX:b:i:t=espress.	!	!	!	!	!	!	!
[2.AA/	.	.	4.r	.	.	(8ff~\L	.
.	.	.	.	.	.	8gg~\	.
.	.	.	.	.	.	8gg#X~\J)	.
!	!	!	!	!LO:HP:a	!	!	!
.	.	.	(4.A/ 4.c#X 4.f 4.a	sfz	.	[4.aa\	.
4AA/]	.	.	4F/) 4Bn 4d	>]	.	4aa\]	.
(8BBBn/	.	.	8r	.	.	8r	.
8FF/L)	.	.	4.r	.	.	4.r	.
(8EE'/	.	.	.	.	.	.	.
8DD'/J)	.	.	.	.	.	.	.
!!LO:LB:g=original
=180	=180	=180	=180	=180	=180	=180	=180
[2.AA/	p	.	4.r	.	.	(8c#X~/L	pp
.	.	.	.	.	.	8d~/	.
.	.	.	.	.	.	8e~/J)	.
*	*	*	*clefF4	*	*	*	*
.	.	.	(4.F\ 4.A 4.c#X 4.f	sfz >]	.	[4.f/	.
4AA/]	.	.	4D\) 4G#X 4Bn	.	.	4f/]	.
(8BBBn/	.	.	8r	.	.	8r	.
8FF/L)	.	.	4.r	.	.	4.r	.
(8EE'/	.	.	.	.	.	.	.
8DD'/J)	.	.	.	.	.	.	.
=181	=181	=181	=181	=181	=181	=181	=181
*	*	*	*ped	*	*	*	*
(4.DD/	.	.	2.r	.	.	2.r	.
2.GGG#X/) 2.GG#X	.	.	.	.	.	.	.
!	!	!	!LO:TX:b:i:t=molto espress.	!	!	!	!
.	.	.	2.D:\ 2.F: 2.B-: 2.d:	.	.	4.r	.
!	!	!	!	!	!	!LO:TX:b:i:t=espress.	!
[4.GGG#/ [4.GG#	.	.	.	.	.	8d/L	mf
.	.	.	.	.	.	8e/	.
.	.	.	.	.	.	8f/J	.
=182	=182	=182	=182	=182	=182	=182	=182
!	!	!	!LO:TX:b:i:t=riten.	!	!	!LO:TX:b:i:t=riten.	!
4.GGG#/] 4.GG#]	.	.	1.F: 1.B-: 1.d: 1.f:	.	.	[2.b-\	.
(4.GGG#X/ 4.GG#X	.	.	.	.	.	.	.
4.DD/) 4.D	.	.	.	.	.	4b-\]	.
.	.	.	.	.	.	(8b-\	.
4.DD/ 4.D	.	.	.	.	.	4bb-\)	.
*	*	*	*Xped	*	*	*	*
.	.	.	.	.	.	(8bb-\	.
*	*	*	*clefG2	*	*	*	*
=183	=183	=183	=183	=183	=183	=183	=183
!	!	!	!LO:TX:a:i:t=a tempo	!	!	!LO:TX:a:i:t=a tempo	!
4CC/ 4C	.	.	4A/ 4c 4f 4a	ff	.	4aa\)	.
8r	.	.	8r	.	.	8r	.
4.r	.	.	4.r	.	.	(16A/LL	ff
.	.	.	.	.	.	16c/	.
.	.	.	.	.	.	16d/	.
.	.	.	.	.	.	16e/	.
.	.	.	.	.	.	16f/	.
.	.	.	.	.	.	16g/JJ	.
4AAA/ 4AA	.	.	4c/ 4e 4a 4cc	.	.	4a/)	.
8r	.	.	8r	.	.	8r	.
4.r	.	.	4.r	.	.	(16a\LL	.
.	.	.	.	.	.	16cc\	.
.	.	.	.	.	.	16dd\	.
.	.	.	.	.	.	16ee\	.
.	.	.	.	.	.	16ff\	.
.	.	.	.	.	.	16gg\JJ	.
!!LO:LB:g=original
=184	=184	=184	=184	=184	=184	=184	=184
4DD/ 4AA 4F	.	.	4f\ 4a 4dd 4ff	.	.	4aa\)	.
8r	.	.	8r	.	.	8r	.
!	!	!	!	!	!	!LO:TUP:a	!
4.r	.	.	4.r	.	.	(56%3cc\LL	.
.	.	.	.	.	.	56%3dd\	.
.	.	.	.	.	.	56%3ee\	.
.	.	.	.	.	.	56%3ff\	.
.	.	.	.	.	.	56%3gg\	.
.	.	.	.	.	.	56%3aa\	.
.	.	.	.	.	.	56%3bb-\JJ	.
4CC/ 4GG 4E	.	.	4g\ 4cc 4ee 4gg	.	.	4ccc\)	.
8r	.	.	8r	.	.	8r	.
4.r	.	.	4.r	.	.	(16G/LL	.
.	.	.	.	.	.	16A/	.
.	.	.	.	.	.	16B-/	.
.	.	.	.	.	.	16c/	.
.	.	.	.	.	.	16d/	.
.	.	.	.	.	.	16e/JJ	.
=185	=185	=185	=185	=185	=185	=185	=185
4FFF/ 4FF	.	.	4a\ 4cc 4ff 4aa	.	.	4f/)	.
8r	.	.	8r	.	.	8r	.
4.r	.	.	4.r	.	.	4.r	.
4FF/ 4C 4A	.	.	4f\ 4a 4cc 4ff	.	.	4f\ 4cc 4aa	.
8r	.	.	8r	.	.	8r	.
4.r	.	.	4.r	.	.	4.r	.
=186	=186	=186	=186	=186	=186	=186	=186
4FFF/ 4FF	.	.	4A/ 4c 4f	.	.	4A/ 4f	.
8r	.	.	8r	.	.	8r	.
4.r	.	.	4.r	.	.	4.r	.
2.r	.	.	2.r	.	.	2.r	.
==	==	==	==	==	==	==	==
*-	*-	*-	*-	*-	*-	*-	*-
!!!RDF**kern: < = below
!!!RDF**kern: > = above
!!!system-decoration: s1[(s2,s3)]
!!!ENC: Filip Voros
!!!END: 2022-03-21
!!!ENC: Urszula Świątek
!!!END: 2022-03-26
!!!YEC: Copyright 2022 Narodowy Instytut Fryderyka Chopina (https://polishscores.org)
!!!YEM: License CC-BY-4.0 (https://creativecommons.org/licenses/by/4.0)
